(G-CODE GENERATED BY FLATCAM v8.994 - www.flatcam.org - Version Date: 2020/11/7)

(Name: eMMC_V3.5.2_0603-Edge_Cuts.gm1_cutout_cnc)
(Type: G-code from Geometry)
(Units: MM)

(Created on Monday, 05 August 2024 at 02:10)

(This preprocessor is the default preprocessor used by FlatCAM.)
(It is made to work with MACH3 compatible motion controllers.)

(TOOL DIAMETER: 0.1 mm)
(Feedrate_XY: 120.0 mm/min)
(Feedrate_Z: 60.0 mm/min)
(Feedrate rapids 1500.0 mm/min)

(Z_Cut: -0.1 mm)
(DepthPerCut: 0.6 mm <=>1 passes)
(Z_Move: 2.0 mm)
(Z Start: None mm)
(Z End: 28.0 mm)
(X,Y End: None mm)
(Steps per circle: 64)
(Preprocessor Geometry: default)

(X range:    1.1800 ...   14.5800  mm)
(Y range:    1.0100 ...   19.9300  mm)

(Spindle Speed: 100.0 RPM)
G21
G90
G94

G01 F120.00

M5
G00 Z15.0000
G00 X0.0000 Y0.0000
T1
M6    
(MSG, Change to Tool Dia = 0.1000)
M0
G00 Z15.0000

M03 S100.0
G01 F120.00
G00 X1.1800 Y19.7300
G01 F60.00
G01 Z-0.1000
G01 F120.00
G01 X1.1804 Y19.7423
G01 X1.1818 Y19.7569
G01 X1.1854 Y19.7762
G01 X1.1909 Y19.7951
G01 X1.1982 Y19.8133
G01 X1.2072 Y19.8307
G01 X1.2179 Y19.8471
G01 X1.2302 Y19.8625
G01 X1.2439 Y19.8765
G01 X1.2589 Y19.8892
G01 X1.2751 Y19.9003
G01 X1.2923 Y19.9097
G01 X1.3103 Y19.9174
G01 X1.3290 Y19.9234
G01 X1.3482 Y19.9274
G01 X1.3677 Y19.9296
G01 X1.3800 Y19.9300
G01 X14.3800 Y19.9300
G01 X14.3923 Y19.9296
G01 X14.4069 Y19.9282
G01 X14.4262 Y19.9246
G01 X14.4497 Y19.9174
G01 X14.4677 Y19.9097
G01 X14.4849 Y19.9003
G01 X14.4971 Y19.8921
G01 X14.5125 Y19.8798
G01 X14.5265 Y19.8661
G01 X14.5421 Y19.8471
G01 X14.5528 Y19.8307
G01 X14.5597 Y19.8177
G01 X14.5691 Y19.7951
G01 X14.5734 Y19.7810
G01 X14.5774 Y19.7618
G01 X14.5796 Y19.7423
G01 X14.5800 Y19.7300
G01 X14.5800 Y1.2100
G01 X14.5796 Y1.1977
G01 X14.5782 Y1.1831
G01 X14.5746 Y1.1638
G01 X14.5691 Y1.1449
G01 X14.5597 Y1.1223
G01 X14.5503 Y1.1051
G01 X14.5421 Y1.0929
G01 X14.5298 Y1.0775
G01 X14.5125 Y1.0602
G01 X14.4971 Y1.0479
G01 X14.4807 Y1.0372
G01 X14.4677 Y1.0303
G01 X14.4451 Y1.0209
G01 X14.4262 Y1.0154
G01 X14.4118 Y1.0126
G01 X14.3923 Y1.0104
G01 X14.3800 Y1.0100
G01 X1.3800 Y1.0100
G01 X1.3677 Y1.0104
G01 X1.3531 Y1.0118
G01 X1.3338 Y1.0154
G01 X1.3103 Y1.0226
G01 X1.2923 Y1.0303
G01 X1.2751 Y1.0397
G01 X1.2629 Y1.0479
G01 X1.2475 Y1.0602
G01 X1.2335 Y1.0739
G01 X1.2179 Y1.0929
G01 X1.2072 Y1.1093
G01 X1.2003 Y1.1223
G01 X1.1909 Y1.1449
G01 X1.1866 Y1.1590
G01 X1.1826 Y1.1782
G01 X1.1804 Y1.1977
G01 X1.1800 Y1.2100
G01 X1.1800 Y19.7300
G00 Z2.0000
M05
G00 Z2.0000
G00 Z28.00


