(G-CODE GENERATED BY FLATCAM v8.994 - www.flatcam.org - Version Date: 2020/11/7)

(Name: eMMC_V3.5.2_0603-B_Paste.gbp_mt_paint_cnc)
(Type: G-code from Geometry)
(Units: MM)

(Created on Monday, 05 August 2024 at 16:37)

(This preprocessor is the default preprocessor used by FlatCAM.)
(It is made to work with MACH3 compatible motion controllers.)

(TOOL DIAMETER: 0.22 mm)
(Feedrate_XY: 120.0 mm/min)
(Feedrate_Z: 60.0 mm/min)
(Feedrate rapids 1500.0 mm/min)

(Z_Cut: -0.0999 mm)
(Z_Move: 2.0 mm)
(Z Start: None mm)
(Z End: 15.0 mm)
(X,Y End: 0.0000, 0.0000 mm)
(Steps per circle: 64)
(Preprocessor Geometry: default)

(X range:    2.9050 ...   14.6750  mm)
(Y range:    5.8750 ...   19.5300  mm)

(Spindle Speed: 100.0 RPM)
G21
G90
G94

G01 F120.00

M5
G00 Z15.0000
G00 X0.0000 Y0.0000
T1

G00 Z15.0000

M03 S700.0
G01 F120.00
G00 X3.5850 Y7.2727
G01 F60.00
G01 Z-0.0999
G01 F120.00
G01 X3.5843 Y7.2587
G01 X3.5827 Y7.2476
G01 X3.5799 Y7.2367
G01 X3.5761 Y7.2260
G01 X3.5713 Y7.2159
G01 X3.5655 Y7.2062
G01 X3.5588 Y7.1971
G01 X3.5512 Y7.1888
G01 X3.5429 Y7.1812
G01 X3.5338 Y7.1745
G01 X3.5241 Y7.1687
G01 X3.5140 Y7.1639
G01 X3.5033 Y7.1601
G01 X3.4924 Y7.1573
G01 X3.4813 Y7.1557
G01 X3.4673 Y7.1550
G01 X3.0227 Y7.1550
G01 X3.0087 Y7.1557
G01 X2.9976 Y7.1573
G01 X2.9867 Y7.1601
G01 X2.9760 Y7.1639
G01 X2.9659 Y7.1687
G01 X2.9562 Y7.1745
G01 X2.9471 Y7.1812
G01 X2.9388 Y7.1888
G01 X2.9312 Y7.1971
G01 X2.9245 Y7.2062
G01 X2.9187 Y7.2159
G01 X2.9139 Y7.2260
G01 X2.9101 Y7.2367
G01 X2.9073 Y7.2476
G01 X2.9057 Y7.2587
G01 X2.9050 Y7.2727
G01 X2.9050 Y7.7673
G01 X2.9057 Y7.7813
G01 X2.9073 Y7.7924
G01 X2.9101 Y7.8033
G01 X2.9139 Y7.8140
G01 X2.9187 Y7.8241
G01 X2.9245 Y7.8338
G01 X2.9312 Y7.8429
G01 X2.9388 Y7.8512
G01 X2.9471 Y7.8588
G01 X2.9562 Y7.8655
G01 X2.9659 Y7.8713
G01 X2.9760 Y7.8761
G01 X2.9867 Y7.8799
G01 X2.9976 Y7.8827
G01 X3.0087 Y7.8843
G01 X3.0227 Y7.8850
G01 X3.4673 Y7.8850
G01 X3.4813 Y7.8843
G01 X3.4924 Y7.8827
G01 X3.5033 Y7.8799
G01 X3.5140 Y7.8761
G01 X3.5241 Y7.8713
G01 X3.5338 Y7.8655
G01 X3.5429 Y7.8588
G01 X3.5512 Y7.8512
G01 X3.5588 Y7.8429
G01 X3.5655 Y7.8338
G01 X3.5713 Y7.8241
G01 X3.5761 Y7.8140
G01 X3.5799 Y7.8033
G01 X3.5827 Y7.7924
G01 X3.5843 Y7.7813
G01 X3.5850 Y7.7673
G01 X3.5850 Y7.2727
G01 X3.0810 Y7.7090
G01 X3.4090 Y7.7090
G01 X3.4090 Y7.3310
G01 X3.0810 Y7.3310
G01 X3.0810 Y7.7090
G00 Z2.0000
G00 X3.5850 Y8.8927
G01 F60.00
G01 Z-0.0999
G01 F120.00
G01 X3.5843 Y8.8787
G01 X3.5827 Y8.8676
G01 X3.5799 Y8.8567
G01 X3.5761 Y8.8460
G01 X3.5713 Y8.8359
G01 X3.5655 Y8.8262
G01 X3.5588 Y8.8171
G01 X3.5512 Y8.8088
G01 X3.5429 Y8.8012
G01 X3.5338 Y8.7945
G01 X3.5241 Y8.7887
G01 X3.5140 Y8.7839
G01 X3.5033 Y8.7801
G01 X3.4924 Y8.7773
G01 X3.4813 Y8.7757
G01 X3.4673 Y8.7750
G01 X3.0227 Y8.7750
G01 X3.0087 Y8.7757
G01 X2.9976 Y8.7773
G01 X2.9867 Y8.7801
G01 X2.9760 Y8.7839
G01 X2.9659 Y8.7887
G01 X2.9562 Y8.7945
G01 X2.9471 Y8.8012
G01 X2.9388 Y8.8088
G01 X2.9312 Y8.8171
G01 X2.9245 Y8.8262
G01 X2.9187 Y8.8359
G01 X2.9139 Y8.8460
G01 X2.9101 Y8.8567
G01 X2.9073 Y8.8676
G01 X2.9057 Y8.8787
G01 X2.9050 Y8.8927
G01 X2.9050 Y9.3873
G01 X2.9057 Y9.4013
G01 X2.9073 Y9.4124
G01 X2.9101 Y9.4233
G01 X2.9139 Y9.4340
G01 X2.9187 Y9.4441
G01 X2.9245 Y9.4538
G01 X2.9312 Y9.4629
G01 X2.9388 Y9.4712
G01 X2.9471 Y9.4788
G01 X2.9562 Y9.4855
G01 X2.9659 Y9.4913
G01 X2.9760 Y9.4961
G01 X2.9867 Y9.4999
G01 X2.9976 Y9.5027
G01 X3.0087 Y9.5043
G01 X3.0227 Y9.5050
G01 X3.4673 Y9.5050
G01 X3.4813 Y9.5043
G01 X3.4924 Y9.5027
G01 X3.5033 Y9.4999
G01 X3.5140 Y9.4961
G01 X3.5241 Y9.4913
G01 X3.5338 Y9.4855
G01 X3.5429 Y9.4788
G01 X3.5512 Y9.4712
G01 X3.5588 Y9.4629
G01 X3.5655 Y9.4538
G01 X3.5713 Y9.4441
G01 X3.5761 Y9.4340
G01 X3.5799 Y9.4233
G01 X3.5827 Y9.4124
G01 X3.5843 Y9.4013
G01 X3.5850 Y9.3873
G01 X3.5850 Y8.8927
G01 X3.0810 Y9.3290
G01 X3.4090 Y9.3290
G01 X3.4090 Y8.9510
G01 X3.0810 Y8.9510
G01 X3.0810 Y9.3290
G00 Z2.0000
G00 X4.6310 Y9.3290
G01 F60.00
G01 Z-0.0999
G01 F120.00
G01 X4.6310 Y8.9510
G01 X4.9590 Y8.9510
G01 X4.9590 Y9.3290
G01 X4.6310 Y9.3290
G01 X5.1350 Y8.8927
G01 X5.1350 Y9.3873
G01 X5.1343 Y9.4013
G01 X5.1327 Y9.4124
G01 X5.1299 Y9.4233
G01 X5.1261 Y9.4340
G01 X5.1213 Y9.4441
G01 X5.1155 Y9.4538
G01 X5.1088 Y9.4629
G01 X5.1012 Y9.4712
G01 X5.0929 Y9.4788
G01 X5.0838 Y9.4855
G01 X5.0741 Y9.4913
G01 X5.0640 Y9.4961
G01 X5.0533 Y9.4999
G01 X5.0424 Y9.5027
G01 X5.0313 Y9.5043
G01 X5.0173 Y9.5050
G01 X4.5727 Y9.5050
G01 X4.5587 Y9.5043
G01 X4.5476 Y9.5027
G01 X4.5367 Y9.4999
G01 X4.5260 Y9.4961
G01 X4.5159 Y9.4913
G01 X4.5062 Y9.4855
G01 X4.4971 Y9.4788
G01 X4.4888 Y9.4712
G01 X4.4812 Y9.4629
G01 X4.4745 Y9.4538
G01 X4.4687 Y9.4441
G01 X4.4639 Y9.4340
G01 X4.4601 Y9.4233
G01 X4.4573 Y9.4124
G01 X4.4557 Y9.4013
G01 X4.4550 Y9.3873
G01 X4.4550 Y8.8927
G01 X4.4557 Y8.8787
G01 X4.4573 Y8.8676
G01 X4.4601 Y8.8567
G01 X4.4639 Y8.8460
G01 X4.4687 Y8.8359
G01 X4.4745 Y8.8262
G01 X4.4812 Y8.8171
G01 X4.4888 Y8.8088
G01 X4.4971 Y8.8012
G01 X4.5062 Y8.7945
G01 X4.5159 Y8.7887
G01 X4.5260 Y8.7839
G01 X4.5367 Y8.7801
G01 X4.5476 Y8.7773
G01 X4.5587 Y8.7757
G01 X4.5727 Y8.7750
G01 X5.0173 Y8.7750
G01 X5.0313 Y8.7757
G01 X5.0424 Y8.7773
G01 X5.0533 Y8.7801
G01 X5.0640 Y8.7839
G01 X5.0741 Y8.7887
G01 X5.0838 Y8.7945
G01 X5.0929 Y8.8012
G01 X5.1012 Y8.8088
G01 X5.1088 Y8.8171
G01 X5.1155 Y8.8262
G01 X5.1213 Y8.8359
G01 X5.1261 Y8.8460
G01 X5.1299 Y8.8567
G01 X5.1327 Y8.8676
G01 X5.1343 Y8.8787
G01 X5.1350 Y8.8927
G00 Z2.0000
G00 X4.6310 Y7.7090
G01 F60.00
G01 Z-0.0999
G01 F120.00
G01 X4.6310 Y7.3310
G01 X4.9590 Y7.3310
G01 X4.9590 Y7.7090
G01 X4.6310 Y7.7090
G01 X5.1350 Y7.2727
G01 X5.1350 Y7.7673
G01 X5.1343 Y7.7813
G01 X5.1327 Y7.7924
G01 X5.1299 Y7.8033
G01 X5.1261 Y7.8140
G01 X5.1213 Y7.8241
G01 X5.1155 Y7.8338
G01 X5.1088 Y7.8429
G01 X5.1012 Y7.8512
G01 X5.0929 Y7.8588
G01 X5.0838 Y7.8655
G01 X5.0741 Y7.8713
G01 X5.0640 Y7.8761
G01 X5.0533 Y7.8799
G01 X5.0424 Y7.8827
G01 X5.0313 Y7.8843
G01 X5.0173 Y7.8850
G01 X4.5727 Y7.8850
G01 X4.5587 Y7.8843
G01 X4.5476 Y7.8827
G01 X4.5367 Y7.8799
G01 X4.5260 Y7.8761
G01 X4.5159 Y7.8713
G01 X4.5062 Y7.8655
G01 X4.4971 Y7.8588
G01 X4.4888 Y7.8512
G01 X4.4812 Y7.8429
G01 X4.4745 Y7.8338
G01 X4.4687 Y7.8241
G01 X4.4639 Y7.8140
G01 X4.4601 Y7.8033
G01 X4.4573 Y7.7924
G01 X4.4557 Y7.7813
G01 X4.4550 Y7.7673
G01 X4.4550 Y7.2727
G01 X4.4557 Y7.2587
G01 X4.4573 Y7.2476
G01 X4.4601 Y7.2367
G01 X4.4639 Y7.2260
G01 X4.4687 Y7.2159
G01 X4.4745 Y7.2062
G01 X4.4812 Y7.1971
G01 X4.4888 Y7.1888
G01 X4.4971 Y7.1812
G01 X4.5062 Y7.1745
G01 X4.5159 Y7.1687
G01 X4.5260 Y7.1639
G01 X4.5367 Y7.1601
G01 X4.5476 Y7.1573
G01 X4.5587 Y7.1557
G01 X4.5727 Y7.1550
G01 X5.0173 Y7.1550
G01 X5.0313 Y7.1557
G01 X5.0424 Y7.1573
G01 X5.0533 Y7.1601
G01 X5.0640 Y7.1639
G01 X5.0741 Y7.1687
G01 X5.0838 Y7.1745
G01 X5.0929 Y7.1812
G01 X5.1012 Y7.1888
G01 X5.1088 Y7.1971
G01 X5.1155 Y7.2062
G01 X5.1213 Y7.2159
G01 X5.1261 Y7.2260
G01 X5.1299 Y7.2367
G01 X5.1327 Y7.2476
G01 X5.1343 Y7.2587
G01 X5.1350 Y7.2727
G00 Z2.0000
G00 X6.6550 Y6.9923
G01 F60.00
G01 Z-0.0999
G01 F120.00
G01 X6.6556 Y7.0038
G01 X6.6569 Y7.0125
G01 X6.6590 Y7.0211
G01 X6.6620 Y7.0294
G01 X6.6657 Y7.0374
G01 X6.6703 Y7.0449
G01 X6.6755 Y7.0520
G01 X6.6815 Y7.0585
G01 X6.6880 Y7.0645
G01 X6.6951 Y7.0697
G01 X6.7026 Y7.0743
G01 X6.7106 Y7.0780
G01 X6.7189 Y7.0810
G01 X6.7275 Y7.0831
G01 X6.7362 Y7.0844
G01 X6.7477 Y7.0850
G01 X7.1423 Y7.0850
G01 X7.1538 Y7.0844
G01 X7.1625 Y7.0831
G01 X7.1711 Y7.0810
G01 X7.1794 Y7.0780
G01 X7.1874 Y7.0743
G01 X7.1949 Y7.0697
G01 X7.2020 Y7.0645
G01 X7.2085 Y7.0585
G01 X7.2145 Y7.0520
G01 X7.2197 Y7.0449
G01 X7.2243 Y7.0374
G01 X7.2280 Y7.0294
G01 X7.2310 Y7.0211
G01 X7.2331 Y7.0125
G01 X7.2344 Y7.0038
G01 X7.2350 Y6.9923
G01 X7.2350 Y6.4477
G01 X7.2344 Y6.4362
G01 X7.2331 Y6.4275
G01 X7.2310 Y6.4189
G01 X7.2280 Y6.4106
G01 X7.2243 Y6.4026
G01 X7.2197 Y6.3951
G01 X7.2145 Y6.3880
G01 X7.2085 Y6.3815
G01 X7.2020 Y6.3755
G01 X7.1949 Y6.3703
G01 X7.1874 Y6.3657
G01 X7.1794 Y6.3620
G01 X7.1711 Y6.3590
G01 X7.1625 Y6.3569
G01 X7.1538 Y6.3556
G01 X7.1423 Y6.3550
G01 X6.7477 Y6.3550
G01 X6.7362 Y6.3556
G01 X6.7275 Y6.3569
G01 X6.7189 Y6.3590
G01 X6.7106 Y6.3620
G01 X6.7026 Y6.3657
G01 X6.6951 Y6.3703
G01 X6.6880 Y6.3755
G01 X6.6815 Y6.3815
G01 X6.6755 Y6.3880
G01 X6.6703 Y6.3951
G01 X6.6657 Y6.4026
G01 X6.6620 Y6.4106
G01 X6.6590 Y6.4189
G01 X6.6569 Y6.4275
G01 X6.6556 Y6.4362
G01 X6.6550 Y6.4477
G01 X6.6550 Y6.9923
G01 X6.8310 Y6.9090
G01 X7.0590 Y6.9090
G01 X7.0590 Y6.5310
G01 X6.8310 Y6.5310
G01 X6.8310 Y6.9090
G00 Z2.0000
G00 X7.2350 Y8.2977
G01 F60.00
G01 Z-0.0999
G01 F120.00
G01 X7.2344 Y8.2862
G01 X7.2331 Y8.2775
G01 X7.2310 Y8.2689
G01 X7.2280 Y8.2606
G01 X7.2243 Y8.2526
G01 X7.2197 Y8.2451
G01 X7.2145 Y8.2380
G01 X7.2085 Y8.2315
G01 X7.2020 Y8.2255
G01 X7.1949 Y8.2203
G01 X7.1874 Y8.2157
G01 X7.1794 Y8.2120
G01 X7.1711 Y8.2090
G01 X7.1625 Y8.2069
G01 X7.1538 Y8.2056
G01 X7.1423 Y8.2050
G01 X6.7477 Y8.2050
G01 X6.7362 Y8.2056
G01 X6.7275 Y8.2069
G01 X6.7189 Y8.2090
G01 X6.7106 Y8.2120
G01 X6.7026 Y8.2157
G01 X6.6951 Y8.2203
G01 X6.6880 Y8.2255
G01 X6.6815 Y8.2315
G01 X6.6755 Y8.2380
G01 X6.6703 Y8.2451
G01 X6.6657 Y8.2526
G01 X6.6620 Y8.2606
G01 X6.6590 Y8.2689
G01 X6.6569 Y8.2775
G01 X6.6556 Y8.2862
G01 X6.6550 Y8.2977
G01 X6.6550 Y8.8423
G01 X6.6556 Y8.8538
G01 X6.6569 Y8.8625
G01 X6.6590 Y8.8711
G01 X6.6620 Y8.8794
G01 X6.6657 Y8.8874
G01 X6.6703 Y8.8949
G01 X6.6755 Y8.9020
G01 X6.6815 Y8.9085
G01 X6.6880 Y8.9145
G01 X6.6951 Y8.9197
G01 X6.7026 Y8.9243
G01 X6.7106 Y8.9280
G01 X6.7189 Y8.9310
G01 X6.7275 Y8.9331
G01 X6.7362 Y8.9344
G01 X6.7477 Y8.9350
G01 X7.1423 Y8.9350
G01 X7.1538 Y8.9344
G01 X7.1625 Y8.9331
G01 X7.1711 Y8.9310
G01 X7.1794 Y8.9280
G01 X7.1874 Y8.9243
G01 X7.1949 Y8.9197
G01 X7.2020 Y8.9145
G01 X7.2085 Y8.9085
G01 X7.2145 Y8.9020
G01 X7.2197 Y8.8949
G01 X7.2243 Y8.8874
G01 X7.2280 Y8.8794
G01 X7.2310 Y8.8711
G01 X7.2331 Y8.8625
G01 X7.2344 Y8.8538
G01 X7.2350 Y8.8423
G01 X7.2350 Y8.2977
G01 X6.8310 Y8.7590
G01 X7.0590 Y8.7590
G01 X7.0590 Y8.3810
G01 X6.8310 Y8.3810
G01 X6.8310 Y8.7590
G00 Z2.0000
G00 X8.4810 Y8.7590
G01 F60.00
G01 Z-0.0999
G01 F120.00
G01 X8.4810 Y8.3810
G01 X8.7090 Y8.3810
G01 X8.7090 Y8.7590
G01 X8.4810 Y8.7590
G01 X8.8850 Y8.2977
G01 X8.8850 Y8.8423
G01 X8.8844 Y8.8538
G01 X8.8831 Y8.8625
G01 X8.8810 Y8.8711
G01 X8.8780 Y8.8794
G01 X8.8743 Y8.8874
G01 X8.8697 Y8.8949
G01 X8.8645 Y8.9020
G01 X8.8585 Y8.9085
G01 X8.8520 Y8.9145
G01 X8.8449 Y8.9197
G01 X8.8374 Y8.9243
G01 X8.8294 Y8.9280
G01 X8.8211 Y8.9310
G01 X8.8125 Y8.9331
G01 X8.8038 Y8.9344
G01 X8.7923 Y8.9350
G01 X8.3977 Y8.9350
G01 X8.3862 Y8.9344
G01 X8.3775 Y8.9331
G01 X8.3689 Y8.9310
G01 X8.3606 Y8.9280
G01 X8.3526 Y8.9243
G01 X8.3451 Y8.9197
G01 X8.3380 Y8.9145
G01 X8.3315 Y8.9085
G01 X8.3255 Y8.9020
G01 X8.3203 Y8.8949
G01 X8.3157 Y8.8874
G01 X8.3120 Y8.8794
G01 X8.3090 Y8.8711
G01 X8.3069 Y8.8625
G01 X8.3056 Y8.8538
G01 X8.3050 Y8.8423
G01 X8.3050 Y8.2977
G01 X8.3056 Y8.2862
G01 X8.3069 Y8.2775
G01 X8.3090 Y8.2689
G01 X8.3120 Y8.2606
G01 X8.3157 Y8.2526
G01 X8.3203 Y8.2451
G01 X8.3255 Y8.2380
G01 X8.3315 Y8.2315
G01 X8.3380 Y8.2255
G01 X8.3451 Y8.2203
G01 X8.3526 Y8.2157
G01 X8.3606 Y8.2120
G01 X8.3689 Y8.2090
G01 X8.3775 Y8.2069
G01 X8.3862 Y8.2056
G01 X8.3977 Y8.2050
G01 X8.7923 Y8.2050
G01 X8.8038 Y8.2056
G01 X8.8125 Y8.2069
G01 X8.8211 Y8.2090
G01 X8.8294 Y8.2120
G01 X8.8374 Y8.2157
G01 X8.8449 Y8.2203
G01 X8.8520 Y8.2255
G01 X8.8585 Y8.2315
G01 X8.8645 Y8.2380
G01 X8.8697 Y8.2451
G01 X8.8743 Y8.2526
G01 X8.8780 Y8.2606
G01 X8.8810 Y8.2689
G01 X8.8831 Y8.2775
G01 X8.8844 Y8.2862
G01 X8.8850 Y8.2977
G00 Z2.0000
G00 X8.3050 Y6.9923
G01 F60.00
G01 Z-0.0999
G01 F120.00
G01 X8.3056 Y7.0038
G01 X8.3069 Y7.0125
G01 X8.3090 Y7.0211
G01 X8.3120 Y7.0294
G01 X8.3157 Y7.0374
G01 X8.3203 Y7.0449
G01 X8.3255 Y7.0520
G01 X8.3315 Y7.0585
G01 X8.3380 Y7.0645
G01 X8.3451 Y7.0697
G01 X8.3526 Y7.0743
G01 X8.3606 Y7.0780
G01 X8.3689 Y7.0810
G01 X8.3775 Y7.0831
G01 X8.3862 Y7.0844
G01 X8.3977 Y7.0850
G01 X8.7923 Y7.0850
G01 X8.8038 Y7.0844
G01 X8.8125 Y7.0831
G01 X8.8211 Y7.0810
G01 X8.8294 Y7.0780
G01 X8.8374 Y7.0743
G01 X8.8449 Y7.0697
G01 X8.8520 Y7.0645
G01 X8.8585 Y7.0585
G01 X8.8645 Y7.0520
G01 X8.8697 Y7.0449
G01 X8.8743 Y7.0374
G01 X8.8780 Y7.0294
G01 X8.8810 Y7.0211
G01 X8.8831 Y7.0125
G01 X8.8844 Y7.0038
G01 X8.8850 Y6.9923
G01 X8.8850 Y6.4477
G01 X8.8844 Y6.4362
G01 X8.8831 Y6.4275
G01 X8.8810 Y6.4189
G01 X8.8780 Y6.4106
G01 X8.8743 Y6.4026
G01 X8.8697 Y6.3951
G01 X8.8645 Y6.3880
G01 X8.8585 Y6.3815
G01 X8.8520 Y6.3755
G01 X8.8449 Y6.3703
G01 X8.8374 Y6.3657
G01 X8.8294 Y6.3620
G01 X8.8211 Y6.3590
G01 X8.8125 Y6.3569
G01 X8.8038 Y6.3556
G01 X8.7923 Y6.3550
G01 X8.3977 Y6.3550
G01 X8.3862 Y6.3556
G01 X8.3775 Y6.3569
G01 X8.3689 Y6.3590
G01 X8.3606 Y6.3620
G01 X8.3526 Y6.3657
G01 X8.3451 Y6.3703
G01 X8.3380 Y6.3755
G01 X8.3315 Y6.3815
G01 X8.3255 Y6.3880
G01 X8.3203 Y6.3951
G01 X8.3157 Y6.4026
G01 X8.3120 Y6.4106
G01 X8.3090 Y6.4189
G01 X8.3069 Y6.4275
G01 X8.3056 Y6.4362
G01 X8.3050 Y6.4477
G01 X8.3050 Y6.9923
G01 X8.4810 Y6.9090
G01 X8.7090 Y6.9090
G01 X8.7090 Y6.5310
G01 X8.4810 Y6.5310
G01 X8.4810 Y6.9090
G00 Z2.0000
G00 X12.6210 Y6.4290
G01 F60.00
G01 Z-0.0999
G01 F120.00
G01 X12.9490 Y6.4290
G01 X12.9490 Y6.0510
G01 X12.6210 Y6.0510
G01 X12.6210 Y6.4290
G01 X13.1250 Y5.9927
G01 X13.1243 Y5.9787
G01 X13.1227 Y5.9676
G01 X13.1199 Y5.9567
G01 X13.1161 Y5.9460
G01 X13.1113 Y5.9359
G01 X13.1055 Y5.9262
G01 X13.0988 Y5.9171
G01 X13.0912 Y5.9088
G01 X13.0829 Y5.9012
G01 X13.0738 Y5.8945
G01 X13.0641 Y5.8887
G01 X13.0540 Y5.8839
G01 X13.0433 Y5.8801
G01 X13.0324 Y5.8773
G01 X13.0213 Y5.8757
G01 X13.0073 Y5.8750
G01 X12.5627 Y5.8750
G01 X12.5487 Y5.8757
G01 X12.5376 Y5.8773
G01 X12.5267 Y5.8801
G01 X12.5160 Y5.8839
G01 X12.5059 Y5.8887
G01 X12.4962 Y5.8945
G01 X12.4871 Y5.9012
G01 X12.4788 Y5.9088
G01 X12.4712 Y5.9171
G01 X12.4645 Y5.9262
G01 X12.4587 Y5.9359
G01 X12.4539 Y5.9460
G01 X12.4501 Y5.9567
G01 X12.4473 Y5.9676
G01 X12.4457 Y5.9787
G01 X12.4450 Y5.9927
G01 X12.4450 Y6.4873
G01 X12.4457 Y6.5013
G01 X12.4473 Y6.5124
G01 X12.4501 Y6.5233
G01 X12.4539 Y6.5340
G01 X12.4587 Y6.5441
G01 X12.4645 Y6.5538
G01 X12.4712 Y6.5629
G01 X12.4788 Y6.5712
G01 X12.4871 Y6.5788
G01 X12.4962 Y6.5855
G01 X12.5059 Y6.5913
G01 X12.5160 Y6.5961
G01 X12.5267 Y6.5999
G01 X12.5376 Y6.6027
G01 X12.5487 Y6.6043
G01 X12.5627 Y6.6050
G01 X13.0073 Y6.6050
G01 X13.0213 Y6.6043
G01 X13.0324 Y6.6027
G01 X13.0433 Y6.5999
G01 X13.0540 Y6.5961
G01 X13.0641 Y6.5913
G01 X13.0738 Y6.5855
G01 X13.0829 Y6.5788
G01 X13.0912 Y6.5712
G01 X13.0988 Y6.5629
G01 X13.1055 Y6.5538
G01 X13.1113 Y6.5441
G01 X13.1161 Y6.5340
G01 X13.1199 Y6.5233
G01 X13.1227 Y6.5124
G01 X13.1243 Y6.5013
G01 X13.1250 Y6.4873
G01 X13.1250 Y5.9927
G00 Z2.0000
G00 X14.1710 Y6.4290
G01 F60.00
G01 Z-0.0999
G01 F120.00
G01 X14.4990 Y6.4290
G01 X14.4990 Y6.0510
G01 X14.1710 Y6.0510
G01 X14.1710 Y6.4290
G01 X14.6750 Y5.9927
G01 X14.6743 Y5.9787
G01 X14.6727 Y5.9676
G01 X14.6699 Y5.9567
G01 X14.6661 Y5.9460
G01 X14.6613 Y5.9359
G01 X14.6555 Y5.9262
G01 X14.6488 Y5.9171
G01 X14.6412 Y5.9088
G01 X14.6329 Y5.9012
G01 X14.6238 Y5.8945
G01 X14.6141 Y5.8887
G01 X14.6040 Y5.8839
G01 X14.5933 Y5.8801
G01 X14.5824 Y5.8773
G01 X14.5713 Y5.8757
G01 X14.5573 Y5.8750
G01 X14.1127 Y5.8750
G01 X14.0987 Y5.8757
G01 X14.0876 Y5.8773
G01 X14.0767 Y5.8801
G01 X14.0660 Y5.8839
G01 X14.0559 Y5.8887
G01 X14.0462 Y5.8945
G01 X14.0371 Y5.9012
G01 X14.0288 Y5.9088
G01 X14.0212 Y5.9171
G01 X14.0145 Y5.9262
G01 X14.0087 Y5.9359
G01 X14.0039 Y5.9460
G01 X14.0001 Y5.9567
G01 X13.9973 Y5.9676
G01 X13.9957 Y5.9787
G01 X13.9950 Y5.9927
G01 X13.9950 Y6.4873
G01 X13.9957 Y6.5013
G01 X13.9973 Y6.5124
G01 X14.0001 Y6.5233
G01 X14.0039 Y6.5340
G01 X14.0087 Y6.5441
G01 X14.0145 Y6.5538
G01 X14.0212 Y6.5629
G01 X14.0288 Y6.5712
G01 X14.0371 Y6.5788
G01 X14.0462 Y6.5855
G01 X14.0559 Y6.5913
G01 X14.0660 Y6.5961
G01 X14.0767 Y6.5999
G01 X14.0876 Y6.6027
G01 X14.0987 Y6.6043
G01 X14.1127 Y6.6050
G01 X14.5573 Y6.6050
G01 X14.5713 Y6.6043
G01 X14.5824 Y6.6027
G01 X14.5933 Y6.5999
G01 X14.6040 Y6.5961
G01 X14.6141 Y6.5913
G01 X14.6238 Y6.5855
G01 X14.6329 Y6.5788
G01 X14.6412 Y6.5712
G01 X14.6488 Y6.5629
G01 X14.6555 Y6.5538
G01 X14.6613 Y6.5441
G01 X14.6661 Y6.5340
G01 X14.6699 Y6.5233
G01 X14.6727 Y6.5124
G01 X14.6743 Y6.5013
G01 X14.6750 Y6.4873
G01 X14.6750 Y5.9927
G00 Z2.0000
G00 X14.6650 Y7.6027
G01 F60.00
G01 Z-0.0999
G01 F120.00
G01 X14.6650 Y8.0973
G01 X14.6643 Y8.1113
G01 X14.6627 Y8.1224
G01 X14.6599 Y8.1333
G01 X14.6561 Y8.1440
G01 X14.6513 Y8.1541
G01 X14.6455 Y8.1638
G01 X14.6388 Y8.1729
G01 X14.6312 Y8.1812
G01 X14.6229 Y8.1888
G01 X14.6138 Y8.1955
G01 X14.6041 Y8.2013
G01 X14.5940 Y8.2061
G01 X14.5833 Y8.2099
G01 X14.5724 Y8.2127
G01 X14.5613 Y8.2143
G01 X14.5473 Y8.2150
G01 X14.1027 Y8.2150
G01 X14.0887 Y8.2143
G01 X14.0776 Y8.2127
G01 X14.0667 Y8.2099
G01 X14.0560 Y8.2061
G01 X14.0459 Y8.2013
G01 X14.0362 Y8.1955
G01 X14.0271 Y8.1888
G01 X14.0188 Y8.1812
G01 X14.0112 Y8.1729
G01 X14.0045 Y8.1638
G01 X13.9987 Y8.1541
G01 X13.9939 Y8.1440
G01 X13.9901 Y8.1333
G01 X13.9873 Y8.1224
G01 X13.9857 Y8.1113
G01 X13.9850 Y8.0973
G01 X13.9850 Y7.6027
G01 X13.9857 Y7.5887
G01 X13.9873 Y7.5776
G01 X13.9901 Y7.5667
G01 X13.9939 Y7.5560
G01 X13.9987 Y7.5459
G01 X14.0045 Y7.5362
G01 X14.0112 Y7.5271
G01 X14.0188 Y7.5188
G01 X14.0271 Y7.5112
G01 X14.0362 Y7.5045
G01 X14.0459 Y7.4987
G01 X14.0560 Y7.4939
G01 X14.0667 Y7.4901
G01 X14.0776 Y7.4873
G01 X14.0887 Y7.4857
G01 X14.1027 Y7.4850
G01 X14.5473 Y7.4850
G01 X14.5613 Y7.4857
G01 X14.5724 Y7.4873
G01 X14.5833 Y7.4901
G01 X14.5940 Y7.4939
G01 X14.6041 Y7.4987
G01 X14.6138 Y7.5045
G01 X14.6229 Y7.5112
G01 X14.6312 Y7.5188
G01 X14.6388 Y7.5271
G01 X14.6455 Y7.5362
G01 X14.6513 Y7.5459
G01 X14.6561 Y7.5560
G01 X14.6599 Y7.5667
G01 X14.6627 Y7.5776
G01 X14.6643 Y7.5887
G01 X14.6650 Y7.6027
G01 X14.1610 Y8.0390
G01 X14.1610 Y7.6610
G01 X14.4890 Y7.6610
G01 X14.4890 Y8.0390
G01 X14.1610 Y8.0390
G00 Z2.0000
G00 X13.1150 Y7.6027
G01 F60.00
G01 Z-0.0999
G01 F120.00
G01 X13.1150 Y8.0973
G01 X13.1143 Y8.1113
G01 X13.1127 Y8.1224
G01 X13.1099 Y8.1333
G01 X13.1061 Y8.1440
G01 X13.1013 Y8.1541
G01 X13.0955 Y8.1638
G01 X13.0888 Y8.1729
G01 X13.0812 Y8.1812
G01 X13.0729 Y8.1888
G01 X13.0638 Y8.1955
G01 X13.0541 Y8.2013
G01 X13.0440 Y8.2061
G01 X13.0333 Y8.2099
G01 X13.0224 Y8.2127
G01 X13.0113 Y8.2143
G01 X12.9973 Y8.2150
G01 X12.5527 Y8.2150
G01 X12.5387 Y8.2143
G01 X12.5276 Y8.2127
G01 X12.5167 Y8.2099
G01 X12.5060 Y8.2061
G01 X12.4959 Y8.2013
G01 X12.4862 Y8.1955
G01 X12.4771 Y8.1888
G01 X12.4688 Y8.1812
G01 X12.4612 Y8.1729
G01 X12.4545 Y8.1638
G01 X12.4487 Y8.1541
G01 X12.4439 Y8.1440
G01 X12.4401 Y8.1333
G01 X12.4373 Y8.1224
G01 X12.4357 Y8.1113
G01 X12.4350 Y8.0973
G01 X12.4350 Y7.6027
G01 X12.4357 Y7.5887
G01 X12.4373 Y7.5776
G01 X12.4401 Y7.5667
G01 X12.4439 Y7.5560
G01 X12.4487 Y7.5459
G01 X12.4545 Y7.5362
G01 X12.4612 Y7.5271
G01 X12.4688 Y7.5188
G01 X12.4771 Y7.5112
G01 X12.4862 Y7.5045
G01 X12.4959 Y7.4987
G01 X12.5060 Y7.4939
G01 X12.5167 Y7.4901
G01 X12.5276 Y7.4873
G01 X12.5387 Y7.4857
G01 X12.5527 Y7.4850
G01 X12.9973 Y7.4850
G01 X13.0113 Y7.4857
G01 X13.0224 Y7.4873
G01 X13.0333 Y7.4901
G01 X13.0440 Y7.4939
G01 X13.0541 Y7.4987
G01 X13.0638 Y7.5045
G01 X13.0729 Y7.5112
G01 X13.0812 Y7.5188
G01 X13.0888 Y7.5271
G01 X13.0955 Y7.5362
G01 X13.1013 Y7.5459
G01 X13.1061 Y7.5560
G01 X13.1099 Y7.5667
G01 X13.1127 Y7.5776
G01 X13.1143 Y7.5887
G01 X13.1150 Y7.6027
G01 X12.6110 Y8.0390
G01 X12.6110 Y7.6610
G01 X12.9390 Y7.6610
G01 X12.9390 Y8.0390
G01 X12.6110 Y8.0390
G00 Z2.0000
G00 X13.1150 Y9.6527
G01 F60.00
G01 Z-0.0999
G01 F120.00
G01 X13.1150 Y10.1473
G01 X13.1143 Y10.1613
G01 X13.1127 Y10.1724
G01 X13.1099 Y10.1833
G01 X13.1061 Y10.1940
G01 X13.1013 Y10.2041
G01 X13.0955 Y10.2138
G01 X13.0888 Y10.2229
G01 X13.0812 Y10.2312
G01 X13.0729 Y10.2388
G01 X13.0638 Y10.2455
G01 X13.0541 Y10.2513
G01 X13.0440 Y10.2561
G01 X13.0333 Y10.2599
G01 X13.0224 Y10.2627
G01 X13.0113 Y10.2643
G01 X12.9973 Y10.2650
G01 X12.5527 Y10.2650
G01 X12.5387 Y10.2643
G01 X12.5276 Y10.2627
G01 X12.5167 Y10.2599
G01 X12.5060 Y10.2561
G01 X12.4959 Y10.2513
G01 X12.4862 Y10.2455
G01 X12.4771 Y10.2388
G01 X12.4688 Y10.2312
G01 X12.4612 Y10.2229
G01 X12.4545 Y10.2138
G01 X12.4487 Y10.2041
G01 X12.4439 Y10.1940
G01 X12.4401 Y10.1833
G01 X12.4373 Y10.1724
G01 X12.4357 Y10.1613
G01 X12.4350 Y10.1473
G01 X12.4350 Y9.6527
G01 X12.4357 Y9.6387
G01 X12.4373 Y9.6276
G01 X12.4401 Y9.6167
G01 X12.4439 Y9.6060
G01 X12.4487 Y9.5959
G01 X12.4545 Y9.5862
G01 X12.4612 Y9.5771
G01 X12.4688 Y9.5688
G01 X12.4771 Y9.5612
G01 X12.4862 Y9.5545
G01 X12.4959 Y9.5487
G01 X12.5060 Y9.5439
G01 X12.5167 Y9.5401
G01 X12.5276 Y9.5373
G01 X12.5387 Y9.5357
G01 X12.5527 Y9.5350
G01 X12.9973 Y9.5350
G01 X13.0113 Y9.5357
G01 X13.0224 Y9.5373
G01 X13.0333 Y9.5401
G01 X13.0440 Y9.5439
G01 X13.0541 Y9.5487
G01 X13.0638 Y9.5545
G01 X13.0729 Y9.5612
G01 X13.0812 Y9.5688
G01 X13.0888 Y9.5771
G01 X13.0955 Y9.5862
G01 X13.1013 Y9.5959
G01 X13.1061 Y9.6060
G01 X13.1099 Y9.6167
G01 X13.1127 Y9.6276
G01 X13.1143 Y9.6387
G01 X13.1150 Y9.6527
G01 X12.6110 Y10.0890
G01 X12.6110 Y9.7110
G01 X12.9390 Y9.7110
G01 X12.9390 Y10.0890
G01 X12.6110 Y10.0890
G00 Z2.0000
G00 X14.1610 Y10.0890
G01 F60.00
G01 Z-0.0999
G01 F120.00
G01 X14.4890 Y10.0890
G01 X14.4890 Y9.7110
G01 X14.1610 Y9.7110
G01 X14.1610 Y10.0890
G01 X14.6650 Y9.6527
G01 X14.6643 Y9.6387
G01 X14.6627 Y9.6276
G01 X14.6599 Y9.6167
G01 X14.6561 Y9.6060
G01 X14.6513 Y9.5959
G01 X14.6455 Y9.5862
G01 X14.6388 Y9.5771
G01 X14.6312 Y9.5688
G01 X14.6229 Y9.5612
G01 X14.6138 Y9.5545
G01 X14.6041 Y9.5487
G01 X14.5940 Y9.5439
G01 X14.5833 Y9.5401
G01 X14.5724 Y9.5373
G01 X14.5613 Y9.5357
G01 X14.5473 Y9.5350
G01 X14.1027 Y9.5350
G01 X14.0887 Y9.5357
G01 X14.0776 Y9.5373
G01 X14.0667 Y9.5401
G01 X14.0560 Y9.5439
G01 X14.0459 Y9.5487
G01 X14.0362 Y9.5545
G01 X14.0271 Y9.5612
G01 X14.0188 Y9.5688
G01 X14.0112 Y9.5771
G01 X14.0045 Y9.5862
G01 X13.9987 Y9.5959
G01 X13.9939 Y9.6060
G01 X13.9901 Y9.6167
G01 X13.9873 Y9.6276
G01 X13.9857 Y9.6387
G01 X13.9850 Y9.6527
G01 X13.9850 Y10.1473
G01 X13.9857 Y10.1613
G01 X13.9873 Y10.1724
G01 X13.9901 Y10.1833
G01 X13.9939 Y10.1940
G01 X13.9987 Y10.2041
G01 X14.0045 Y10.2138
G01 X14.0112 Y10.2229
G01 X14.0188 Y10.2312
G01 X14.0271 Y10.2388
G01 X14.0362 Y10.2455
G01 X14.0459 Y10.2513
G01 X14.0560 Y10.2561
G01 X14.0667 Y10.2599
G01 X14.0776 Y10.2627
G01 X14.0887 Y10.2643
G01 X14.1027 Y10.2650
G01 X14.5473 Y10.2650
G01 X14.5613 Y10.2643
G01 X14.5724 Y10.2627
G01 X14.5833 Y10.2599
G01 X14.5940 Y10.2561
G01 X14.6041 Y10.2513
G01 X14.6138 Y10.2455
G01 X14.6229 Y10.2388
G01 X14.6312 Y10.2312
G01 X14.6388 Y10.2229
G01 X14.6455 Y10.2138
G01 X14.6513 Y10.2041
G01 X14.6561 Y10.1940
G01 X14.6599 Y10.1833
G01 X14.6627 Y10.1724
G01 X14.6643 Y10.1613
G01 X14.6650 Y10.1473
G01 X14.6650 Y9.6527
G00 Z2.0000
G00 X14.6650 Y11.2527
G01 F60.00
G01 Z-0.0999
G01 F120.00
G01 X14.6650 Y11.7473
G01 X14.6643 Y11.7613
G01 X14.6627 Y11.7724
G01 X14.6599 Y11.7833
G01 X14.6561 Y11.7940
G01 X14.6513 Y11.8041
G01 X14.6455 Y11.8138
G01 X14.6388 Y11.8229
G01 X14.6312 Y11.8312
G01 X14.6229 Y11.8388
G01 X14.6138 Y11.8455
G01 X14.6041 Y11.8513
G01 X14.5940 Y11.8561
G01 X14.5833 Y11.8599
G01 X14.5724 Y11.8627
G01 X14.5613 Y11.8643
G01 X14.5473 Y11.8650
G01 X14.1027 Y11.8650
G01 X14.0887 Y11.8643
G01 X14.0776 Y11.8627
G01 X14.0667 Y11.8599
G01 X14.0560 Y11.8561
G01 X14.0459 Y11.8513
G01 X14.0362 Y11.8455
G01 X14.0271 Y11.8388
G01 X14.0188 Y11.8312
G01 X14.0112 Y11.8229
G01 X14.0045 Y11.8138
G01 X13.9987 Y11.8041
G01 X13.9939 Y11.7940
G01 X13.9901 Y11.7833
G01 X13.9873 Y11.7724
G01 X13.9857 Y11.7613
G01 X13.9850 Y11.7473
G01 X13.9850 Y11.2527
G01 X13.9857 Y11.2387
G01 X13.9873 Y11.2276
G01 X13.9901 Y11.2167
G01 X13.9939 Y11.2060
G01 X13.9987 Y11.1959
G01 X14.0045 Y11.1862
G01 X14.0112 Y11.1771
G01 X14.0188 Y11.1688
G01 X14.0271 Y11.1612
G01 X14.0362 Y11.1545
G01 X14.0459 Y11.1487
G01 X14.0560 Y11.1439
G01 X14.0667 Y11.1401
G01 X14.0776 Y11.1373
G01 X14.0887 Y11.1357
G01 X14.1027 Y11.1350
G01 X14.5473 Y11.1350
G01 X14.5613 Y11.1357
G01 X14.5724 Y11.1373
G01 X14.5833 Y11.1401
G01 X14.5940 Y11.1439
G01 X14.6041 Y11.1487
G01 X14.6138 Y11.1545
G01 X14.6229 Y11.1612
G01 X14.6312 Y11.1688
G01 X14.6388 Y11.1771
G01 X14.6455 Y11.1862
G01 X14.6513 Y11.1959
G01 X14.6561 Y11.2060
G01 X14.6599 Y11.2167
G01 X14.6627 Y11.2276
G01 X14.6643 Y11.2387
G01 X14.6650 Y11.2527
G01 X14.1610 Y11.6890
G01 X14.1610 Y11.3110
G01 X14.4890 Y11.3110
G01 X14.4890 Y11.6890
G01 X14.1610 Y11.6890
G00 Z2.0000
G00 X13.1150 Y11.2527
G01 F60.00
G01 Z-0.0999
G01 F120.00
G01 X13.1150 Y11.7473
G01 X13.1143 Y11.7613
G01 X13.1127 Y11.7724
G01 X13.1099 Y11.7833
G01 X13.1061 Y11.7940
G01 X13.1013 Y11.8041
G01 X13.0955 Y11.8138
G01 X13.0888 Y11.8229
G01 X13.0812 Y11.8312
G01 X13.0729 Y11.8388
G01 X13.0638 Y11.8455
G01 X13.0541 Y11.8513
G01 X13.0440 Y11.8561
G01 X13.0333 Y11.8599
G01 X13.0224 Y11.8627
G01 X13.0113 Y11.8643
G01 X12.9973 Y11.8650
G01 X12.5527 Y11.8650
G01 X12.5387 Y11.8643
G01 X12.5276 Y11.8627
G01 X12.5167 Y11.8599
G01 X12.5060 Y11.8561
G01 X12.4959 Y11.8513
G01 X12.4862 Y11.8455
G01 X12.4771 Y11.8388
G01 X12.4688 Y11.8312
G01 X12.4612 Y11.8229
G01 X12.4545 Y11.8138
G01 X12.4487 Y11.8041
G01 X12.4439 Y11.7940
G01 X12.4401 Y11.7833
G01 X12.4373 Y11.7724
G01 X12.4357 Y11.7613
G01 X12.4350 Y11.7473
G01 X12.4350 Y11.2527
G01 X12.4357 Y11.2387
G01 X12.4373 Y11.2276
G01 X12.4401 Y11.2167
G01 X12.4439 Y11.2060
G01 X12.4487 Y11.1959
G01 X12.4545 Y11.1862
G01 X12.4612 Y11.1771
G01 X12.4688 Y11.1688
G01 X12.4771 Y11.1612
G01 X12.4862 Y11.1545
G01 X12.4959 Y11.1487
G01 X12.5060 Y11.1439
G01 X12.5167 Y11.1401
G01 X12.5276 Y11.1373
G01 X12.5387 Y11.1357
G01 X12.5527 Y11.1350
G01 X12.9973 Y11.1350
G01 X13.0113 Y11.1357
G01 X13.0224 Y11.1373
G01 X13.0333 Y11.1401
G01 X13.0440 Y11.1439
G01 X13.0541 Y11.1487
G01 X13.0638 Y11.1545
G01 X13.0729 Y11.1612
G01 X13.0812 Y11.1688
G01 X13.0888 Y11.1771
G01 X13.0955 Y11.1862
G01 X13.1013 Y11.1959
G01 X13.1061 Y11.2060
G01 X13.1099 Y11.2167
G01 X13.1127 Y11.2276
G01 X13.1143 Y11.2387
G01 X13.1150 Y11.2527
G01 X12.6110 Y11.6890
G01 X12.6110 Y11.3110
G01 X12.9390 Y11.3110
G01 X12.9390 Y11.6890
G01 X12.6110 Y11.6890
G00 Z2.0000
G00 X13.1150 Y12.8427
G01 F60.00
G01 Z-0.0999
G01 F120.00
G01 X13.1150 Y13.3373
G01 X13.1143 Y13.3513
G01 X13.1127 Y13.3624
G01 X13.1099 Y13.3733
G01 X13.1061 Y13.3840
G01 X13.1013 Y13.3941
G01 X13.0955 Y13.4038
G01 X13.0888 Y13.4129
G01 X13.0812 Y13.4212
G01 X13.0729 Y13.4288
G01 X13.0638 Y13.4355
G01 X13.0541 Y13.4413
G01 X13.0440 Y13.4461
G01 X13.0333 Y13.4499
G01 X13.0224 Y13.4527
G01 X13.0113 Y13.4543
G01 X12.9973 Y13.4550
G01 X12.5527 Y13.4550
G01 X12.5387 Y13.4543
G01 X12.5276 Y13.4527
G01 X12.5167 Y13.4499
G01 X12.5060 Y13.4461
G01 X12.4959 Y13.4413
G01 X12.4862 Y13.4355
G01 X12.4771 Y13.4288
G01 X12.4688 Y13.4212
G01 X12.4612 Y13.4129
G01 X12.4545 Y13.4038
G01 X12.4487 Y13.3941
G01 X12.4439 Y13.3840
G01 X12.4401 Y13.3733
G01 X12.4373 Y13.3624
G01 X12.4357 Y13.3513
G01 X12.4350 Y13.3373
G01 X12.4350 Y12.8427
G01 X12.4357 Y12.8287
G01 X12.4373 Y12.8176
G01 X12.4401 Y12.8067
G01 X12.4439 Y12.7960
G01 X12.4487 Y12.7859
G01 X12.4545 Y12.7762
G01 X12.4612 Y12.7671
G01 X12.4688 Y12.7588
G01 X12.4771 Y12.7512
G01 X12.4862 Y12.7445
G01 X12.4959 Y12.7387
G01 X12.5060 Y12.7339
G01 X12.5167 Y12.7301
G01 X12.5276 Y12.7273
G01 X12.5387 Y12.7257
G01 X12.5527 Y12.7250
G01 X12.9973 Y12.7250
G01 X13.0113 Y12.7257
G01 X13.0224 Y12.7273
G01 X13.0333 Y12.7301
G01 X13.0440 Y12.7339
G01 X13.0541 Y12.7387
G01 X13.0638 Y12.7445
G01 X13.0729 Y12.7512
G01 X13.0812 Y12.7588
G01 X13.0888 Y12.7671
G01 X13.0955 Y12.7762
G01 X13.1013 Y12.7859
G01 X13.1061 Y12.7960
G01 X13.1099 Y12.8067
G01 X13.1127 Y12.8176
G01 X13.1143 Y12.8287
G01 X13.1150 Y12.8427
G01 X12.6110 Y13.2790
G01 X12.6110 Y12.9010
G01 X12.9390 Y12.9010
G01 X12.9390 Y13.2790
G01 X12.6110 Y13.2790
G00 Z2.0000
G00 X14.1610 Y13.2790
G01 F60.00
G01 Z-0.0999
G01 F120.00
G01 X14.4890 Y13.2790
G01 X14.4890 Y12.9010
G01 X14.1610 Y12.9010
G01 X14.1610 Y13.2790
G01 X14.6650 Y12.8427
G01 X14.6643 Y12.8287
G01 X14.6627 Y12.8176
G01 X14.6599 Y12.8067
G01 X14.6561 Y12.7960
G01 X14.6513 Y12.7859
G01 X14.6455 Y12.7762
G01 X14.6388 Y12.7671
G01 X14.6312 Y12.7588
G01 X14.6229 Y12.7512
G01 X14.6138 Y12.7445
G01 X14.6041 Y12.7387
G01 X14.5940 Y12.7339
G01 X14.5833 Y12.7301
G01 X14.5724 Y12.7273
G01 X14.5613 Y12.7257
G01 X14.5473 Y12.7250
G01 X14.1027 Y12.7250
G01 X14.0887 Y12.7257
G01 X14.0776 Y12.7273
G01 X14.0667 Y12.7301
G01 X14.0560 Y12.7339
G01 X14.0459 Y12.7387
G01 X14.0362 Y12.7445
G01 X14.0271 Y12.7512
G01 X14.0188 Y12.7588
G01 X14.0112 Y12.7671
G01 X14.0045 Y12.7762
G01 X13.9987 Y12.7859
G01 X13.9939 Y12.7960
G01 X13.9901 Y12.8067
G01 X13.9873 Y12.8176
G01 X13.9857 Y12.8287
G01 X13.9850 Y12.8427
G01 X13.9850 Y13.3373
G01 X13.9857 Y13.3513
G01 X13.9873 Y13.3624
G01 X13.9901 Y13.3733
G01 X13.9939 Y13.3840
G01 X13.9987 Y13.3941
G01 X14.0045 Y13.4038
G01 X14.0112 Y13.4129
G01 X14.0188 Y13.4212
G01 X14.0271 Y13.4288
G01 X14.0362 Y13.4355
G01 X14.0459 Y13.4413
G01 X14.0560 Y13.4461
G01 X14.0667 Y13.4499
G01 X14.0776 Y13.4527
G01 X14.0887 Y13.4543
G01 X14.1027 Y13.4550
G01 X14.5473 Y13.4550
G01 X14.5613 Y13.4543
G01 X14.5724 Y13.4527
G01 X14.5833 Y13.4499
G01 X14.5940 Y13.4461
G01 X14.6041 Y13.4413
G01 X14.6138 Y13.4355
G01 X14.6229 Y13.4288
G01 X14.6312 Y13.4212
G01 X14.6388 Y13.4129
G01 X14.6455 Y13.4038
G01 X14.6513 Y13.3941
G01 X14.6561 Y13.3840
G01 X14.6599 Y13.3733
G01 X14.6627 Y13.3624
G01 X14.6643 Y13.3513
G01 X14.6650 Y13.3373
G01 X14.6650 Y12.8427
G00 Z2.0000
G00 X11.9750 Y15.3500
G01 F60.00
G01 Z-0.0999
G01 F120.00
G01 X11.9750 Y16.1300
G01 X11.9850 Y16.1300
G01 X11.9850 Y15.3500
G01 X11.9750 Y15.3500
G00 Z2.0000
G00 X11.5750 Y15.3500
G01 F60.00
G01 Z-0.0999
G01 F120.00
G01 X11.5750 Y16.1300
G01 X11.5850 Y16.1300
G01 X11.5850 Y15.3500
G01 X11.5750 Y15.3500
G00 Z2.0000
G00 X11.1750 Y15.3500
G01 F60.00
G01 Z-0.0999
G01 F120.00
G01 X11.1750 Y16.1300
G01 X11.1850 Y16.1300
G01 X11.1850 Y15.3500
G01 X11.1750 Y15.3500
G00 Z2.0000
G00 X10.7750 Y15.3500
G01 F60.00
G01 Z-0.0999
G01 F120.00
G01 X10.7750 Y16.1300
G01 X10.7850 Y16.1300
G01 X10.7850 Y15.3500
G01 X10.7750 Y15.3500
G00 Z2.0000
G00 X10.3750 Y15.3500
G01 F60.00
G01 Z-0.0999
G01 F120.00
G01 X10.3750 Y16.1300
G01 X10.3850 Y16.1300
G01 X10.3850 Y15.3500
G01 X10.3750 Y15.3500
G00 Z2.0000
G00 X9.9750 Y15.3500
G01 F60.00
G01 Z-0.0999
G01 F120.00
G01 X9.9750 Y16.1300
G01 X9.9850 Y16.1300
G01 X9.9850 Y15.3500
G01 X9.9750 Y15.3500
G00 Z2.0000
G00 X9.5750 Y15.3500
G01 F60.00
G01 Z-0.0999
G01 F120.00
G01 X9.5750 Y16.1300
G01 X9.5850 Y16.1300
G01 X9.5850 Y15.3500
G01 X9.5750 Y15.3500
G00 Z2.0000
G00 X9.1750 Y15.3500
G01 F60.00
G01 Z-0.0999
G01 F120.00
G01 X9.1750 Y16.1300
G01 X9.1850 Y16.1300
G01 X9.1850 Y15.3500
G01 X9.1750 Y15.3500
G00 Z2.0000
G00 X8.7750 Y15.3500
G01 F60.00
G01 Z-0.0999
G01 F120.00
G01 X8.7750 Y16.1300
G01 X8.7850 Y16.1300
G01 X8.7850 Y15.3500
G01 X8.7750 Y15.3500
G00 Z2.0000
G00 X8.3750 Y15.3500
G01 F60.00
G01 Z-0.0999
G01 F120.00
G01 X8.3750 Y16.1300
G01 X8.3850 Y16.1300
G01 X8.3850 Y15.3500
G01 X8.3750 Y15.3500
G00 Z2.0000
G00 X7.9750 Y15.3500
G01 F60.00
G01 Z-0.0999
G01 F120.00
G01 X7.9750 Y16.1300
G01 X7.9850 Y16.1300
G01 X7.9850 Y15.3500
G01 X7.9750 Y15.3500
G00 Z2.0000
G00 X7.5750 Y15.3500
G01 F60.00
G01 Z-0.0999
G01 F120.00
G01 X7.5750 Y16.1300
G01 X7.5850 Y16.1300
G01 X7.5850 Y15.3500
G01 X7.5750 Y15.3500
G00 Z2.0000
G00 X7.1750 Y15.3500
G01 F60.00
G01 Z-0.0999
G01 F120.00
G01 X7.1750 Y16.1300
G01 X7.1850 Y16.1300
G01 X7.1850 Y15.3500
G01 X7.1750 Y15.3500
G00 Z2.0000
G00 X6.7750 Y15.3500
G01 F60.00
G01 Z-0.0999
G01 F120.00
G01 X6.7750 Y16.1300
G01 X6.7850 Y16.1300
G01 X6.7850 Y15.3500
G01 X6.7750 Y15.3500
G00 Z2.0000
G00 X6.3750 Y15.3500
G01 F60.00
G01 Z-0.0999
G01 F120.00
G01 X6.3750 Y16.1300
G01 X6.3850 Y16.1300
G01 X6.3850 Y15.3500
G01 X6.3750 Y15.3500
G00 Z2.0000
G00 X5.9750 Y15.3500
G01 F60.00
G01 Z-0.0999
G01 F120.00
G01 X5.9750 Y16.1300
G01 X5.9850 Y16.1300
G01 X5.9850 Y15.3500
G01 X5.9750 Y15.3500
G00 Z2.0000
G00 X5.5750 Y15.3500
G01 F60.00
G01 Z-0.0999
G01 F120.00
G01 X5.5750 Y16.1300
G01 X5.5850 Y16.1300
G01 X5.5850 Y15.3500
G01 X5.5750 Y15.3500
G00 Z2.0000
G00 X5.5750 Y18.7500
G01 F60.00
G01 Z-0.0999
G01 F120.00
G01 X5.5750 Y19.5300
G01 X5.5850 Y19.5300
G01 X5.5850 Y18.7500
G01 X5.5750 Y18.7500
G00 Z2.0000
G00 X5.9750 Y18.7500
G01 F60.00
G01 Z-0.0999
G01 F120.00
G01 X5.9750 Y19.5300
G01 X5.9850 Y19.5300
G01 X5.9850 Y18.7500
G01 X5.9750 Y18.7500
G00 Z2.0000
G00 X6.3750 Y18.7500
G01 F60.00
G01 Z-0.0999
G01 F120.00
G01 X6.3750 Y19.5300
G01 X6.3850 Y19.5300
G01 X6.3850 Y18.7500
G01 X6.3750 Y18.7500
G00 Z2.0000
G00 X6.7750 Y18.7500
G01 F60.00
G01 Z-0.0999
G01 F120.00
G01 X6.7750 Y19.5300
G01 X6.7850 Y19.5300
G01 X6.7850 Y18.7500
G01 X6.7750 Y18.7500
G00 Z2.0000
G00 X7.1750 Y18.7500
G01 F60.00
G01 Z-0.0999
G01 F120.00
G01 X7.1750 Y19.5300
G01 X7.1850 Y19.5300
G01 X7.1850 Y18.7500
G01 X7.1750 Y18.7500
G00 Z2.0000
G00 X7.5750 Y18.7500
G01 F60.00
G01 Z-0.0999
G01 F120.00
G01 X7.5750 Y19.5300
G01 X7.5850 Y19.5300
G01 X7.5850 Y18.7500
G01 X7.5750 Y18.7500
G00 Z2.0000
G00 X7.9750 Y18.7500
G01 F60.00
G01 Z-0.0999
G01 F120.00
G01 X7.9750 Y19.5300
G01 X7.9850 Y19.5300
G01 X7.9850 Y18.7500
G01 X7.9750 Y18.7500
G00 Z2.0000
G00 X8.3750 Y18.7500
G01 F60.00
G01 Z-0.0999
G01 F120.00
G01 X8.3750 Y19.5300
G01 X8.3850 Y19.5300
G01 X8.3850 Y18.7500
G01 X8.3750 Y18.7500
G00 Z2.0000
G00 X8.7750 Y18.7500
G01 F60.00
G01 Z-0.0999
G01 F120.00
G01 X8.7750 Y19.5300
G01 X8.7850 Y19.5300
G01 X8.7850 Y18.7500
G01 X8.7750 Y18.7500
G00 Z2.0000
G00 X9.1750 Y18.7500
G01 F60.00
G01 Z-0.0999
G01 F120.00
G01 X9.1750 Y19.5300
G01 X9.1850 Y19.5300
G01 X9.1850 Y18.7500
G01 X9.1750 Y18.7500
G00 Z2.0000
G00 X9.5750 Y18.7500
G01 F60.00
G01 Z-0.0999
G01 F120.00
G01 X9.5750 Y19.5300
G01 X9.5850 Y19.5300
G01 X9.5850 Y18.7500
G01 X9.5750 Y18.7500
G00 Z2.0000
G00 X9.9750 Y18.7500
G01 F60.00
G01 Z-0.0999
G01 F120.00
G01 X9.9750 Y19.5300
G01 X9.9850 Y19.5300
G01 X9.9850 Y18.7500
G01 X9.9750 Y18.7500
G00 Z2.0000
G00 X10.3750 Y18.7500
G01 F60.00
G01 Z-0.0999
G01 F120.00
G01 X10.3750 Y19.5300
G01 X10.3850 Y19.5300
G01 X10.3850 Y18.7500
G01 X10.3750 Y18.7500
G00 Z2.0000
G00 X10.7750 Y18.7500
G01 F60.00
G01 Z-0.0999
G01 F120.00
G01 X10.7750 Y19.5300
G01 X10.7850 Y19.5300
G01 X10.7850 Y18.7500
G01 X10.7750 Y18.7500
G00 Z2.0000
G00 X11.1750 Y18.7500
G01 F60.00
G01 Z-0.0999
G01 F120.00
G01 X11.1750 Y19.5300
G01 X11.1850 Y19.5300
G01 X11.1850 Y18.7500
G01 X11.1750 Y18.7500
G00 Z2.0000
G00 X11.5750 Y18.7500
G01 F60.00
G01 Z-0.0999
G01 F120.00
G01 X11.5750 Y19.5300
G01 X11.5850 Y19.5300
G01 X11.5850 Y18.7500
G01 X11.5750 Y18.7500
G00 Z2.0000
G00 X11.9750 Y18.7500
G01 F60.00
G01 Z-0.0999
G01 F120.00
G01 X11.9750 Y19.5300
G01 X11.9850 Y19.5300
G01 X11.9850 Y18.7500
G01 X11.9750 Y18.7500
G00 Z2.0000
M05
G00 Z2.0000
G00 Z15.00
G00 X0.0 Y0.0


