(G-CODE GENERATED BY FLATCAM v8.994 - www.flatcam.org - Version Date: 2020/11/7)

(Name: eMMC_V3.5.2_0603-Edge_Cuts.gm1_cutout_cnc)
(Type: G-code from Geometry)
(Units: MM)

(Created on Monday, 05 August 2024 at 16:41)

(This preprocessor is the default preprocessor used by FlatCAM.)
(It is made to work with MACH3 compatible motion controllers.)

(TOOL DIAMETER: 0.1 mm)
(Feedrate_XY: 120.0 mm/min)
(Feedrate_Z: 60.0 mm/min)
(Feedrate rapids 1500.0 mm/min)

(Z_Cut: -0.1 mm)
(DepthPerCut: 0.6 mm <=>1 passes)
(Z_Move: 2.0 mm)
(Z Start: None mm)
(Z End: 15.0 mm)
(X,Y End: 0.0000, 0.0000 mm)
(Steps per circle: 64)
(Preprocessor Geometry: default)

(X range:    2.0800 ...   15.4800  mm)
(Y range:    2.0100 ...   20.9300  mm)

(Spindle Speed: 100.0 RPM)
G21
G90
G94

G01 F120.00

M5
G00 Z15.0000
G00 X0.0000 Y0.0000
T1

G00 Z15.0000

M03 S700.0
G01 F120.00
G00 X2.0800 Y20.7300
G01 F60.00
G01 Z-0.1000
G01 F120.00
G01 X2.0804 Y20.7423
G01 X2.0818 Y20.7569
G01 X2.0854 Y20.7762
G01 X2.0909 Y20.7951
G01 X2.0982 Y20.8133
G01 X2.1072 Y20.8307
G01 X2.1179 Y20.8471
G01 X2.1302 Y20.8625
G01 X2.1439 Y20.8765
G01 X2.1589 Y20.8892
G01 X2.1751 Y20.9003
G01 X2.1923 Y20.9097
G01 X2.2103 Y20.9174
G01 X2.2290 Y20.9234
G01 X2.2482 Y20.9274
G01 X2.2677 Y20.9296
G01 X2.2800 Y20.9300
G01 X15.2800 Y20.9300
G01 X15.2923 Y20.9296
G01 X15.3069 Y20.9282
G01 X15.3262 Y20.9246
G01 X15.3497 Y20.9174
G01 X15.3677 Y20.9097
G01 X15.3849 Y20.9003
G01 X15.3971 Y20.8921
G01 X15.4125 Y20.8798
G01 X15.4265 Y20.8661
G01 X15.4421 Y20.8471
G01 X15.4528 Y20.8307
G01 X15.4597 Y20.8177
G01 X15.4691 Y20.7951
G01 X15.4734 Y20.7810
G01 X15.4774 Y20.7618
G01 X15.4796 Y20.7423
G01 X15.4800 Y20.7300
G01 X15.4800 Y2.2100
G01 X15.4796 Y2.1977
G01 X15.4782 Y2.1831
G01 X15.4746 Y2.1638
G01 X15.4691 Y2.1449
G01 X15.4597 Y2.1223
G01 X15.4503 Y2.1051
G01 X15.4421 Y2.0929
G01 X15.4298 Y2.0775
G01 X15.4125 Y2.0602
G01 X15.3971 Y2.0479
G01 X15.3807 Y2.0372
G01 X15.3677 Y2.0303
G01 X15.3451 Y2.0209
G01 X15.3262 Y2.0154
G01 X15.3118 Y2.0126
G01 X15.2923 Y2.0104
G01 X15.2800 Y2.0100
G01 X2.2800 Y2.0100
G01 X2.2677 Y2.0104
G01 X2.2531 Y2.0118
G01 X2.2338 Y2.0154
G01 X2.2103 Y2.0226
G01 X2.1923 Y2.0303
G01 X2.1751 Y2.0397
G01 X2.1629 Y2.0479
G01 X2.1475 Y2.0602
G01 X2.1335 Y2.0739
G01 X2.1179 Y2.0929
G01 X2.1072 Y2.1093
G01 X2.1003 Y2.1223
G01 X2.0909 Y2.1449
G01 X2.0866 Y2.1590
G01 X2.0826 Y2.1782
G01 X2.0804 Y2.1977
G01 X2.0800 Y2.2100
G01 X2.0800 Y20.7300
G00 Z2.0000
M05
G00 Z2.0000
G00 Z15.00
G00 X0.0 Y0.0


