(G-CODE GENERATED BY FLATCAM v8.994 - www.flatcam.org - Version Date: 2020/11/7)

(Name: eMMC_V3.5.2_0603-Edge_Cuts.gm1_cutout_cnc)
(Type: G-code from Geometry)
(Units: MM)

(Created on Monday, 05 August 2024 at 15:35)

(This preprocessor is the default preprocessor used by FlatCAM.)
(It is made to work with MACH3 compatible motion controllers.)

(TOOL DIAMETER: 0.1 mm)
(Feedrate_XY: 120.0 mm/min)
(Feedrate_Z: 60.0 mm/min)
(Feedrate rapids 1500.0 mm/min)

(Z_Cut: -0.1 mm)
(DepthPerCut: 0.6 mm <=>1 passes)
(Z_Move: 2.0 mm)
(Z Start: None mm)
(Z End: 15.0 mm)
(X,Y End: None mm)
(Steps per circle: 64)
(Preprocessor Geometry: default)

(X range:    2.0800 ...   15.4800  mm)
(Y range:    1.7100 ...   20.6300  mm)

(Spindle Speed: 400.0 RPM)
G21
G90
G94

G01 F600.00

M5
G00 Z15.0000
G00 X0.0000 Y0.0000
T1

G00 Z15.0000

M03 S100.0
G01 F120.00
G00 X2.0800 Y20.4300
G01 F60.00
G01 Z-0.1000
G01 F120.00
G01 X2.0804 Y20.4423
G01 X2.0818 Y20.4569
G01 X2.0854 Y20.4762
G01 X2.0909 Y20.4951
G01 X2.0982 Y20.5133
G01 X2.1072 Y20.5307
G01 X2.1179 Y20.5471
G01 X2.1302 Y20.5625
G01 X2.1439 Y20.5765
G01 X2.1589 Y20.5892
G01 X2.1751 Y20.6003
G01 X2.1923 Y20.6097
G01 X2.2103 Y20.6174
G01 X2.2290 Y20.6234
G01 X2.2482 Y20.6274
G01 X2.2677 Y20.6296
G01 X2.2800 Y20.6300
G01 X15.2800 Y20.6300
G01 X15.2923 Y20.6296
G01 X15.3069 Y20.6282
G01 X15.3262 Y20.6246
G01 X15.3497 Y20.6174
G01 X15.3677 Y20.6097
G01 X15.3849 Y20.6003
G01 X15.3971 Y20.5921
G01 X15.4125 Y20.5798
G01 X15.4265 Y20.5661
G01 X15.4421 Y20.5471
G01 X15.4528 Y20.5307
G01 X15.4597 Y20.5177
G01 X15.4691 Y20.4951
G01 X15.4734 Y20.4810
G01 X15.4774 Y20.4618
G01 X15.4796 Y20.4423
G01 X15.4800 Y20.4300
G01 X15.4800 Y1.9100
G01 X15.4796 Y1.8977
G01 X15.4782 Y1.8831
G01 X15.4746 Y1.8638
G01 X15.4691 Y1.8449
G01 X15.4597 Y1.8223
G01 X15.4503 Y1.8051
G01 X15.4421 Y1.7929
G01 X15.4298 Y1.7775
G01 X15.4125 Y1.7602
G01 X15.3971 Y1.7479
G01 X15.3807 Y1.7372
G01 X15.3677 Y1.7303
G01 X15.3451 Y1.7209
G01 X15.3262 Y1.7154
G01 X15.3118 Y1.7126
G01 X15.2923 Y1.7104
G01 X15.2800 Y1.7100
G01 X2.2800 Y1.7100
G01 X2.2677 Y1.7104
G01 X2.2531 Y1.7118
G01 X2.2338 Y1.7154
G01 X2.2103 Y1.7226
G01 X2.1923 Y1.7303
G01 X2.1751 Y1.7397
G01 X2.1629 Y1.7479
G01 X2.1475 Y1.7602
G01 X2.1335 Y1.7739
G01 X2.1179 Y1.7929
G01 X2.1072 Y1.8093
G01 X2.1003 Y1.8223
G01 X2.0909 Y1.8449
G01 X2.0866 Y1.8590
G01 X2.0826 Y1.8782
G01 X2.0804 Y1.8977
G01 X2.0800 Y1.9100
G01 X2.0800 Y20.4300
G00 Z2.0000
M05
G00 Z2.0000
G00 Z15.00


