(G-CODE GENERATED BY FLATCAM v8.994 - www.flatcam.org - Version Date: 2020/11/7)

(Name: eMMC_V3.5.2_0603-B_Paste.gbp_mt_paint_cnc)
(Type: G-code from Geometry)
(Units: MM)

(Created on Monday, 05 August 2024 at 15:37)

(This preprocessor is the default preprocessor used by FlatCAM.)
(It is made to work with MACH3 compatible motion controllers.)

(TOOL DIAMETER: 0.1 mm)
(Feedrate_XY: 120.0 mm/min)
(Feedrate_Z: 60.0 mm/min)
(Feedrate rapids 1500.0 mm/min)

(Z_Cut: -0.1 mm)
(Z_Move: 2.0 mm)
(Z Start: None mm)
(Z End: 15.0 mm)
(X,Y End: None mm)
(Steps per circle: 64)
(Preprocessor Geometry: default)

(X range:    2.8450 ...   14.7350  mm)
(Y range:    5.5150 ...   19.2900  mm)

(Spindle Speed: 400.0 RPM)
G21
G90
G94

G01 F120.00

M5
G00 Z15.0000
G00 X0.0000 Y0.0000

G00 Z15.0000

M03 S100.0
G01 F120.00
G00 X3.0850 Y7.0350
G01 F60.00
G01 Z-0.1000
G01 F120.00
G01 X3.0850 Y7.4050
G01 X3.4050 Y7.4050
G01 X3.4050 Y7.0350
G01 X3.0850 Y7.0350
G01 X3.1650 Y7.1150
G01 X3.1650 Y7.3250
G01 X3.3250 Y7.3250
G01 X3.3250 Y7.1150
G01 X3.1650 Y7.1150
G01 X3.4850 Y6.9752
G01 X3.4845 Y6.9671
G01 X3.4836 Y6.9644
G01 X3.4823 Y6.9618
G01 X3.4804 Y6.9596
G01 X3.4782 Y6.9577
G01 X3.4756 Y6.9564
G01 X3.4729 Y6.9555
G01 X3.4648 Y6.9550
G01 X3.0252 Y6.9550
G01 X3.0186 Y6.9553
G01 X3.0157 Y6.9559
G01 X3.0130 Y6.9570
G01 X3.0096 Y6.9596
G01 X3.0077 Y6.9618
G01 X3.0059 Y6.9657
G01 X3.0053 Y6.9686
G01 X3.0050 Y6.9752
G01 X3.0050 Y7.4648
G01 X3.0055 Y7.4729
G01 X3.0070 Y7.4770
G01 X3.0086 Y7.4794
G01 X3.0118 Y7.4823
G01 X3.0157 Y7.4841
G01 X3.0186 Y7.4847
G01 X3.0252 Y7.4850
G01 X3.4648 Y7.4850
G01 X3.4714 Y7.4847
G01 X3.4743 Y7.4841
G01 X3.4770 Y7.4830
G01 X3.4794 Y7.4814
G01 X3.4814 Y7.4794
G01 X3.4830 Y7.4770
G01 X3.4845 Y7.4729
G01 X3.4850 Y7.4648
G01 X3.4850 Y6.9752
G01 X3.5650 Y6.9732
G01 X3.5644 Y6.9607
G01 X3.5630 Y6.9515
G01 X3.5608 Y6.9425
G01 X3.5576 Y6.9337
G01 X3.5536 Y6.9253
G01 X3.5489 Y6.9173
G01 X3.5433 Y6.9098
G01 X3.5371 Y6.9029
G01 X3.5302 Y6.8967
G01 X3.5227 Y6.8911
G01 X3.5147 Y6.8864
G01 X3.5063 Y6.8824
G01 X3.4975 Y6.8792
G01 X3.4885 Y6.8770
G01 X3.4793 Y6.8756
G01 X3.4668 Y6.8750
G01 X3.0232 Y6.8750
G01 X3.0107 Y6.8756
G01 X3.0015 Y6.8770
G01 X2.9925 Y6.8792
G01 X2.9837 Y6.8824
G01 X2.9753 Y6.8864
G01 X2.9673 Y6.8911
G01 X2.9598 Y6.8967
G01 X2.9529 Y6.9029
G01 X2.9467 Y6.9098
G01 X2.9411 Y6.9173
G01 X2.9364 Y6.9253
G01 X2.9324 Y6.9337
G01 X2.9292 Y6.9425
G01 X2.9270 Y6.9515
G01 X2.9256 Y6.9607
G01 X2.9250 Y6.9732
G01 X2.9250 Y7.4668
G01 X2.9256 Y7.4793
G01 X2.9270 Y7.4885
G01 X2.9292 Y7.4975
G01 X2.9324 Y7.5063
G01 X2.9364 Y7.5147
G01 X2.9411 Y7.5227
G01 X2.9467 Y7.5302
G01 X2.9529 Y7.5371
G01 X2.9598 Y7.5433
G01 X2.9673 Y7.5489
G01 X2.9753 Y7.5536
G01 X2.9837 Y7.5576
G01 X2.9925 Y7.5608
G01 X3.0015 Y7.5630
G01 X3.0107 Y7.5644
G01 X3.0232 Y7.5650
G01 X3.4668 Y7.5650
G01 X3.4793 Y7.5644
G01 X3.4885 Y7.5630
G01 X3.4975 Y7.5608
G01 X3.5063 Y7.5576
G01 X3.5147 Y7.5536
G01 X3.5227 Y7.5489
G01 X3.5302 Y7.5433
G01 X3.5371 Y7.5371
G01 X3.5433 Y7.5302
G01 X3.5489 Y7.5227
G01 X3.5536 Y7.5147
G01 X3.5576 Y7.5063
G01 X3.5608 Y7.4975
G01 X3.5630 Y7.4885
G01 X3.5644 Y7.4793
G01 X3.5650 Y7.4668
G01 X3.5650 Y6.9732
G01 X3.6450 Y6.9712
G01 X3.6441 Y6.9529
G01 X3.6416 Y6.9359
G01 X3.6374 Y6.9192
G01 X3.6316 Y6.9031
G01 X3.6243 Y6.8875
G01 X3.6155 Y6.8728
G01 X3.6052 Y6.8590
G01 X3.5937 Y6.8463
G01 X3.5810 Y6.8348
G01 X3.5672 Y6.8245
G01 X3.5525 Y6.8157
G01 X3.5369 Y6.8084
G01 X3.5208 Y6.8026
G01 X3.5041 Y6.7984
G01 X3.4871 Y6.7959
G01 X3.4688 Y6.7950
G01 X3.0212 Y6.7950
G01 X3.0029 Y6.7959
G01 X2.9859 Y6.7984
G01 X2.9692 Y6.8026
G01 X2.9531 Y6.8084
G01 X2.9375 Y6.8157
G01 X2.9228 Y6.8245
G01 X2.9090 Y6.8348
G01 X2.8963 Y6.8463
G01 X2.8848 Y6.8590
G01 X2.8745 Y6.8728
G01 X2.8657 Y6.8875
G01 X2.8584 Y6.9031
G01 X2.8526 Y6.9192
G01 X2.8484 Y6.9359
G01 X2.8459 Y6.9529
G01 X2.8450 Y6.9712
G01 X2.8450 Y7.4688
G01 X2.8459 Y7.4871
G01 X2.8484 Y7.5041
G01 X2.8526 Y7.5208
G01 X2.8584 Y7.5369
G01 X2.8657 Y7.5525
G01 X2.8745 Y7.5672
G01 X2.8848 Y7.5810
G01 X2.8963 Y7.5937
G01 X2.9090 Y7.6052
G01 X2.9228 Y7.6155
G01 X2.9375 Y7.6243
G01 X2.9531 Y7.6316
G01 X2.9692 Y7.6374
G01 X2.9859 Y7.6416
G01 X3.0029 Y7.6441
G01 X3.0212 Y7.6450
G01 X3.4688 Y7.6450
G01 X3.4871 Y7.6441
G01 X3.5041 Y7.6416
G01 X3.5208 Y7.6374
G01 X3.5369 Y7.6316
G01 X3.5525 Y7.6243
G01 X3.5672 Y7.6155
G01 X3.5810 Y7.6052
G01 X3.5937 Y7.5937
G01 X3.6052 Y7.5810
G01 X3.6155 Y7.5672
G01 X3.6243 Y7.5525
G01 X3.6316 Y7.5369
G01 X3.6374 Y7.5208
G01 X3.6416 Y7.5041
G01 X3.6441 Y7.4871
G01 X3.6450 Y7.4688
G01 X3.6450 Y6.9712
G00 Z2.0000
G00 X4.6350 Y7.0350
G01 F60.00
G01 Z-0.1000
G01 F120.00
G01 X4.6350 Y7.4050
G01 X4.9550 Y7.4050
G01 X4.9550 Y7.0350
G01 X4.6350 Y7.0350
G01 X4.7150 Y7.1150
G01 X4.7150 Y7.3250
G01 X4.8750 Y7.3250
G01 X4.8750 Y7.1150
G01 X4.7150 Y7.1150
G01 X5.0350 Y6.9752
G01 X5.0345 Y6.9671
G01 X5.0336 Y6.9644
G01 X5.0323 Y6.9618
G01 X5.0304 Y6.9596
G01 X5.0282 Y6.9577
G01 X5.0256 Y6.9564
G01 X5.0229 Y6.9555
G01 X5.0148 Y6.9550
G01 X4.5752 Y6.9550
G01 X4.5686 Y6.9553
G01 X4.5657 Y6.9559
G01 X4.5630 Y6.9570
G01 X4.5596 Y6.9596
G01 X4.5577 Y6.9618
G01 X4.5559 Y6.9657
G01 X4.5553 Y6.9686
G01 X4.5550 Y6.9752
G01 X4.5550 Y7.4648
G01 X4.5555 Y7.4729
G01 X4.5570 Y7.4770
G01 X4.5586 Y7.4794
G01 X4.5618 Y7.4823
G01 X4.5657 Y7.4841
G01 X4.5686 Y7.4847
G01 X4.5752 Y7.4850
G01 X5.0148 Y7.4850
G01 X5.0214 Y7.4847
G01 X5.0243 Y7.4841
G01 X5.0270 Y7.4830
G01 X5.0294 Y7.4814
G01 X5.0314 Y7.4794
G01 X5.0330 Y7.4770
G01 X5.0345 Y7.4729
G01 X5.0350 Y7.4648
G01 X5.0350 Y6.9752
G01 X5.1150 Y6.9732
G01 X5.1144 Y6.9607
G01 X5.1130 Y6.9515
G01 X5.1108 Y6.9425
G01 X5.1076 Y6.9337
G01 X5.1036 Y6.9253
G01 X5.0989 Y6.9173
G01 X5.0933 Y6.9098
G01 X5.0871 Y6.9029
G01 X5.0802 Y6.8967
G01 X5.0727 Y6.8911
G01 X5.0647 Y6.8864
G01 X5.0563 Y6.8824
G01 X5.0475 Y6.8792
G01 X5.0385 Y6.8770
G01 X5.0293 Y6.8756
G01 X5.0168 Y6.8750
G01 X4.5732 Y6.8750
G01 X4.5607 Y6.8756
G01 X4.5515 Y6.8770
G01 X4.5425 Y6.8792
G01 X4.5337 Y6.8824
G01 X4.5253 Y6.8864
G01 X4.5173 Y6.8911
G01 X4.5098 Y6.8967
G01 X4.5029 Y6.9029
G01 X4.4967 Y6.9098
G01 X4.4911 Y6.9173
G01 X4.4864 Y6.9253
G01 X4.4824 Y6.9337
G01 X4.4792 Y6.9425
G01 X4.4770 Y6.9515
G01 X4.4756 Y6.9607
G01 X4.4750 Y6.9732
G01 X4.4750 Y7.4668
G01 X4.4756 Y7.4793
G01 X4.4770 Y7.4885
G01 X4.4792 Y7.4975
G01 X4.4824 Y7.5063
G01 X4.4864 Y7.5147
G01 X4.4911 Y7.5227
G01 X4.4967 Y7.5302
G01 X4.5029 Y7.5371
G01 X4.5098 Y7.5433
G01 X4.5173 Y7.5489
G01 X4.5253 Y7.5536
G01 X4.5337 Y7.5576
G01 X4.5425 Y7.5608
G01 X4.5515 Y7.5630
G01 X4.5607 Y7.5644
G01 X4.5732 Y7.5650
G01 X5.0168 Y7.5650
G01 X5.0293 Y7.5644
G01 X5.0385 Y7.5630
G01 X5.0475 Y7.5608
G01 X5.0563 Y7.5576
G01 X5.0647 Y7.5536
G01 X5.0727 Y7.5489
G01 X5.0802 Y7.5433
G01 X5.0871 Y7.5371
G01 X5.0933 Y7.5302
G01 X5.0989 Y7.5227
G01 X5.1036 Y7.5147
G01 X5.1076 Y7.5063
G01 X5.1108 Y7.4975
G01 X5.1130 Y7.4885
G01 X5.1144 Y7.4793
G01 X5.1150 Y7.4668
G01 X5.1150 Y6.9732
G01 X5.1950 Y6.9712
G01 X5.1941 Y6.9529
G01 X5.1916 Y6.9359
G01 X5.1874 Y6.9192
G01 X5.1816 Y6.9031
G01 X5.1743 Y6.8875
G01 X5.1655 Y6.8728
G01 X5.1552 Y6.8590
G01 X5.1437 Y6.8463
G01 X5.1310 Y6.8348
G01 X5.1172 Y6.8245
G01 X5.1025 Y6.8157
G01 X5.0869 Y6.8084
G01 X5.0708 Y6.8026
G01 X5.0541 Y6.7984
G01 X5.0371 Y6.7959
G01 X5.0188 Y6.7950
G01 X4.5712 Y6.7950
G01 X4.5529 Y6.7959
G01 X4.5359 Y6.7984
G01 X4.5192 Y6.8026
G01 X4.5031 Y6.8084
G01 X4.4875 Y6.8157
G01 X4.4728 Y6.8245
G01 X4.4590 Y6.8348
G01 X4.4463 Y6.8463
G01 X4.4348 Y6.8590
G01 X4.4245 Y6.8728
G01 X4.4157 Y6.8875
G01 X4.4084 Y6.9031
G01 X4.4026 Y6.9192
G01 X4.3984 Y6.9359
G01 X4.3959 Y6.9529
G01 X4.3950 Y6.9712
G01 X4.3950 Y7.4688
G01 X4.3959 Y7.4871
G01 X4.3984 Y7.5041
G01 X4.4026 Y7.5208
G01 X4.4084 Y7.5369
G01 X4.4157 Y7.5525
G01 X4.4245 Y7.5672
G01 X4.4348 Y7.5810
G01 X4.4463 Y7.5937
G01 X4.4590 Y7.6052
G01 X4.4728 Y7.6155
G01 X4.4875 Y7.6243
G01 X4.5031 Y7.6316
G01 X4.5192 Y7.6374
G01 X4.5359 Y7.6416
G01 X4.5529 Y7.6441
G01 X4.5712 Y7.6450
G01 X5.0188 Y7.6450
G01 X5.0371 Y7.6441
G01 X5.0541 Y7.6416
G01 X5.0708 Y7.6374
G01 X5.0869 Y7.6316
G01 X5.1025 Y7.6243
G01 X5.1172 Y7.6155
G01 X5.1310 Y7.6052
G01 X5.1437 Y7.5937
G01 X5.1552 Y7.5810
G01 X5.1655 Y7.5672
G01 X5.1743 Y7.5525
G01 X5.1816 Y7.5369
G01 X5.1874 Y7.5208
G01 X5.1916 Y7.5041
G01 X5.1941 Y7.4871
G01 X5.1950 Y7.4688
G01 X5.1950 Y6.9712
G00 Z2.0000
G00 X6.5950 Y6.6938
G01 F60.00
G01 Z-0.1000
G01 F120.00
G01 X6.5958 Y6.7097
G01 X6.5979 Y6.7243
G01 X6.6015 Y6.7385
G01 X6.6065 Y6.7524
G01 X6.6128 Y6.7657
G01 X6.6203 Y6.7783
G01 X6.6291 Y6.7901
G01 X6.6390 Y6.8010
G01 X6.6499 Y6.8109
G01 X6.6617 Y6.8197
G01 X6.6743 Y6.8272
G01 X6.6876 Y6.8335
G01 X6.7015 Y6.8385
G01 X6.7157 Y6.8421
G01 X6.7303 Y6.8442
G01 X6.7462 Y6.8450
G01 X7.1438 Y6.8450
G01 X7.1597 Y6.8442
G01 X7.1743 Y6.8421
G01 X7.1885 Y6.8385
G01 X7.2024 Y6.8335
G01 X7.2157 Y6.8272
G01 X7.2283 Y6.8197
G01 X7.2401 Y6.8109
G01 X7.2510 Y6.8010
G01 X7.2609 Y6.7901
G01 X7.2697 Y6.7783
G01 X7.2772 Y6.7657
G01 X7.2835 Y6.7524
G01 X7.2885 Y6.7385
G01 X7.2921 Y6.7243
G01 X7.2942 Y6.7097
G01 X7.2950 Y6.6938
G01 X7.2950 Y6.1462
G01 X7.2942 Y6.1303
G01 X7.2921 Y6.1157
G01 X7.2885 Y6.1015
G01 X7.2835 Y6.0876
G01 X7.2772 Y6.0743
G01 X7.2697 Y6.0617
G01 X7.2609 Y6.0499
G01 X7.2510 Y6.0390
G01 X7.2401 Y6.0291
G01 X7.2283 Y6.0203
G01 X7.2157 Y6.0128
G01 X7.2024 Y6.0065
G01 X7.1885 Y6.0015
G01 X7.1743 Y5.9979
G01 X7.1597 Y5.9958
G01 X7.1438 Y5.9950
G01 X6.7462 Y5.9950
G01 X6.7303 Y5.9958
G01 X6.7157 Y5.9979
G01 X6.7015 Y6.0015
G01 X6.6876 Y6.0065
G01 X6.6743 Y6.0128
G01 X6.6617 Y6.0203
G01 X6.6499 Y6.0291
G01 X6.6390 Y6.0390
G01 X6.6291 Y6.0499
G01 X6.6203 Y6.0617
G01 X6.6128 Y6.0743
G01 X6.6065 Y6.0876
G01 X6.6015 Y6.1015
G01 X6.5979 Y6.1157
G01 X6.5958 Y6.1303
G01 X6.5950 Y6.1462
G01 X6.5950 Y6.6938
G01 X6.6750 Y6.6918
G01 X6.6755 Y6.7018
G01 X6.6765 Y6.7086
G01 X6.6782 Y6.7153
G01 X6.6805 Y6.7217
G01 X6.6834 Y6.7279
G01 X6.6869 Y6.7338
G01 X6.6910 Y6.7393
G01 X6.6956 Y6.7444
G01 X6.7007 Y6.7490
G01 X6.7062 Y6.7531
G01 X6.7121 Y6.7566
G01 X6.7183 Y6.7595
G01 X6.7247 Y6.7618
G01 X6.7314 Y6.7635
G01 X6.7382 Y6.7645
G01 X6.7482 Y6.7650
G01 X7.1418 Y6.7650
G01 X7.1518 Y6.7645
G01 X7.1586 Y6.7635
G01 X7.1653 Y6.7618
G01 X7.1717 Y6.7595
G01 X7.1779 Y6.7566
G01 X7.1838 Y6.7531
G01 X7.1893 Y6.7490
G01 X7.1944 Y6.7444
G01 X7.1990 Y6.7393
G01 X7.2031 Y6.7338
G01 X7.2066 Y6.7279
G01 X7.2095 Y6.7217
G01 X7.2118 Y6.7153
G01 X7.2135 Y6.7086
G01 X7.2145 Y6.7018
G01 X7.2150 Y6.6918
G01 X7.2150 Y6.1482
G01 X7.2145 Y6.1382
G01 X7.2135 Y6.1314
G01 X7.2118 Y6.1247
G01 X7.2095 Y6.1183
G01 X7.2066 Y6.1121
G01 X7.2031 Y6.1062
G01 X7.1990 Y6.1007
G01 X7.1944 Y6.0956
G01 X7.1893 Y6.0910
G01 X7.1838 Y6.0869
G01 X7.1779 Y6.0834
G01 X7.1717 Y6.0805
G01 X7.1653 Y6.0782
G01 X7.1586 Y6.0765
G01 X7.1518 Y6.0755
G01 X7.1418 Y6.0750
G01 X6.7482 Y6.0750
G01 X6.7382 Y6.0755
G01 X6.7314 Y6.0765
G01 X6.7247 Y6.0782
G01 X6.7183 Y6.0805
G01 X6.7121 Y6.0834
G01 X6.7062 Y6.0869
G01 X6.7007 Y6.0910
G01 X6.6956 Y6.0956
G01 X6.6910 Y6.1007
G01 X6.6869 Y6.1062
G01 X6.6834 Y6.1121
G01 X6.6805 Y6.1183
G01 X6.6782 Y6.1247
G01 X6.6765 Y6.1314
G01 X6.6755 Y6.1382
G01 X6.6750 Y6.1482
G01 X6.6750 Y6.6918
G01 X6.7550 Y6.6850
G01 X7.1350 Y6.6850
G01 X7.1350 Y6.1550
G01 X6.7550 Y6.1550
G01 X6.7550 Y6.6850
G01 X6.8350 Y6.6050
G01 X7.0550 Y6.6050
G01 X7.0550 Y6.2350
G01 X6.8350 Y6.2350
G01 X6.8350 Y6.6050
G01 X6.9150 Y6.5250
G01 X6.9750 Y6.5250
G01 X6.9750 Y6.3150
G01 X6.9150 Y6.3150
G01 X6.9150 Y6.5250
G00 Z2.0000
G00 X8.2450 Y6.6938
G01 F60.00
G01 Z-0.1000
G01 F120.00
G01 X8.2458 Y6.7097
G01 X8.2479 Y6.7243
G01 X8.2515 Y6.7385
G01 X8.2565 Y6.7524
G01 X8.2628 Y6.7657
G01 X8.2703 Y6.7783
G01 X8.2791 Y6.7901
G01 X8.2890 Y6.8010
G01 X8.2999 Y6.8109
G01 X8.3117 Y6.8197
G01 X8.3243 Y6.8272
G01 X8.3376 Y6.8335
G01 X8.3515 Y6.8385
G01 X8.3657 Y6.8421
G01 X8.3803 Y6.8442
G01 X8.3962 Y6.8450
G01 X8.7938 Y6.8450
G01 X8.8097 Y6.8442
G01 X8.8243 Y6.8421
G01 X8.8385 Y6.8385
G01 X8.8524 Y6.8335
G01 X8.8657 Y6.8272
G01 X8.8783 Y6.8197
G01 X8.8901 Y6.8109
G01 X8.9010 Y6.8010
G01 X8.9109 Y6.7901
G01 X8.9197 Y6.7783
G01 X8.9272 Y6.7657
G01 X8.9335 Y6.7524
G01 X8.9385 Y6.7385
G01 X8.9421 Y6.7243
G01 X8.9442 Y6.7097
G01 X8.9450 Y6.6938
G01 X8.9450 Y6.1462
G01 X8.9442 Y6.1303
G01 X8.9421 Y6.1157
G01 X8.9385 Y6.1015
G01 X8.9335 Y6.0876
G01 X8.9272 Y6.0743
G01 X8.9197 Y6.0617
G01 X8.9109 Y6.0499
G01 X8.9010 Y6.0390
G01 X8.8901 Y6.0291
G01 X8.8783 Y6.0203
G01 X8.8657 Y6.0128
G01 X8.8524 Y6.0065
G01 X8.8385 Y6.0015
G01 X8.8243 Y5.9979
G01 X8.8097 Y5.9958
G01 X8.7938 Y5.9950
G01 X8.3962 Y5.9950
G01 X8.3803 Y5.9958
G01 X8.3657 Y5.9979
G01 X8.3515 Y6.0015
G01 X8.3376 Y6.0065
G01 X8.3243 Y6.0128
G01 X8.3117 Y6.0203
G01 X8.2999 Y6.0291
G01 X8.2890 Y6.0390
G01 X8.2791 Y6.0499
G01 X8.2703 Y6.0617
G01 X8.2628 Y6.0743
G01 X8.2565 Y6.0876
G01 X8.2515 Y6.1015
G01 X8.2479 Y6.1157
G01 X8.2458 Y6.1303
G01 X8.2450 Y6.1462
G01 X8.2450 Y6.6938
G01 X8.3250 Y6.6918
G01 X8.3255 Y6.7018
G01 X8.3265 Y6.7086
G01 X8.3282 Y6.7153
G01 X8.3305 Y6.7217
G01 X8.3334 Y6.7279
G01 X8.3369 Y6.7338
G01 X8.3410 Y6.7393
G01 X8.3456 Y6.7444
G01 X8.3507 Y6.7490
G01 X8.3562 Y6.7531
G01 X8.3621 Y6.7566
G01 X8.3683 Y6.7595
G01 X8.3747 Y6.7618
G01 X8.3814 Y6.7635
G01 X8.3882 Y6.7645
G01 X8.3982 Y6.7650
G01 X8.7918 Y6.7650
G01 X8.8018 Y6.7645
G01 X8.8086 Y6.7635
G01 X8.8153 Y6.7618
G01 X8.8217 Y6.7595
G01 X8.8279 Y6.7566
G01 X8.8338 Y6.7531
G01 X8.8393 Y6.7490
G01 X8.8444 Y6.7444
G01 X8.8490 Y6.7393
G01 X8.8531 Y6.7338
G01 X8.8566 Y6.7279
G01 X8.8595 Y6.7217
G01 X8.8618 Y6.7153
G01 X8.8635 Y6.7086
G01 X8.8645 Y6.7018
G01 X8.8650 Y6.6918
G01 X8.8650 Y6.1482
G01 X8.8645 Y6.1382
G01 X8.8635 Y6.1314
G01 X8.8618 Y6.1247
G01 X8.8595 Y6.1183
G01 X8.8566 Y6.1121
G01 X8.8531 Y6.1062
G01 X8.8490 Y6.1007
G01 X8.8444 Y6.0956
G01 X8.8393 Y6.0910
G01 X8.8338 Y6.0869
G01 X8.8279 Y6.0834
G01 X8.8217 Y6.0805
G01 X8.8153 Y6.0782
G01 X8.8086 Y6.0765
G01 X8.8018 Y6.0755
G01 X8.7918 Y6.0750
G01 X8.3982 Y6.0750
G01 X8.3882 Y6.0755
G01 X8.3814 Y6.0765
G01 X8.3747 Y6.0782
G01 X8.3683 Y6.0805
G01 X8.3621 Y6.0834
G01 X8.3562 Y6.0869
G01 X8.3507 Y6.0910
G01 X8.3456 Y6.0956
G01 X8.3410 Y6.1007
G01 X8.3369 Y6.1062
G01 X8.3334 Y6.1121
G01 X8.3305 Y6.1183
G01 X8.3282 Y6.1247
G01 X8.3265 Y6.1314
G01 X8.3255 Y6.1382
G01 X8.3250 Y6.1482
G01 X8.3250 Y6.6918
G01 X8.4050 Y6.6850
G01 X8.7850 Y6.6850
G01 X8.7850 Y6.1550
G01 X8.4050 Y6.1550
G01 X8.4050 Y6.6850
G01 X8.4850 Y6.6050
G01 X8.7050 Y6.6050
G01 X8.7050 Y6.2350
G01 X8.4850 Y6.2350
G01 X8.4850 Y6.6050
G01 X8.5650 Y6.5250
G01 X8.6250 Y6.5250
G01 X8.6250 Y6.3150
G01 X8.5650 Y6.3150
G01 X8.5650 Y6.5250
G00 Z2.0000
G00 X8.8650 Y7.9982
G01 F60.00
G01 Z-0.1000
G01 F120.00
G01 X8.8645 Y7.9882
G01 X8.8635 Y7.9814
G01 X8.8618 Y7.9747
G01 X8.8595 Y7.9683
G01 X8.8566 Y7.9621
G01 X8.8531 Y7.9562
G01 X8.8490 Y7.9507
G01 X8.8444 Y7.9456
G01 X8.8393 Y7.9410
G01 X8.8338 Y7.9369
G01 X8.8279 Y7.9334
G01 X8.8217 Y7.9305
G01 X8.8153 Y7.9282
G01 X8.8086 Y7.9265
G01 X8.8018 Y7.9255
G01 X8.7918 Y7.9250
G01 X8.3982 Y7.9250
G01 X8.3882 Y7.9255
G01 X8.3814 Y7.9265
G01 X8.3747 Y7.9282
G01 X8.3683 Y7.9305
G01 X8.3621 Y7.9334
G01 X8.3562 Y7.9369
G01 X8.3507 Y7.9410
G01 X8.3456 Y7.9456
G01 X8.3410 Y7.9507
G01 X8.3369 Y7.9562
G01 X8.3334 Y7.9621
G01 X8.3305 Y7.9683
G01 X8.3282 Y7.9747
G01 X8.3265 Y7.9814
G01 X8.3255 Y7.9882
G01 X8.3250 Y7.9982
G01 X8.3250 Y8.5418
G01 X8.3255 Y8.5518
G01 X8.3265 Y8.5586
G01 X8.3282 Y8.5653
G01 X8.3305 Y8.5717
G01 X8.3334 Y8.5779
G01 X8.3369 Y8.5838
G01 X8.3410 Y8.5893
G01 X8.3456 Y8.5944
G01 X8.3507 Y8.5990
G01 X8.3562 Y8.6031
G01 X8.3621 Y8.6066
G01 X8.3683 Y8.6095
G01 X8.3747 Y8.6118
G01 X8.3814 Y8.6135
G01 X8.3882 Y8.6145
G01 X8.3982 Y8.6150
G01 X8.7918 Y8.6150
G01 X8.8018 Y8.6145
G01 X8.8086 Y8.6135
G01 X8.8153 Y8.6118
G01 X8.8217 Y8.6095
G01 X8.8279 Y8.6066
G01 X8.8338 Y8.6031
G01 X8.8393 Y8.5990
G01 X8.8444 Y8.5944
G01 X8.8490 Y8.5893
G01 X8.8531 Y8.5838
G01 X8.8566 Y8.5779
G01 X8.8595 Y8.5717
G01 X8.8618 Y8.5653
G01 X8.8635 Y8.5586
G01 X8.8645 Y8.5518
G01 X8.8650 Y8.5418
G01 X8.8650 Y7.9982
G01 X8.9450 Y7.9962
G01 X8.9442 Y7.9803
G01 X8.9421 Y7.9657
G01 X8.9385 Y7.9515
G01 X8.9335 Y7.9376
G01 X8.9272 Y7.9243
G01 X8.9197 Y7.9117
G01 X8.9109 Y7.8999
G01 X8.9010 Y7.8890
G01 X8.8901 Y7.8791
G01 X8.8783 Y7.8703
G01 X8.8657 Y7.8628
G01 X8.8524 Y7.8565
G01 X8.8385 Y7.8515
G01 X8.8243 Y7.8479
G01 X8.8097 Y7.8458
G01 X8.7938 Y7.8450
G01 X8.3962 Y7.8450
G01 X8.3803 Y7.8458
G01 X8.3657 Y7.8479
G01 X8.3515 Y7.8515
G01 X8.3376 Y7.8565
G01 X8.3243 Y7.8628
G01 X8.3117 Y7.8703
G01 X8.2999 Y7.8791
G01 X8.2890 Y7.8890
G01 X8.2791 Y7.8999
G01 X8.2703 Y7.9117
G01 X8.2628 Y7.9243
G01 X8.2565 Y7.9376
G01 X8.2515 Y7.9515
G01 X8.2479 Y7.9657
G01 X8.2458 Y7.9803
G01 X8.2450 Y7.9962
G01 X8.2450 Y8.5438
G01 X8.2458 Y8.5597
G01 X8.2479 Y8.5743
G01 X8.2515 Y8.5885
G01 X8.2565 Y8.6024
G01 X8.2628 Y8.6157
G01 X8.2703 Y8.6283
G01 X8.2791 Y8.6401
G01 X8.2890 Y8.6510
G01 X8.2999 Y8.6609
G01 X8.3117 Y8.6697
G01 X8.3243 Y8.6772
G01 X8.3376 Y8.6835
G01 X8.3515 Y8.6885
G01 X8.3657 Y8.6921
G01 X8.3803 Y8.6942
G01 X8.3962 Y8.6950
G01 X8.7938 Y8.6950
G01 X8.8097 Y8.6942
G01 X8.8243 Y8.6921
G01 X8.8385 Y8.6885
G01 X8.8524 Y8.6835
G01 X8.8657 Y8.6772
G01 X8.8783 Y8.6697
G01 X8.8901 Y8.6609
G01 X8.9010 Y8.6510
G01 X8.9109 Y8.6401
G01 X8.9197 Y8.6283
G01 X8.9272 Y8.6157
G01 X8.9335 Y8.6024
G01 X8.9385 Y8.5885
G01 X8.9421 Y8.5743
G01 X8.9442 Y8.5597
G01 X8.9450 Y8.5438
G01 X8.9450 Y7.9962
G01 X8.5650 Y8.3750
G01 X8.6250 Y8.3750
G01 X8.6250 Y8.1650
G01 X8.5650 Y8.1650
G01 X8.5650 Y8.3750
G01 X8.4850 Y8.4550
G01 X8.7050 Y8.4550
G01 X8.7050 Y8.0850
G01 X8.4850 Y8.0850
G01 X8.4850 Y8.4550
G01 X8.4050 Y8.5350
G01 X8.7850 Y8.5350
G01 X8.7850 Y8.0050
G01 X8.4050 Y8.0050
G01 X8.4050 Y8.5350
G00 Z2.0000
G00 X7.2150 Y7.9982
G01 F60.00
G01 Z-0.1000
G01 F120.00
G01 X7.2145 Y7.9882
G01 X7.2135 Y7.9814
G01 X7.2118 Y7.9747
G01 X7.2095 Y7.9683
G01 X7.2066 Y7.9621
G01 X7.2031 Y7.9562
G01 X7.1990 Y7.9507
G01 X7.1944 Y7.9456
G01 X7.1893 Y7.9410
G01 X7.1838 Y7.9369
G01 X7.1779 Y7.9334
G01 X7.1717 Y7.9305
G01 X7.1653 Y7.9282
G01 X7.1586 Y7.9265
G01 X7.1518 Y7.9255
G01 X7.1418 Y7.9250
G01 X6.7482 Y7.9250
G01 X6.7382 Y7.9255
G01 X6.7314 Y7.9265
G01 X6.7247 Y7.9282
G01 X6.7183 Y7.9305
G01 X6.7121 Y7.9334
G01 X6.7062 Y7.9369
G01 X6.7007 Y7.9410
G01 X6.6956 Y7.9456
G01 X6.6910 Y7.9507
G01 X6.6869 Y7.9562
G01 X6.6834 Y7.9621
G01 X6.6805 Y7.9683
G01 X6.6782 Y7.9747
G01 X6.6765 Y7.9814
G01 X6.6755 Y7.9882
G01 X6.6750 Y7.9982
G01 X6.6750 Y8.5418
G01 X6.6755 Y8.5518
G01 X6.6765 Y8.5586
G01 X6.6782 Y8.5653
G01 X6.6805 Y8.5717
G01 X6.6834 Y8.5779
G01 X6.6869 Y8.5838
G01 X6.6910 Y8.5893
G01 X6.6956 Y8.5944
G01 X6.7007 Y8.5990
G01 X6.7062 Y8.6031
G01 X6.7121 Y8.6066
G01 X6.7183 Y8.6095
G01 X6.7247 Y8.6118
G01 X6.7314 Y8.6135
G01 X6.7382 Y8.6145
G01 X6.7482 Y8.6150
G01 X7.1418 Y8.6150
G01 X7.1518 Y8.6145
G01 X7.1586 Y8.6135
G01 X7.1653 Y8.6118
G01 X7.1717 Y8.6095
G01 X7.1779 Y8.6066
G01 X7.1838 Y8.6031
G01 X7.1893 Y8.5990
G01 X7.1944 Y8.5944
G01 X7.1990 Y8.5893
G01 X7.2031 Y8.5838
G01 X7.2066 Y8.5779
G01 X7.2095 Y8.5717
G01 X7.2118 Y8.5653
G01 X7.2135 Y8.5586
G01 X7.2145 Y8.5518
G01 X7.2150 Y8.5418
G01 X7.2150 Y7.9982
G01 X7.2950 Y7.9962
G01 X7.2942 Y7.9803
G01 X7.2921 Y7.9657
G01 X7.2885 Y7.9515
G01 X7.2835 Y7.9376
G01 X7.2772 Y7.9243
G01 X7.2697 Y7.9117
G01 X7.2609 Y7.8999
G01 X7.2510 Y7.8890
G01 X7.2401 Y7.8791
G01 X7.2283 Y7.8703
G01 X7.2157 Y7.8628
G01 X7.2024 Y7.8565
G01 X7.1885 Y7.8515
G01 X7.1743 Y7.8479
G01 X7.1597 Y7.8458
G01 X7.1438 Y7.8450
G01 X6.7462 Y7.8450
G01 X6.7303 Y7.8458
G01 X6.7157 Y7.8479
G01 X6.7015 Y7.8515
G01 X6.6876 Y7.8565
G01 X6.6743 Y7.8628
G01 X6.6617 Y7.8703
G01 X6.6499 Y7.8791
G01 X6.6390 Y7.8890
G01 X6.6291 Y7.8999
G01 X6.6203 Y7.9117
G01 X6.6128 Y7.9243
G01 X6.6065 Y7.9376
G01 X6.6015 Y7.9515
G01 X6.5979 Y7.9657
G01 X6.5958 Y7.9803
G01 X6.5950 Y7.9962
G01 X6.5950 Y8.5438
G01 X6.5958 Y8.5597
G01 X6.5979 Y8.5743
G01 X6.6015 Y8.5885
G01 X6.6065 Y8.6024
G01 X6.6128 Y8.6157
G01 X6.6203 Y8.6283
G01 X6.6291 Y8.6401
G01 X6.6390 Y8.6510
G01 X6.6499 Y8.6609
G01 X6.6617 Y8.6697
G01 X6.6743 Y8.6772
G01 X6.6876 Y8.6835
G01 X6.7015 Y8.6885
G01 X6.7157 Y8.6921
G01 X6.7303 Y8.6942
G01 X6.7462 Y8.6950
G01 X7.1438 Y8.6950
G01 X7.1597 Y8.6942
G01 X7.1743 Y8.6921
G01 X7.1885 Y8.6885
G01 X7.2024 Y8.6835
G01 X7.2157 Y8.6772
G01 X7.2283 Y8.6697
G01 X7.2401 Y8.6609
G01 X7.2510 Y8.6510
G01 X7.2609 Y8.6401
G01 X7.2697 Y8.6283
G01 X7.2772 Y8.6157
G01 X7.2835 Y8.6024
G01 X7.2885 Y8.5885
G01 X7.2921 Y8.5743
G01 X7.2942 Y8.5597
G01 X7.2950 Y8.5438
G01 X7.2950 Y7.9962
G01 X6.9150 Y8.3750
G01 X6.9750 Y8.3750
G01 X6.9750 Y8.1650
G01 X6.9150 Y8.1650
G01 X6.9150 Y8.3750
G01 X6.8350 Y8.4550
G01 X7.0550 Y8.4550
G01 X7.0550 Y8.0850
G01 X6.8350 Y8.0850
G01 X6.8350 Y8.4550
G01 X6.7550 Y8.5350
G01 X7.1350 Y8.5350
G01 X7.1350 Y8.0050
G01 X6.7550 Y8.0050
G01 X6.7550 Y8.5350
G00 Z2.0000
G00 X5.1950 Y8.5912
G01 F60.00
G01 Z-0.1000
G01 F120.00
G01 X5.1950 Y9.0888
G01 X5.1941 Y9.1071
G01 X5.1916 Y9.1241
G01 X5.1874 Y9.1408
G01 X5.1816 Y9.1569
G01 X5.1743 Y9.1725
G01 X5.1655 Y9.1872
G01 X5.1552 Y9.2010
G01 X5.1437 Y9.2137
G01 X5.1310 Y9.2252
G01 X5.1172 Y9.2355
G01 X5.1025 Y9.2443
G01 X5.0869 Y9.2516
G01 X5.0708 Y9.2574
G01 X5.0541 Y9.2616
G01 X5.0371 Y9.2641
G01 X5.0188 Y9.2650
G01 X4.5712 Y9.2650
G01 X4.5529 Y9.2641
G01 X4.5359 Y9.2616
G01 X4.5192 Y9.2574
G01 X4.5031 Y9.2516
G01 X4.4875 Y9.2443
G01 X4.4728 Y9.2355
G01 X4.4590 Y9.2252
G01 X4.4463 Y9.2137
G01 X4.4348 Y9.2010
G01 X4.4245 Y9.1872
G01 X4.4157 Y9.1725
G01 X4.4084 Y9.1569
G01 X4.4026 Y9.1408
G01 X4.3984 Y9.1241
G01 X4.3959 Y9.1071
G01 X4.3950 Y9.0888
G01 X4.3950 Y8.5912
G01 X4.3959 Y8.5729
G01 X4.3984 Y8.5559
G01 X4.4026 Y8.5392
G01 X4.4084 Y8.5231
G01 X4.4157 Y8.5075
G01 X4.4245 Y8.4928
G01 X4.4348 Y8.4790
G01 X4.4463 Y8.4663
G01 X4.4590 Y8.4548
G01 X4.4728 Y8.4445
G01 X4.4875 Y8.4357
G01 X4.5031 Y8.4284
G01 X4.5192 Y8.4226
G01 X4.5359 Y8.4184
G01 X4.5529 Y8.4159
G01 X4.5712 Y8.4150
G01 X5.0188 Y8.4150
G01 X5.0371 Y8.4159
G01 X5.0541 Y8.4184
G01 X5.0708 Y8.4226
G01 X5.0869 Y8.4284
G01 X5.1025 Y8.4357
G01 X5.1172 Y8.4445
G01 X5.1310 Y8.4548
G01 X5.1437 Y8.4663
G01 X5.1552 Y8.4790
G01 X5.1655 Y8.4928
G01 X5.1743 Y8.5075
G01 X5.1816 Y8.5231
G01 X5.1874 Y8.5392
G01 X5.1916 Y8.5559
G01 X5.1941 Y8.5729
G01 X5.1950 Y8.5912
G01 X5.1150 Y8.5932
G01 X5.1150 Y9.0868
G01 X5.1144 Y9.0993
G01 X5.1130 Y9.1085
G01 X5.1108 Y9.1175
G01 X5.1076 Y9.1263
G01 X5.1036 Y9.1347
G01 X5.0989 Y9.1427
G01 X5.0933 Y9.1502
G01 X5.0871 Y9.1571
G01 X5.0802 Y9.1633
G01 X5.0727 Y9.1689
G01 X5.0647 Y9.1736
G01 X5.0563 Y9.1776
G01 X5.0475 Y9.1808
G01 X5.0385 Y9.1830
G01 X5.0293 Y9.1844
G01 X5.0168 Y9.1850
G01 X4.5732 Y9.1850
G01 X4.5607 Y9.1844
G01 X4.5515 Y9.1830
G01 X4.5425 Y9.1808
G01 X4.5337 Y9.1776
G01 X4.5253 Y9.1736
G01 X4.5173 Y9.1689
G01 X4.5098 Y9.1633
G01 X4.5029 Y9.1571
G01 X4.4967 Y9.1502
G01 X4.4911 Y9.1427
G01 X4.4864 Y9.1347
G01 X4.4824 Y9.1263
G01 X4.4792 Y9.1175
G01 X4.4770 Y9.1085
G01 X4.4756 Y9.0993
G01 X4.4750 Y9.0868
G01 X4.4750 Y8.5932
G01 X4.4756 Y8.5807
G01 X4.4770 Y8.5715
G01 X4.4792 Y8.5625
G01 X4.4824 Y8.5537
G01 X4.4864 Y8.5453
G01 X4.4911 Y8.5373
G01 X4.4967 Y8.5298
G01 X4.5029 Y8.5229
G01 X4.5098 Y8.5167
G01 X4.5173 Y8.5111
G01 X4.5253 Y8.5064
G01 X4.5337 Y8.5024
G01 X4.5425 Y8.4992
G01 X4.5515 Y8.4970
G01 X4.5607 Y8.4956
G01 X4.5732 Y8.4950
G01 X5.0168 Y8.4950
G01 X5.0293 Y8.4956
G01 X5.0385 Y8.4970
G01 X5.0475 Y8.4992
G01 X5.0563 Y8.5024
G01 X5.0647 Y8.5064
G01 X5.0727 Y8.5111
G01 X5.0802 Y8.5167
G01 X5.0871 Y8.5229
G01 X5.0933 Y8.5298
G01 X5.0989 Y8.5373
G01 X5.1036 Y8.5453
G01 X5.1076 Y8.5537
G01 X5.1108 Y8.5625
G01 X5.1130 Y8.5715
G01 X5.1144 Y8.5807
G01 X5.1150 Y8.5932
G01 X5.0350 Y8.5952
G01 X5.0350 Y9.0848
G01 X5.0345 Y9.0929
G01 X5.0330 Y9.0970
G01 X5.0314 Y9.0994
G01 X5.0294 Y9.1014
G01 X5.0270 Y9.1030
G01 X5.0243 Y9.1041
G01 X5.0214 Y9.1047
G01 X5.0148 Y9.1050
G01 X4.5752 Y9.1050
G01 X4.5686 Y9.1047
G01 X4.5657 Y9.1041
G01 X4.5618 Y9.1023
G01 X4.5586 Y9.0994
G01 X4.5570 Y9.0970
G01 X4.5555 Y9.0929
G01 X4.5550 Y9.0848
G01 X4.5550 Y8.5952
G01 X4.5553 Y8.5886
G01 X4.5559 Y8.5857
G01 X4.5577 Y8.5818
G01 X4.5596 Y8.5796
G01 X4.5630 Y8.5770
G01 X4.5657 Y8.5759
G01 X4.5686 Y8.5753
G01 X4.5752 Y8.5750
G01 X5.0148 Y8.5750
G01 X5.0229 Y8.5755
G01 X5.0256 Y8.5764
G01 X5.0282 Y8.5777
G01 X5.0304 Y8.5796
G01 X5.0323 Y8.5818
G01 X5.0336 Y8.5844
G01 X5.0345 Y8.5871
G01 X5.0350 Y8.5952
G01 X4.7150 Y8.7350
G01 X4.8750 Y8.7350
G01 X4.8750 Y8.9450
G01 X4.7150 Y8.9450
G01 X4.7150 Y8.7350
G01 X4.6350 Y8.6550
G01 X4.9550 Y8.6550
G01 X4.9550 Y9.0250
G01 X4.6350 Y9.0250
G01 X4.6350 Y8.6550
G00 Z2.0000
G00 X3.6450 Y8.5912
G01 F60.00
G01 Z-0.1000
G01 F120.00
G01 X3.6450 Y9.0888
G01 X3.6441 Y9.1071
G01 X3.6416 Y9.1241
G01 X3.6374 Y9.1408
G01 X3.6316 Y9.1569
G01 X3.6243 Y9.1725
G01 X3.6155 Y9.1872
G01 X3.6052 Y9.2010
G01 X3.5937 Y9.2137
G01 X3.5810 Y9.2252
G01 X3.5672 Y9.2355
G01 X3.5525 Y9.2443
G01 X3.5369 Y9.2516
G01 X3.5208 Y9.2574
G01 X3.5041 Y9.2616
G01 X3.4871 Y9.2641
G01 X3.4688 Y9.2650
G01 X3.0212 Y9.2650
G01 X3.0029 Y9.2641
G01 X2.9859 Y9.2616
G01 X2.9692 Y9.2574
G01 X2.9531 Y9.2516
G01 X2.9375 Y9.2443
G01 X2.9228 Y9.2355
G01 X2.9090 Y9.2252
G01 X2.8963 Y9.2137
G01 X2.8848 Y9.2010
G01 X2.8745 Y9.1872
G01 X2.8657 Y9.1725
G01 X2.8584 Y9.1569
G01 X2.8526 Y9.1408
G01 X2.8484 Y9.1241
G01 X2.8459 Y9.1071
G01 X2.8450 Y9.0888
G01 X2.8450 Y8.5912
G01 X2.8459 Y8.5729
G01 X2.8484 Y8.5559
G01 X2.8526 Y8.5392
G01 X2.8584 Y8.5231
G01 X2.8657 Y8.5075
G01 X2.8745 Y8.4928
G01 X2.8848 Y8.4790
G01 X2.8963 Y8.4663
G01 X2.9090 Y8.4548
G01 X2.9228 Y8.4445
G01 X2.9375 Y8.4357
G01 X2.9531 Y8.4284
G01 X2.9692 Y8.4226
G01 X2.9859 Y8.4184
G01 X3.0029 Y8.4159
G01 X3.0212 Y8.4150
G01 X3.4688 Y8.4150
G01 X3.4871 Y8.4159
G01 X3.5041 Y8.4184
G01 X3.5208 Y8.4226
G01 X3.5369 Y8.4284
G01 X3.5525 Y8.4357
G01 X3.5672 Y8.4445
G01 X3.5810 Y8.4548
G01 X3.5937 Y8.4663
G01 X3.6052 Y8.4790
G01 X3.6155 Y8.4928
G01 X3.6243 Y8.5075
G01 X3.6316 Y8.5231
G01 X3.6374 Y8.5392
G01 X3.6416 Y8.5559
G01 X3.6441 Y8.5729
G01 X3.6450 Y8.5912
G01 X3.5650 Y8.5932
G01 X3.5650 Y9.0868
G01 X3.5644 Y9.0993
G01 X3.5630 Y9.1085
G01 X3.5608 Y9.1175
G01 X3.5576 Y9.1263
G01 X3.5536 Y9.1347
G01 X3.5489 Y9.1427
G01 X3.5433 Y9.1502
G01 X3.5371 Y9.1571
G01 X3.5302 Y9.1633
G01 X3.5227 Y9.1689
G01 X3.5147 Y9.1736
G01 X3.5063 Y9.1776
G01 X3.4975 Y9.1808
G01 X3.4885 Y9.1830
G01 X3.4793 Y9.1844
G01 X3.4668 Y9.1850
G01 X3.0232 Y9.1850
G01 X3.0107 Y9.1844
G01 X3.0015 Y9.1830
G01 X2.9925 Y9.1808
G01 X2.9837 Y9.1776
G01 X2.9753 Y9.1736
G01 X2.9673 Y9.1689
G01 X2.9598 Y9.1633
G01 X2.9529 Y9.1571
G01 X2.9467 Y9.1502
G01 X2.9411 Y9.1427
G01 X2.9364 Y9.1347
G01 X2.9324 Y9.1263
G01 X2.9292 Y9.1175
G01 X2.9270 Y9.1085
G01 X2.9256 Y9.0993
G01 X2.9250 Y9.0868
G01 X2.9250 Y8.5932
G01 X2.9256 Y8.5807
G01 X2.9270 Y8.5715
G01 X2.9292 Y8.5625
G01 X2.9324 Y8.5537
G01 X2.9364 Y8.5453
G01 X2.9411 Y8.5373
G01 X2.9467 Y8.5298
G01 X2.9529 Y8.5229
G01 X2.9598 Y8.5167
G01 X2.9673 Y8.5111
G01 X2.9753 Y8.5064
G01 X2.9837 Y8.5024
G01 X2.9925 Y8.4992
G01 X3.0015 Y8.4970
G01 X3.0107 Y8.4956
G01 X3.0232 Y8.4950
G01 X3.4668 Y8.4950
G01 X3.4793 Y8.4956
G01 X3.4885 Y8.4970
G01 X3.4975 Y8.4992
G01 X3.5063 Y8.5024
G01 X3.5147 Y8.5064
G01 X3.5227 Y8.5111
G01 X3.5302 Y8.5167
G01 X3.5371 Y8.5229
G01 X3.5433 Y8.5298
G01 X3.5489 Y8.5373
G01 X3.5536 Y8.5453
G01 X3.5576 Y8.5537
G01 X3.5608 Y8.5625
G01 X3.5630 Y8.5715
G01 X3.5644 Y8.5807
G01 X3.5650 Y8.5932
G01 X3.4850 Y8.5952
G01 X3.4850 Y9.0848
G01 X3.4845 Y9.0929
G01 X3.4830 Y9.0970
G01 X3.4814 Y9.0994
G01 X3.4794 Y9.1014
G01 X3.4770 Y9.1030
G01 X3.4743 Y9.1041
G01 X3.4714 Y9.1047
G01 X3.4648 Y9.1050
G01 X3.0252 Y9.1050
G01 X3.0186 Y9.1047
G01 X3.0157 Y9.1041
G01 X3.0118 Y9.1023
G01 X3.0086 Y9.0994
G01 X3.0070 Y9.0970
G01 X3.0055 Y9.0929
G01 X3.0050 Y9.0848
G01 X3.0050 Y8.5952
G01 X3.0053 Y8.5886
G01 X3.0059 Y8.5857
G01 X3.0077 Y8.5818
G01 X3.0096 Y8.5796
G01 X3.0130 Y8.5770
G01 X3.0157 Y8.5759
G01 X3.0186 Y8.5753
G01 X3.0252 Y8.5750
G01 X3.4648 Y8.5750
G01 X3.4729 Y8.5755
G01 X3.4756 Y8.5764
G01 X3.4782 Y8.5777
G01 X3.4804 Y8.5796
G01 X3.4823 Y8.5818
G01 X3.4836 Y8.5844
G01 X3.4845 Y8.5871
G01 X3.4850 Y8.5952
G01 X3.1650 Y8.7350
G01 X3.3250 Y8.7350
G01 X3.3250 Y8.9450
G01 X3.1650 Y8.9450
G01 X3.1650 Y8.7350
G01 X3.0850 Y8.6550
G01 X3.4050 Y8.6550
G01 X3.4050 Y9.0250
G01 X3.0850 Y9.0250
G01 X3.0850 Y8.6550
G00 Z2.0000
G00 X5.5150 Y14.9900
G01 F60.00
G01 Z-0.1000
G01 F120.00
G01 X5.5150 Y15.8900
G01 X5.6450 Y15.8900
G01 X5.6450 Y14.9900
G01 X5.5150 Y14.9900
G00 Z2.0000
G00 X5.9150 Y14.9900
G01 F60.00
G01 Z-0.1000
G01 F120.00
G01 X5.9150 Y15.8900
G01 X6.0450 Y15.8900
G01 X6.0450 Y14.9900
G01 X5.9150 Y14.9900
G00 Z2.0000
G00 X6.3150 Y14.9900
G01 F60.00
G01 Z-0.1000
G01 F120.00
G01 X6.3150 Y15.8900
G01 X6.4450 Y15.8900
G01 X6.4450 Y14.9900
G01 X6.3150 Y14.9900
G00 Z2.0000
G00 X6.7150 Y14.9900
G01 F60.00
G01 Z-0.1000
G01 F120.00
G01 X6.7150 Y15.8900
G01 X6.8450 Y15.8900
G01 X6.8450 Y14.9900
G01 X6.7150 Y14.9900
G00 Z2.0000
G00 X7.1150 Y14.9900
G01 F60.00
G01 Z-0.1000
G01 F120.00
G01 X7.1150 Y15.8900
G01 X7.2450 Y15.8900
G01 X7.2450 Y14.9900
G01 X7.1150 Y14.9900
G00 Z2.0000
G00 X7.5150 Y14.9900
G01 F60.00
G01 Z-0.1000
G01 F120.00
G01 X7.5150 Y15.8900
G01 X7.6450 Y15.8900
G01 X7.6450 Y14.9900
G01 X7.5150 Y14.9900
G00 Z2.0000
G00 X7.9150 Y14.9900
G01 F60.00
G01 Z-0.1000
G01 F120.00
G01 X7.9150 Y15.8900
G01 X8.0450 Y15.8900
G01 X8.0450 Y14.9900
G01 X7.9150 Y14.9900
G00 Z2.0000
G00 X8.3150 Y14.9900
G01 F60.00
G01 Z-0.1000
G01 F120.00
G01 X8.3150 Y15.8900
G01 X8.4450 Y15.8900
G01 X8.4450 Y14.9900
G01 X8.3150 Y14.9900
G00 Z2.0000
G00 X8.7150 Y14.9900
G01 F60.00
G01 Z-0.1000
G01 F120.00
G01 X8.7150 Y15.8900
G01 X8.8450 Y15.8900
G01 X8.8450 Y14.9900
G01 X8.7150 Y14.9900
G00 Z2.0000
G00 X9.1150 Y14.9900
G01 F60.00
G01 Z-0.1000
G01 F120.00
G01 X9.1150 Y15.8900
G01 X9.2450 Y15.8900
G01 X9.2450 Y14.9900
G01 X9.1150 Y14.9900
G00 Z2.0000
G00 X9.5150 Y14.9900
G01 F60.00
G01 Z-0.1000
G01 F120.00
G01 X9.5150 Y15.8900
G01 X9.6450 Y15.8900
G01 X9.6450 Y14.9900
G01 X9.5150 Y14.9900
G00 Z2.0000
G00 X9.9150 Y14.9900
G01 F60.00
G01 Z-0.1000
G01 F120.00
G01 X9.9150 Y15.8900
G01 X10.0450 Y15.8900
G01 X10.0450 Y14.9900
G01 X9.9150 Y14.9900
G00 Z2.0000
G00 X10.3150 Y14.9900
G01 F60.00
G01 Z-0.1000
G01 F120.00
G01 X10.3150 Y15.8900
G01 X10.4450 Y15.8900
G01 X10.4450 Y14.9900
G01 X10.3150 Y14.9900
G00 Z2.0000
G00 X10.7150 Y14.9900
G01 F60.00
G01 Z-0.1000
G01 F120.00
G01 X10.7150 Y15.8900
G01 X10.8450 Y15.8900
G01 X10.8450 Y14.9900
G01 X10.7150 Y14.9900
G00 Z2.0000
G00 X11.1150 Y14.9900
G01 F60.00
G01 Z-0.1000
G01 F120.00
G01 X11.1150 Y15.8900
G01 X11.2450 Y15.8900
G01 X11.2450 Y14.9900
G01 X11.1150 Y14.9900
G00 Z2.0000
G00 X11.5150 Y14.9900
G01 F60.00
G01 Z-0.1000
G01 F120.00
G01 X11.5150 Y15.8900
G01 X11.6450 Y15.8900
G01 X11.6450 Y14.9900
G01 X11.5150 Y14.9900
G00 Z2.0000
G00 X11.9150 Y14.9900
G01 F60.00
G01 Z-0.1000
G01 F120.00
G01 X11.9150 Y15.8900
G01 X12.0450 Y15.8900
G01 X12.0450 Y14.9900
G01 X11.9150 Y14.9900
G00 Z2.0000
G00 X12.6150 Y12.6050
G01 F60.00
G01 Z-0.1000
G01 F120.00
G01 X12.6150 Y12.9750
G01 X12.9350 Y12.9750
G01 X12.9350 Y12.6050
G01 X12.6150 Y12.6050
G01 X12.6950 Y12.6850
G01 X12.6950 Y12.8950
G01 X12.8550 Y12.8950
G01 X12.8550 Y12.6850
G01 X12.6950 Y12.6850
G01 X13.0150 Y12.5452
G01 X13.0145 Y12.5371
G01 X13.0136 Y12.5344
G01 X13.0123 Y12.5318
G01 X13.0104 Y12.5296
G01 X13.0082 Y12.5277
G01 X13.0056 Y12.5264
G01 X13.0029 Y12.5255
G01 X12.9948 Y12.5250
G01 X12.5552 Y12.5250
G01 X12.5486 Y12.5253
G01 X12.5457 Y12.5259
G01 X12.5430 Y12.5270
G01 X12.5396 Y12.5296
G01 X12.5377 Y12.5318
G01 X12.5359 Y12.5357
G01 X12.5353 Y12.5386
G01 X12.5350 Y12.5452
G01 X12.5350 Y13.0348
G01 X12.5355 Y13.0429
G01 X12.5370 Y13.0470
G01 X12.5386 Y13.0494
G01 X12.5418 Y13.0523
G01 X12.5457 Y13.0541
G01 X12.5486 Y13.0547
G01 X12.5552 Y13.0550
G01 X12.9948 Y13.0550
G01 X13.0014 Y13.0547
G01 X13.0043 Y13.0541
G01 X13.0070 Y13.0530
G01 X13.0094 Y13.0514
G01 X13.0114 Y13.0494
G01 X13.0130 Y13.0470
G01 X13.0145 Y13.0429
G01 X13.0150 Y13.0348
G01 X13.0150 Y12.5452
G01 X13.0950 Y12.5432
G01 X13.0944 Y12.5307
G01 X13.0930 Y12.5215
G01 X13.0908 Y12.5125
G01 X13.0876 Y12.5037
G01 X13.0836 Y12.4953
G01 X13.0789 Y12.4873
G01 X13.0733 Y12.4798
G01 X13.0671 Y12.4729
G01 X13.0602 Y12.4667
G01 X13.0527 Y12.4611
G01 X13.0447 Y12.4564
G01 X13.0363 Y12.4524
G01 X13.0275 Y12.4492
G01 X13.0185 Y12.4470
G01 X13.0093 Y12.4456
G01 X12.9968 Y12.4450
G01 X12.5532 Y12.4450
G01 X12.5407 Y12.4456
G01 X12.5315 Y12.4470
G01 X12.5225 Y12.4492
G01 X12.5137 Y12.4524
G01 X12.5053 Y12.4564
G01 X12.4973 Y12.4611
G01 X12.4898 Y12.4667
G01 X12.4829 Y12.4729
G01 X12.4767 Y12.4798
G01 X12.4711 Y12.4873
G01 X12.4664 Y12.4953
G01 X12.4624 Y12.5037
G01 X12.4592 Y12.5125
G01 X12.4570 Y12.5215
G01 X12.4556 Y12.5307
G01 X12.4550 Y12.5432
G01 X12.4550 Y13.0368
G01 X12.4556 Y13.0493
G01 X12.4570 Y13.0585
G01 X12.4592 Y13.0675
G01 X12.4624 Y13.0763
G01 X12.4664 Y13.0847
G01 X12.4711 Y13.0927
G01 X12.4767 Y13.1002
G01 X12.4829 Y13.1071
G01 X12.4898 Y13.1133
G01 X12.4973 Y13.1189
G01 X12.5053 Y13.1236
G01 X12.5137 Y13.1276
G01 X12.5225 Y13.1308
G01 X12.5315 Y13.1330
G01 X12.5407 Y13.1344
G01 X12.5532 Y13.1350
G01 X12.9968 Y13.1350
G01 X13.0093 Y13.1344
G01 X13.0185 Y13.1330
G01 X13.0275 Y13.1308
G01 X13.0363 Y13.1276
G01 X13.0447 Y13.1236
G01 X13.0527 Y13.1189
G01 X13.0602 Y13.1133
G01 X13.0671 Y13.1071
G01 X13.0733 Y13.1002
G01 X13.0789 Y13.0927
G01 X13.0836 Y13.0847
G01 X13.0876 Y13.0763
G01 X13.0908 Y13.0675
G01 X13.0930 Y13.0585
G01 X13.0944 Y13.0493
G01 X13.0950 Y13.0368
G01 X13.0950 Y12.5432
G01 X13.1750 Y12.5412
G01 X13.1741 Y12.5229
G01 X13.1716 Y12.5059
G01 X13.1674 Y12.4892
G01 X13.1616 Y12.4731
G01 X13.1543 Y12.4575
G01 X13.1455 Y12.4428
G01 X13.1352 Y12.4290
G01 X13.1237 Y12.4163
G01 X13.1110 Y12.4048
G01 X13.0972 Y12.3945
G01 X13.0825 Y12.3857
G01 X13.0669 Y12.3784
G01 X13.0508 Y12.3726
G01 X13.0341 Y12.3684
G01 X13.0171 Y12.3659
G01 X12.9988 Y12.3650
G01 X12.5512 Y12.3650
G01 X12.5329 Y12.3659
G01 X12.5159 Y12.3684
G01 X12.4992 Y12.3726
G01 X12.4831 Y12.3784
G01 X12.4675 Y12.3857
G01 X12.4528 Y12.3945
G01 X12.4390 Y12.4048
G01 X12.4263 Y12.4163
G01 X12.4148 Y12.4290
G01 X12.4045 Y12.4428
G01 X12.3957 Y12.4575
G01 X12.3884 Y12.4731
G01 X12.3826 Y12.4892
G01 X12.3784 Y12.5059
G01 X12.3759 Y12.5229
G01 X12.3750 Y12.5412
G01 X12.3750 Y13.0388
G01 X12.3759 Y13.0571
G01 X12.3784 Y13.0741
G01 X12.3826 Y13.0908
G01 X12.3884 Y13.1069
G01 X12.3957 Y13.1225
G01 X12.4045 Y13.1372
G01 X12.4148 Y13.1510
G01 X12.4263 Y13.1637
G01 X12.4390 Y13.1752
G01 X12.4528 Y13.1855
G01 X12.4675 Y13.1943
G01 X12.4831 Y13.2016
G01 X12.4992 Y13.2074
G01 X12.5159 Y13.2116
G01 X12.5329 Y13.2141
G01 X12.5512 Y13.2150
G01 X12.9988 Y13.2150
G01 X13.0171 Y13.2141
G01 X13.0341 Y13.2116
G01 X13.0508 Y13.2074
G01 X13.0669 Y13.2016
G01 X13.0825 Y13.1943
G01 X13.0972 Y13.1855
G01 X13.1110 Y13.1752
G01 X13.1237 Y13.1637
G01 X13.1352 Y13.1510
G01 X13.1455 Y13.1372
G01 X13.1543 Y13.1225
G01 X13.1616 Y13.1069
G01 X13.1674 Y13.0908
G01 X13.1716 Y13.0741
G01 X13.1741 Y13.0571
G01 X13.1750 Y13.0388
G01 X13.1750 Y12.5412
G00 Z2.0000
G00 X14.1650 Y12.6050
G01 F60.00
G01 Z-0.1000
G01 F120.00
G01 X14.1650 Y12.9750
G01 X14.4850 Y12.9750
G01 X14.4850 Y12.6050
G01 X14.1650 Y12.6050
G01 X14.2450 Y12.6850
G01 X14.2450 Y12.8950
G01 X14.4050 Y12.8950
G01 X14.4050 Y12.6850
G01 X14.2450 Y12.6850
G01 X14.5650 Y12.5452
G01 X14.5645 Y12.5371
G01 X14.5636 Y12.5344
G01 X14.5623 Y12.5318
G01 X14.5604 Y12.5296
G01 X14.5582 Y12.5277
G01 X14.5556 Y12.5264
G01 X14.5529 Y12.5255
G01 X14.5448 Y12.5250
G01 X14.1052 Y12.5250
G01 X14.0986 Y12.5253
G01 X14.0957 Y12.5259
G01 X14.0930 Y12.5270
G01 X14.0896 Y12.5296
G01 X14.0877 Y12.5318
G01 X14.0859 Y12.5357
G01 X14.0853 Y12.5386
G01 X14.0850 Y12.5452
G01 X14.0850 Y13.0348
G01 X14.0855 Y13.0429
G01 X14.0870 Y13.0470
G01 X14.0886 Y13.0494
G01 X14.0918 Y13.0523
G01 X14.0957 Y13.0541
G01 X14.0986 Y13.0547
G01 X14.1052 Y13.0550
G01 X14.5448 Y13.0550
G01 X14.5514 Y13.0547
G01 X14.5543 Y13.0541
G01 X14.5570 Y13.0530
G01 X14.5594 Y13.0514
G01 X14.5614 Y13.0494
G01 X14.5630 Y13.0470
G01 X14.5645 Y13.0429
G01 X14.5650 Y13.0348
G01 X14.5650 Y12.5452
G01 X14.6450 Y12.5432
G01 X14.6444 Y12.5307
G01 X14.6430 Y12.5215
G01 X14.6408 Y12.5125
G01 X14.6376 Y12.5037
G01 X14.6336 Y12.4953
G01 X14.6289 Y12.4873
G01 X14.6233 Y12.4798
G01 X14.6171 Y12.4729
G01 X14.6102 Y12.4667
G01 X14.6027 Y12.4611
G01 X14.5947 Y12.4564
G01 X14.5863 Y12.4524
G01 X14.5775 Y12.4492
G01 X14.5685 Y12.4470
G01 X14.5593 Y12.4456
G01 X14.5468 Y12.4450
G01 X14.1032 Y12.4450
G01 X14.0907 Y12.4456
G01 X14.0815 Y12.4470
G01 X14.0725 Y12.4492
G01 X14.0637 Y12.4524
G01 X14.0553 Y12.4564
G01 X14.0473 Y12.4611
G01 X14.0398 Y12.4667
G01 X14.0329 Y12.4729
G01 X14.0267 Y12.4798
G01 X14.0211 Y12.4873
G01 X14.0164 Y12.4953
G01 X14.0124 Y12.5037
G01 X14.0092 Y12.5125
G01 X14.0070 Y12.5215
G01 X14.0056 Y12.5307
G01 X14.0050 Y12.5432
G01 X14.0050 Y13.0368
G01 X14.0056 Y13.0493
G01 X14.0070 Y13.0585
G01 X14.0092 Y13.0675
G01 X14.0124 Y13.0763
G01 X14.0164 Y13.0847
G01 X14.0211 Y13.0927
G01 X14.0267 Y13.1002
G01 X14.0329 Y13.1071
G01 X14.0398 Y13.1133
G01 X14.0473 Y13.1189
G01 X14.0553 Y13.1236
G01 X14.0637 Y13.1276
G01 X14.0725 Y13.1308
G01 X14.0815 Y13.1330
G01 X14.0907 Y13.1344
G01 X14.1032 Y13.1350
G01 X14.5468 Y13.1350
G01 X14.5593 Y13.1344
G01 X14.5685 Y13.1330
G01 X14.5775 Y13.1308
G01 X14.5863 Y13.1276
G01 X14.5947 Y13.1236
G01 X14.6027 Y13.1189
G01 X14.6102 Y13.1133
G01 X14.6171 Y13.1071
G01 X14.6233 Y13.1002
G01 X14.6289 Y13.0927
G01 X14.6336 Y13.0847
G01 X14.6376 Y13.0763
G01 X14.6408 Y13.0675
G01 X14.6430 Y13.0585
G01 X14.6444 Y13.0493
G01 X14.6450 Y13.0368
G01 X14.6450 Y12.5432
G01 X14.7250 Y12.5412
G01 X14.7241 Y12.5229
G01 X14.7216 Y12.5059
G01 X14.7174 Y12.4892
G01 X14.7116 Y12.4731
G01 X14.7043 Y12.4575
G01 X14.6955 Y12.4428
G01 X14.6852 Y12.4290
G01 X14.6737 Y12.4163
G01 X14.6610 Y12.4048
G01 X14.6472 Y12.3945
G01 X14.6325 Y12.3857
G01 X14.6169 Y12.3784
G01 X14.6008 Y12.3726
G01 X14.5841 Y12.3684
G01 X14.5671 Y12.3659
G01 X14.5488 Y12.3650
G01 X14.1012 Y12.3650
G01 X14.0829 Y12.3659
G01 X14.0659 Y12.3684
G01 X14.0492 Y12.3726
G01 X14.0331 Y12.3784
G01 X14.0175 Y12.3857
G01 X14.0028 Y12.3945
G01 X13.9890 Y12.4048
G01 X13.9763 Y12.4163
G01 X13.9648 Y12.4290
G01 X13.9545 Y12.4428
G01 X13.9457 Y12.4575
G01 X13.9384 Y12.4731
G01 X13.9326 Y12.4892
G01 X13.9284 Y12.5059
G01 X13.9259 Y12.5229
G01 X13.9250 Y12.5412
G01 X13.9250 Y13.0388
G01 X13.9259 Y13.0571
G01 X13.9284 Y13.0741
G01 X13.9326 Y13.0908
G01 X13.9384 Y13.1069
G01 X13.9457 Y13.1225
G01 X13.9545 Y13.1372
G01 X13.9648 Y13.1510
G01 X13.9763 Y13.1637
G01 X13.9890 Y13.1752
G01 X14.0028 Y13.1855
G01 X14.0175 Y13.1943
G01 X14.0331 Y13.2016
G01 X14.0492 Y13.2074
G01 X14.0659 Y13.2116
G01 X14.0829 Y13.2141
G01 X14.1012 Y13.2150
G01 X14.5488 Y13.2150
G01 X14.5671 Y13.2141
G01 X14.5841 Y13.2116
G01 X14.6008 Y13.2074
G01 X14.6169 Y13.2016
G01 X14.6325 Y13.1943
G01 X14.6472 Y13.1855
G01 X14.6610 Y13.1752
G01 X14.6737 Y13.1637
G01 X14.6852 Y13.1510
G01 X14.6955 Y13.1372
G01 X14.7043 Y13.1225
G01 X14.7116 Y13.1069
G01 X14.7174 Y13.0908
G01 X14.7216 Y13.0741
G01 X14.7241 Y13.0571
G01 X14.7250 Y13.0388
G01 X14.7250 Y12.5412
G00 Z2.0000
G00 X14.7250 Y10.9512
G01 F60.00
G01 Z-0.1000
G01 F120.00
G01 X14.7250 Y11.4488
G01 X14.7241 Y11.4671
G01 X14.7216 Y11.4841
G01 X14.7174 Y11.5008
G01 X14.7116 Y11.5169
G01 X14.7043 Y11.5325
G01 X14.6955 Y11.5472
G01 X14.6852 Y11.5610
G01 X14.6737 Y11.5737
G01 X14.6610 Y11.5852
G01 X14.6472 Y11.5955
G01 X14.6325 Y11.6043
G01 X14.6169 Y11.6116
G01 X14.6008 Y11.6174
G01 X14.5841 Y11.6216
G01 X14.5671 Y11.6241
G01 X14.5488 Y11.6250
G01 X14.1012 Y11.6250
G01 X14.0829 Y11.6241
G01 X14.0659 Y11.6216
G01 X14.0492 Y11.6174
G01 X14.0331 Y11.6116
G01 X14.0175 Y11.6043
G01 X14.0028 Y11.5955
G01 X13.9890 Y11.5852
G01 X13.9763 Y11.5737
G01 X13.9648 Y11.5610
G01 X13.9545 Y11.5472
G01 X13.9457 Y11.5325
G01 X13.9384 Y11.5169
G01 X13.9326 Y11.5008
G01 X13.9284 Y11.4841
G01 X13.9259 Y11.4671
G01 X13.9250 Y11.4488
G01 X13.9250 Y10.9512
G01 X13.9259 Y10.9329
G01 X13.9284 Y10.9159
G01 X13.9326 Y10.8992
G01 X13.9384 Y10.8831
G01 X13.9457 Y10.8675
G01 X13.9545 Y10.8528
G01 X13.9648 Y10.8390
G01 X13.9763 Y10.8263
G01 X13.9890 Y10.8148
G01 X14.0028 Y10.8045
G01 X14.0175 Y10.7957
G01 X14.0331 Y10.7884
G01 X14.0492 Y10.7826
G01 X14.0659 Y10.7784
G01 X14.0829 Y10.7759
G01 X14.1012 Y10.7750
G01 X14.5488 Y10.7750
G01 X14.5671 Y10.7759
G01 X14.5841 Y10.7784
G01 X14.6008 Y10.7826
G01 X14.6169 Y10.7884
G01 X14.6325 Y10.7957
G01 X14.6472 Y10.8045
G01 X14.6610 Y10.8148
G01 X14.6737 Y10.8263
G01 X14.6852 Y10.8390
G01 X14.6955 Y10.8528
G01 X14.7043 Y10.8675
G01 X14.7116 Y10.8831
G01 X14.7174 Y10.8992
G01 X14.7216 Y10.9159
G01 X14.7241 Y10.9329
G01 X14.7250 Y10.9512
G01 X14.6450 Y10.9532
G01 X14.6450 Y11.4468
G01 X14.6444 Y11.4593
G01 X14.6430 Y11.4685
G01 X14.6408 Y11.4775
G01 X14.6376 Y11.4863
G01 X14.6336 Y11.4947
G01 X14.6289 Y11.5027
G01 X14.6233 Y11.5102
G01 X14.6171 Y11.5171
G01 X14.6102 Y11.5233
G01 X14.6027 Y11.5289
G01 X14.5947 Y11.5336
G01 X14.5863 Y11.5376
G01 X14.5775 Y11.5408
G01 X14.5685 Y11.5430
G01 X14.5593 Y11.5444
G01 X14.5468 Y11.5450
G01 X14.1032 Y11.5450
G01 X14.0907 Y11.5444
G01 X14.0815 Y11.5430
G01 X14.0725 Y11.5408
G01 X14.0637 Y11.5376
G01 X14.0553 Y11.5336
G01 X14.0473 Y11.5289
G01 X14.0398 Y11.5233
G01 X14.0329 Y11.5171
G01 X14.0267 Y11.5102
G01 X14.0211 Y11.5027
G01 X14.0164 Y11.4947
G01 X14.0124 Y11.4863
G01 X14.0092 Y11.4775
G01 X14.0070 Y11.4685
G01 X14.0056 Y11.4593
G01 X14.0050 Y11.4468
G01 X14.0050 Y10.9532
G01 X14.0056 Y10.9407
G01 X14.0070 Y10.9315
G01 X14.0092 Y10.9225
G01 X14.0124 Y10.9137
G01 X14.0164 Y10.9053
G01 X14.0211 Y10.8973
G01 X14.0267 Y10.8898
G01 X14.0329 Y10.8829
G01 X14.0398 Y10.8767
G01 X14.0473 Y10.8711
G01 X14.0553 Y10.8664
G01 X14.0637 Y10.8624
G01 X14.0725 Y10.8592
G01 X14.0815 Y10.8570
G01 X14.0907 Y10.8556
G01 X14.1032 Y10.8550
G01 X14.5468 Y10.8550
G01 X14.5593 Y10.8556
G01 X14.5685 Y10.8570
G01 X14.5775 Y10.8592
G01 X14.5863 Y10.8624
G01 X14.5947 Y10.8664
G01 X14.6027 Y10.8711
G01 X14.6102 Y10.8767
G01 X14.6171 Y10.8829
G01 X14.6233 Y10.8898
G01 X14.6289 Y10.8973
G01 X14.6336 Y10.9053
G01 X14.6376 Y10.9137
G01 X14.6408 Y10.9225
G01 X14.6430 Y10.9315
G01 X14.6444 Y10.9407
G01 X14.6450 Y10.9532
G01 X14.5650 Y10.9552
G01 X14.5650 Y11.4448
G01 X14.5645 Y11.4529
G01 X14.5630 Y11.4570
G01 X14.5614 Y11.4594
G01 X14.5594 Y11.4614
G01 X14.5570 Y11.4630
G01 X14.5543 Y11.4641
G01 X14.5514 Y11.4647
G01 X14.5448 Y11.4650
G01 X14.1052 Y11.4650
G01 X14.0986 Y11.4647
G01 X14.0957 Y11.4641
G01 X14.0918 Y11.4623
G01 X14.0886 Y11.4594
G01 X14.0870 Y11.4570
G01 X14.0855 Y11.4529
G01 X14.0850 Y11.4448
G01 X14.0850 Y10.9552
G01 X14.0853 Y10.9486
G01 X14.0859 Y10.9457
G01 X14.0877 Y10.9418
G01 X14.0896 Y10.9396
G01 X14.0930 Y10.9370
G01 X14.0957 Y10.9359
G01 X14.0986 Y10.9353
G01 X14.1052 Y10.9350
G01 X14.5448 Y10.9350
G01 X14.5529 Y10.9355
G01 X14.5556 Y10.9364
G01 X14.5582 Y10.9377
G01 X14.5604 Y10.9396
G01 X14.5623 Y10.9418
G01 X14.5636 Y10.9444
G01 X14.5645 Y10.9471
G01 X14.5650 Y10.9552
G01 X14.2450 Y11.0950
G01 X14.4050 Y11.0950
G01 X14.4050 Y11.3050
G01 X14.2450 Y11.3050
G01 X14.2450 Y11.0950
G01 X14.1650 Y11.0150
G01 X14.4850 Y11.0150
G01 X14.4850 Y11.3850
G01 X14.1650 Y11.3850
G01 X14.1650 Y11.0150
G00 Z2.0000
G00 X13.1750 Y10.9512
G01 F60.00
G01 Z-0.1000
G01 F120.00
G01 X13.1750 Y11.4488
G01 X13.1741 Y11.4671
G01 X13.1716 Y11.4841
G01 X13.1674 Y11.5008
G01 X13.1616 Y11.5169
G01 X13.1543 Y11.5325
G01 X13.1455 Y11.5472
G01 X13.1352 Y11.5610
G01 X13.1237 Y11.5737
G01 X13.1110 Y11.5852
G01 X13.0972 Y11.5955
G01 X13.0825 Y11.6043
G01 X13.0669 Y11.6116
G01 X13.0508 Y11.6174
G01 X13.0341 Y11.6216
G01 X13.0171 Y11.6241
G01 X12.9988 Y11.6250
G01 X12.5512 Y11.6250
G01 X12.5329 Y11.6241
G01 X12.5159 Y11.6216
G01 X12.4992 Y11.6174
G01 X12.4831 Y11.6116
G01 X12.4675 Y11.6043
G01 X12.4528 Y11.5955
G01 X12.4390 Y11.5852
G01 X12.4263 Y11.5737
G01 X12.4148 Y11.5610
G01 X12.4045 Y11.5472
G01 X12.3957 Y11.5325
G01 X12.3884 Y11.5169
G01 X12.3826 Y11.5008
G01 X12.3784 Y11.4841
G01 X12.3759 Y11.4671
G01 X12.3750 Y11.4488
G01 X12.3750 Y10.9512
G01 X12.3759 Y10.9329
G01 X12.3784 Y10.9159
G01 X12.3826 Y10.8992
G01 X12.3884 Y10.8831
G01 X12.3957 Y10.8675
G01 X12.4045 Y10.8528
G01 X12.4148 Y10.8390
G01 X12.4263 Y10.8263
G01 X12.4390 Y10.8148
G01 X12.4528 Y10.8045
G01 X12.4675 Y10.7957
G01 X12.4831 Y10.7884
G01 X12.4992 Y10.7826
G01 X12.5159 Y10.7784
G01 X12.5329 Y10.7759
G01 X12.5512 Y10.7750
G01 X12.9988 Y10.7750
G01 X13.0171 Y10.7759
G01 X13.0341 Y10.7784
G01 X13.0508 Y10.7826
G01 X13.0669 Y10.7884
G01 X13.0825 Y10.7957
G01 X13.0972 Y10.8045
G01 X13.1110 Y10.8148
G01 X13.1237 Y10.8263
G01 X13.1352 Y10.8390
G01 X13.1455 Y10.8528
G01 X13.1543 Y10.8675
G01 X13.1616 Y10.8831
G01 X13.1674 Y10.8992
G01 X13.1716 Y10.9159
G01 X13.1741 Y10.9329
G01 X13.1750 Y10.9512
G01 X13.0950 Y10.9532
G01 X13.0950 Y11.4468
G01 X13.0944 Y11.4593
G01 X13.0930 Y11.4685
G01 X13.0908 Y11.4775
G01 X13.0876 Y11.4863
G01 X13.0836 Y11.4947
G01 X13.0789 Y11.5027
G01 X13.0733 Y11.5102
G01 X13.0671 Y11.5171
G01 X13.0602 Y11.5233
G01 X13.0527 Y11.5289
G01 X13.0447 Y11.5336
G01 X13.0363 Y11.5376
G01 X13.0275 Y11.5408
G01 X13.0185 Y11.5430
G01 X13.0093 Y11.5444
G01 X12.9968 Y11.5450
G01 X12.5532 Y11.5450
G01 X12.5407 Y11.5444
G01 X12.5315 Y11.5430
G01 X12.5225 Y11.5408
G01 X12.5137 Y11.5376
G01 X12.5053 Y11.5336
G01 X12.4973 Y11.5289
G01 X12.4898 Y11.5233
G01 X12.4829 Y11.5171
G01 X12.4767 Y11.5102
G01 X12.4711 Y11.5027
G01 X12.4664 Y11.4947
G01 X12.4624 Y11.4863
G01 X12.4592 Y11.4775
G01 X12.4570 Y11.4685
G01 X12.4556 Y11.4593
G01 X12.4550 Y11.4468
G01 X12.4550 Y10.9532
G01 X12.4556 Y10.9407
G01 X12.4570 Y10.9315
G01 X12.4592 Y10.9225
G01 X12.4624 Y10.9137
G01 X12.4664 Y10.9053
G01 X12.4711 Y10.8973
G01 X12.4767 Y10.8898
G01 X12.4829 Y10.8829
G01 X12.4898 Y10.8767
G01 X12.4973 Y10.8711
G01 X12.5053 Y10.8664
G01 X12.5137 Y10.8624
G01 X12.5225 Y10.8592
G01 X12.5315 Y10.8570
G01 X12.5407 Y10.8556
G01 X12.5532 Y10.8550
G01 X12.9968 Y10.8550
G01 X13.0093 Y10.8556
G01 X13.0185 Y10.8570
G01 X13.0275 Y10.8592
G01 X13.0363 Y10.8624
G01 X13.0447 Y10.8664
G01 X13.0527 Y10.8711
G01 X13.0602 Y10.8767
G01 X13.0671 Y10.8829
G01 X13.0733 Y10.8898
G01 X13.0789 Y10.8973
G01 X13.0836 Y10.9053
G01 X13.0876 Y10.9137
G01 X13.0908 Y10.9225
G01 X13.0930 Y10.9315
G01 X13.0944 Y10.9407
G01 X13.0950 Y10.9532
G01 X13.0150 Y10.9552
G01 X13.0150 Y11.4448
G01 X13.0145 Y11.4529
G01 X13.0130 Y11.4570
G01 X13.0114 Y11.4594
G01 X13.0094 Y11.4614
G01 X13.0070 Y11.4630
G01 X13.0043 Y11.4641
G01 X13.0014 Y11.4647
G01 X12.9948 Y11.4650
G01 X12.5552 Y11.4650
G01 X12.5486 Y11.4647
G01 X12.5457 Y11.4641
G01 X12.5418 Y11.4623
G01 X12.5386 Y11.4594
G01 X12.5370 Y11.4570
G01 X12.5355 Y11.4529
G01 X12.5350 Y11.4448
G01 X12.5350 Y10.9552
G01 X12.5353 Y10.9486
G01 X12.5359 Y10.9457
G01 X12.5377 Y10.9418
G01 X12.5396 Y10.9396
G01 X12.5430 Y10.9370
G01 X12.5457 Y10.9359
G01 X12.5486 Y10.9353
G01 X12.5552 Y10.9350
G01 X12.9948 Y10.9350
G01 X13.0029 Y10.9355
G01 X13.0056 Y10.9364
G01 X13.0082 Y10.9377
G01 X13.0104 Y10.9396
G01 X13.0123 Y10.9418
G01 X13.0136 Y10.9444
G01 X13.0145 Y10.9471
G01 X13.0150 Y10.9552
G01 X12.6950 Y11.0950
G01 X12.8550 Y11.0950
G01 X12.8550 Y11.3050
G01 X12.6950 Y11.3050
G01 X12.6950 Y11.0950
G01 X12.6150 Y11.0150
G01 X12.9350 Y11.0150
G01 X12.9350 Y11.3850
G01 X12.6150 Y11.3850
G01 X12.6150 Y11.0150
G00 Z2.0000
G00 X13.1750 Y9.3512
G01 F60.00
G01 Z-0.1000
G01 F120.00
G01 X13.1750 Y9.8488
G01 X13.1741 Y9.8671
G01 X13.1716 Y9.8841
G01 X13.1674 Y9.9008
G01 X13.1616 Y9.9169
G01 X13.1543 Y9.9325
G01 X13.1455 Y9.9472
G01 X13.1352 Y9.9610
G01 X13.1237 Y9.9737
G01 X13.1110 Y9.9852
G01 X13.0972 Y9.9955
G01 X13.0825 Y10.0043
G01 X13.0669 Y10.0116
G01 X13.0508 Y10.0174
G01 X13.0341 Y10.0216
G01 X13.0171 Y10.0241
G01 X12.9988 Y10.0250
G01 X12.5512 Y10.0250
G01 X12.5329 Y10.0241
G01 X12.5159 Y10.0216
G01 X12.4992 Y10.0174
G01 X12.4831 Y10.0116
G01 X12.4675 Y10.0043
G01 X12.4528 Y9.9955
G01 X12.4390 Y9.9852
G01 X12.4263 Y9.9737
G01 X12.4148 Y9.9610
G01 X12.4045 Y9.9472
G01 X12.3957 Y9.9325
G01 X12.3884 Y9.9169
G01 X12.3826 Y9.9008
G01 X12.3784 Y9.8841
G01 X12.3759 Y9.8671
G01 X12.3750 Y9.8488
G01 X12.3750 Y9.3512
G01 X12.3759 Y9.3329
G01 X12.3784 Y9.3159
G01 X12.3826 Y9.2992
G01 X12.3884 Y9.2831
G01 X12.3957 Y9.2675
G01 X12.4045 Y9.2528
G01 X12.4148 Y9.2390
G01 X12.4263 Y9.2263
G01 X12.4390 Y9.2148
G01 X12.4528 Y9.2045
G01 X12.4675 Y9.1957
G01 X12.4831 Y9.1884
G01 X12.4992 Y9.1826
G01 X12.5159 Y9.1784
G01 X12.5329 Y9.1759
G01 X12.5512 Y9.1750
G01 X12.9988 Y9.1750
G01 X13.0171 Y9.1759
G01 X13.0341 Y9.1784
G01 X13.0508 Y9.1826
G01 X13.0669 Y9.1884
G01 X13.0825 Y9.1957
G01 X13.0972 Y9.2045
G01 X13.1110 Y9.2148
G01 X13.1237 Y9.2263
G01 X13.1352 Y9.2390
G01 X13.1455 Y9.2528
G01 X13.1543 Y9.2675
G01 X13.1616 Y9.2831
G01 X13.1674 Y9.2992
G01 X13.1716 Y9.3159
G01 X13.1741 Y9.3329
G01 X13.1750 Y9.3512
G01 X13.0950 Y9.3532
G01 X13.0950 Y9.8468
G01 X13.0944 Y9.8593
G01 X13.0930 Y9.8685
G01 X13.0908 Y9.8775
G01 X13.0876 Y9.8863
G01 X13.0836 Y9.8947
G01 X13.0789 Y9.9027
G01 X13.0733 Y9.9102
G01 X13.0671 Y9.9171
G01 X13.0602 Y9.9233
G01 X13.0527 Y9.9289
G01 X13.0447 Y9.9336
G01 X13.0363 Y9.9376
G01 X13.0275 Y9.9408
G01 X13.0185 Y9.9430
G01 X13.0093 Y9.9444
G01 X12.9968 Y9.9450
G01 X12.5532 Y9.9450
G01 X12.5407 Y9.9444
G01 X12.5315 Y9.9430
G01 X12.5225 Y9.9408
G01 X12.5137 Y9.9376
G01 X12.5053 Y9.9336
G01 X12.4973 Y9.9289
G01 X12.4898 Y9.9233
G01 X12.4829 Y9.9171
G01 X12.4767 Y9.9102
G01 X12.4711 Y9.9027
G01 X12.4664 Y9.8947
G01 X12.4624 Y9.8863
G01 X12.4592 Y9.8775
G01 X12.4570 Y9.8685
G01 X12.4556 Y9.8593
G01 X12.4550 Y9.8468
G01 X12.4550 Y9.3532
G01 X12.4556 Y9.3407
G01 X12.4570 Y9.3315
G01 X12.4592 Y9.3225
G01 X12.4624 Y9.3137
G01 X12.4664 Y9.3053
G01 X12.4711 Y9.2973
G01 X12.4767 Y9.2898
G01 X12.4829 Y9.2829
G01 X12.4898 Y9.2767
G01 X12.4973 Y9.2711
G01 X12.5053 Y9.2664
G01 X12.5137 Y9.2624
G01 X12.5225 Y9.2592
G01 X12.5315 Y9.2570
G01 X12.5407 Y9.2556
G01 X12.5532 Y9.2550
G01 X12.9968 Y9.2550
G01 X13.0093 Y9.2556
G01 X13.0185 Y9.2570
G01 X13.0275 Y9.2592
G01 X13.0363 Y9.2624
G01 X13.0447 Y9.2664
G01 X13.0527 Y9.2711
G01 X13.0602 Y9.2767
G01 X13.0671 Y9.2829
G01 X13.0733 Y9.2898
G01 X13.0789 Y9.2973
G01 X13.0836 Y9.3053
G01 X13.0876 Y9.3137
G01 X13.0908 Y9.3225
G01 X13.0930 Y9.3315
G01 X13.0944 Y9.3407
G01 X13.0950 Y9.3532
G01 X13.0150 Y9.3552
G01 X13.0150 Y9.8448
G01 X13.0145 Y9.8529
G01 X13.0130 Y9.8570
G01 X13.0114 Y9.8594
G01 X13.0094 Y9.8614
G01 X13.0070 Y9.8630
G01 X13.0043 Y9.8641
G01 X13.0014 Y9.8647
G01 X12.9948 Y9.8650
G01 X12.5552 Y9.8650
G01 X12.5486 Y9.8647
G01 X12.5457 Y9.8641
G01 X12.5418 Y9.8623
G01 X12.5386 Y9.8594
G01 X12.5370 Y9.8570
G01 X12.5355 Y9.8529
G01 X12.5350 Y9.8448
G01 X12.5350 Y9.3552
G01 X12.5353 Y9.3486
G01 X12.5359 Y9.3457
G01 X12.5377 Y9.3418
G01 X12.5396 Y9.3396
G01 X12.5430 Y9.3370
G01 X12.5457 Y9.3359
G01 X12.5486 Y9.3353
G01 X12.5552 Y9.3350
G01 X12.9948 Y9.3350
G01 X13.0029 Y9.3355
G01 X13.0056 Y9.3364
G01 X13.0082 Y9.3377
G01 X13.0104 Y9.3396
G01 X13.0123 Y9.3418
G01 X13.0136 Y9.3444
G01 X13.0145 Y9.3471
G01 X13.0150 Y9.3552
G01 X12.6950 Y9.4950
G01 X12.8550 Y9.4950
G01 X12.8550 Y9.7050
G01 X12.6950 Y9.7050
G01 X12.6950 Y9.4950
G01 X12.6150 Y9.4150
G01 X12.9350 Y9.4150
G01 X12.9350 Y9.7850
G01 X12.6150 Y9.7850
G01 X12.6150 Y9.4150
G00 Z2.0000
G00 X14.1650 Y9.4150
G01 F60.00
G01 Z-0.1000
G01 F120.00
G01 X14.1650 Y9.7850
G01 X14.4850 Y9.7850
G01 X14.4850 Y9.4150
G01 X14.1650 Y9.4150
G01 X14.2450 Y9.4950
G01 X14.2450 Y9.7050
G01 X14.4050 Y9.7050
G01 X14.4050 Y9.4950
G01 X14.2450 Y9.4950
G01 X14.5650 Y9.3552
G01 X14.5645 Y9.3471
G01 X14.5636 Y9.3444
G01 X14.5623 Y9.3418
G01 X14.5604 Y9.3396
G01 X14.5582 Y9.3377
G01 X14.5556 Y9.3364
G01 X14.5529 Y9.3355
G01 X14.5448 Y9.3350
G01 X14.1052 Y9.3350
G01 X14.0986 Y9.3353
G01 X14.0957 Y9.3359
G01 X14.0930 Y9.3370
G01 X14.0896 Y9.3396
G01 X14.0877 Y9.3418
G01 X14.0859 Y9.3457
G01 X14.0853 Y9.3486
G01 X14.0850 Y9.3552
G01 X14.0850 Y9.8448
G01 X14.0855 Y9.8529
G01 X14.0870 Y9.8570
G01 X14.0886 Y9.8594
G01 X14.0918 Y9.8623
G01 X14.0957 Y9.8641
G01 X14.0986 Y9.8647
G01 X14.1052 Y9.8650
G01 X14.5448 Y9.8650
G01 X14.5514 Y9.8647
G01 X14.5543 Y9.8641
G01 X14.5570 Y9.8630
G01 X14.5594 Y9.8614
G01 X14.5614 Y9.8594
G01 X14.5630 Y9.8570
G01 X14.5645 Y9.8529
G01 X14.5650 Y9.8448
G01 X14.5650 Y9.3552
G01 X14.6450 Y9.3532
G01 X14.6444 Y9.3407
G01 X14.6430 Y9.3315
G01 X14.6408 Y9.3225
G01 X14.6376 Y9.3137
G01 X14.6336 Y9.3053
G01 X14.6289 Y9.2973
G01 X14.6233 Y9.2898
G01 X14.6171 Y9.2829
G01 X14.6102 Y9.2767
G01 X14.6027 Y9.2711
G01 X14.5947 Y9.2664
G01 X14.5863 Y9.2624
G01 X14.5775 Y9.2592
G01 X14.5685 Y9.2570
G01 X14.5593 Y9.2556
G01 X14.5468 Y9.2550
G01 X14.1032 Y9.2550
G01 X14.0907 Y9.2556
G01 X14.0815 Y9.2570
G01 X14.0725 Y9.2592
G01 X14.0637 Y9.2624
G01 X14.0553 Y9.2664
G01 X14.0473 Y9.2711
G01 X14.0398 Y9.2767
G01 X14.0329 Y9.2829
G01 X14.0267 Y9.2898
G01 X14.0211 Y9.2973
G01 X14.0164 Y9.3053
G01 X14.0124 Y9.3137
G01 X14.0092 Y9.3225
G01 X14.0070 Y9.3315
G01 X14.0056 Y9.3407
G01 X14.0050 Y9.3532
G01 X14.0050 Y9.8468
G01 X14.0056 Y9.8593
G01 X14.0070 Y9.8685
G01 X14.0092 Y9.8775
G01 X14.0124 Y9.8863
G01 X14.0164 Y9.8947
G01 X14.0211 Y9.9027
G01 X14.0267 Y9.9102
G01 X14.0329 Y9.9171
G01 X14.0398 Y9.9233
G01 X14.0473 Y9.9289
G01 X14.0553 Y9.9336
G01 X14.0637 Y9.9376
G01 X14.0725 Y9.9408
G01 X14.0815 Y9.9430
G01 X14.0907 Y9.9444
G01 X14.1032 Y9.9450
G01 X14.5468 Y9.9450
G01 X14.5593 Y9.9444
G01 X14.5685 Y9.9430
G01 X14.5775 Y9.9408
G01 X14.5863 Y9.9376
G01 X14.5947 Y9.9336
G01 X14.6027 Y9.9289
G01 X14.6102 Y9.9233
G01 X14.6171 Y9.9171
G01 X14.6233 Y9.9102
G01 X14.6289 Y9.9027
G01 X14.6336 Y9.8947
G01 X14.6376 Y9.8863
G01 X14.6408 Y9.8775
G01 X14.6430 Y9.8685
G01 X14.6444 Y9.8593
G01 X14.6450 Y9.8468
G01 X14.6450 Y9.3532
G01 X14.7250 Y9.3512
G01 X14.7241 Y9.3329
G01 X14.7216 Y9.3159
G01 X14.7174 Y9.2992
G01 X14.7116 Y9.2831
G01 X14.7043 Y9.2675
G01 X14.6955 Y9.2528
G01 X14.6852 Y9.2390
G01 X14.6737 Y9.2263
G01 X14.6610 Y9.2148
G01 X14.6472 Y9.2045
G01 X14.6325 Y9.1957
G01 X14.6169 Y9.1884
G01 X14.6008 Y9.1826
G01 X14.5841 Y9.1784
G01 X14.5671 Y9.1759
G01 X14.5488 Y9.1750
G01 X14.1012 Y9.1750
G01 X14.0829 Y9.1759
G01 X14.0659 Y9.1784
G01 X14.0492 Y9.1826
G01 X14.0331 Y9.1884
G01 X14.0175 Y9.1957
G01 X14.0028 Y9.2045
G01 X13.9890 Y9.2148
G01 X13.9763 Y9.2263
G01 X13.9648 Y9.2390
G01 X13.9545 Y9.2528
G01 X13.9457 Y9.2675
G01 X13.9384 Y9.2831
G01 X13.9326 Y9.2992
G01 X13.9284 Y9.3159
G01 X13.9259 Y9.3329
G01 X13.9250 Y9.3512
G01 X13.9250 Y9.8488
G01 X13.9259 Y9.8671
G01 X13.9284 Y9.8841
G01 X13.9326 Y9.9008
G01 X13.9384 Y9.9169
G01 X13.9457 Y9.9325
G01 X13.9545 Y9.9472
G01 X13.9648 Y9.9610
G01 X13.9763 Y9.9737
G01 X13.9890 Y9.9852
G01 X14.0028 Y9.9955
G01 X14.0175 Y10.0043
G01 X14.0331 Y10.0116
G01 X14.0492 Y10.0174
G01 X14.0659 Y10.0216
G01 X14.0829 Y10.0241
G01 X14.1012 Y10.0250
G01 X14.5488 Y10.0250
G01 X14.5671 Y10.0241
G01 X14.5841 Y10.0216
G01 X14.6008 Y10.0174
G01 X14.6169 Y10.0116
G01 X14.6325 Y10.0043
G01 X14.6472 Y9.9955
G01 X14.6610 Y9.9852
G01 X14.6737 Y9.9737
G01 X14.6852 Y9.9610
G01 X14.6955 Y9.9472
G01 X14.7043 Y9.9325
G01 X14.7116 Y9.9169
G01 X14.7174 Y9.9008
G01 X14.7216 Y9.8841
G01 X14.7241 Y9.8671
G01 X14.7250 Y9.8488
G01 X14.7250 Y9.3512
G00 Z2.0000
G00 X14.7250 Y7.3012
G01 F60.00
G01 Z-0.1000
G01 F120.00
G01 X14.7250 Y7.7988
G01 X14.7241 Y7.8171
G01 X14.7216 Y7.8341
G01 X14.7174 Y7.8508
G01 X14.7116 Y7.8669
G01 X14.7043 Y7.8825
G01 X14.6955 Y7.8972
G01 X14.6852 Y7.9110
G01 X14.6737 Y7.9237
G01 X14.6610 Y7.9352
G01 X14.6472 Y7.9455
G01 X14.6325 Y7.9543
G01 X14.6169 Y7.9616
G01 X14.6008 Y7.9674
G01 X14.5841 Y7.9716
G01 X14.5671 Y7.9741
G01 X14.5488 Y7.9750
G01 X14.1012 Y7.9750
G01 X14.0829 Y7.9741
G01 X14.0659 Y7.9716
G01 X14.0492 Y7.9674
G01 X14.0331 Y7.9616
G01 X14.0175 Y7.9543
G01 X14.0028 Y7.9455
G01 X13.9890 Y7.9352
G01 X13.9763 Y7.9237
G01 X13.9648 Y7.9110
G01 X13.9545 Y7.8972
G01 X13.9457 Y7.8825
G01 X13.9384 Y7.8669
G01 X13.9326 Y7.8508
G01 X13.9284 Y7.8341
G01 X13.9259 Y7.8171
G01 X13.9250 Y7.7988
G01 X13.9250 Y7.3012
G01 X13.9259 Y7.2829
G01 X13.9284 Y7.2659
G01 X13.9326 Y7.2492
G01 X13.9384 Y7.2331
G01 X13.9457 Y7.2175
G01 X13.9545 Y7.2028
G01 X13.9648 Y7.1890
G01 X13.9763 Y7.1763
G01 X13.9890 Y7.1648
G01 X14.0028 Y7.1545
G01 X14.0175 Y7.1457
G01 X14.0331 Y7.1384
G01 X14.0492 Y7.1326
G01 X14.0659 Y7.1284
G01 X14.0829 Y7.1259
G01 X14.1012 Y7.1250
G01 X14.5488 Y7.1250
G01 X14.5671 Y7.1259
G01 X14.5841 Y7.1284
G01 X14.6008 Y7.1326
G01 X14.6169 Y7.1384
G01 X14.6325 Y7.1457
G01 X14.6472 Y7.1545
G01 X14.6610 Y7.1648
G01 X14.6737 Y7.1763
G01 X14.6852 Y7.1890
G01 X14.6955 Y7.2028
G01 X14.7043 Y7.2175
G01 X14.7116 Y7.2331
G01 X14.7174 Y7.2492
G01 X14.7216 Y7.2659
G01 X14.7241 Y7.2829
G01 X14.7250 Y7.3012
G01 X14.6450 Y7.3032
G01 X14.6450 Y7.7968
G01 X14.6444 Y7.8093
G01 X14.6430 Y7.8185
G01 X14.6408 Y7.8275
G01 X14.6376 Y7.8363
G01 X14.6336 Y7.8447
G01 X14.6289 Y7.8527
G01 X14.6233 Y7.8602
G01 X14.6171 Y7.8671
G01 X14.6102 Y7.8733
G01 X14.6027 Y7.8789
G01 X14.5947 Y7.8836
G01 X14.5863 Y7.8876
G01 X14.5775 Y7.8908
G01 X14.5685 Y7.8930
G01 X14.5593 Y7.8944
G01 X14.5468 Y7.8950
G01 X14.1032 Y7.8950
G01 X14.0907 Y7.8944
G01 X14.0815 Y7.8930
G01 X14.0725 Y7.8908
G01 X14.0637 Y7.8876
G01 X14.0553 Y7.8836
G01 X14.0473 Y7.8789
G01 X14.0398 Y7.8733
G01 X14.0329 Y7.8671
G01 X14.0267 Y7.8602
G01 X14.0211 Y7.8527
G01 X14.0164 Y7.8447
G01 X14.0124 Y7.8363
G01 X14.0092 Y7.8275
G01 X14.0070 Y7.8185
G01 X14.0056 Y7.8093
G01 X14.0050 Y7.7968
G01 X14.0050 Y7.3032
G01 X14.0056 Y7.2907
G01 X14.0070 Y7.2815
G01 X14.0092 Y7.2725
G01 X14.0124 Y7.2637
G01 X14.0164 Y7.2553
G01 X14.0211 Y7.2473
G01 X14.0267 Y7.2398
G01 X14.0329 Y7.2329
G01 X14.0398 Y7.2267
G01 X14.0473 Y7.2211
G01 X14.0553 Y7.2164
G01 X14.0637 Y7.2124
G01 X14.0725 Y7.2092
G01 X14.0815 Y7.2070
G01 X14.0907 Y7.2056
G01 X14.1032 Y7.2050
G01 X14.5468 Y7.2050
G01 X14.5593 Y7.2056
G01 X14.5685 Y7.2070
G01 X14.5775 Y7.2092
G01 X14.5863 Y7.2124
G01 X14.5947 Y7.2164
G01 X14.6027 Y7.2211
G01 X14.6102 Y7.2267
G01 X14.6171 Y7.2329
G01 X14.6233 Y7.2398
G01 X14.6289 Y7.2473
G01 X14.6336 Y7.2553
G01 X14.6376 Y7.2637
G01 X14.6408 Y7.2725
G01 X14.6430 Y7.2815
G01 X14.6444 Y7.2907
G01 X14.6450 Y7.3032
G01 X14.5650 Y7.3052
G01 X14.5650 Y7.7948
G01 X14.5645 Y7.8029
G01 X14.5630 Y7.8070
G01 X14.5614 Y7.8094
G01 X14.5594 Y7.8114
G01 X14.5570 Y7.8130
G01 X14.5543 Y7.8141
G01 X14.5514 Y7.8147
G01 X14.5448 Y7.8150
G01 X14.1052 Y7.8150
G01 X14.0986 Y7.8147
G01 X14.0957 Y7.8141
G01 X14.0918 Y7.8123
G01 X14.0886 Y7.8094
G01 X14.0870 Y7.8070
G01 X14.0855 Y7.8029
G01 X14.0850 Y7.7948
G01 X14.0850 Y7.3052
G01 X14.0853 Y7.2986
G01 X14.0859 Y7.2957
G01 X14.0877 Y7.2918
G01 X14.0896 Y7.2896
G01 X14.0930 Y7.2870
G01 X14.0957 Y7.2859
G01 X14.0986 Y7.2853
G01 X14.1052 Y7.2850
G01 X14.5448 Y7.2850
G01 X14.5529 Y7.2855
G01 X14.5556 Y7.2864
G01 X14.5582 Y7.2877
G01 X14.5604 Y7.2896
G01 X14.5623 Y7.2918
G01 X14.5636 Y7.2944
G01 X14.5645 Y7.2971
G01 X14.5650 Y7.3052
G01 X14.2450 Y7.4450
G01 X14.4050 Y7.4450
G01 X14.4050 Y7.6550
G01 X14.2450 Y7.6550
G01 X14.2450 Y7.4450
G01 X14.1650 Y7.3650
G01 X14.4850 Y7.3650
G01 X14.4850 Y7.7350
G01 X14.1650 Y7.7350
G01 X14.1650 Y7.3650
G00 Z2.0000
G00 X13.1750 Y7.3012
G01 F60.00
G01 Z-0.1000
G01 F120.00
G01 X13.1750 Y7.7988
G01 X13.1741 Y7.8171
G01 X13.1716 Y7.8341
G01 X13.1674 Y7.8508
G01 X13.1616 Y7.8669
G01 X13.1543 Y7.8825
G01 X13.1455 Y7.8972
G01 X13.1352 Y7.9110
G01 X13.1237 Y7.9237
G01 X13.1110 Y7.9352
G01 X13.0972 Y7.9455
G01 X13.0825 Y7.9543
G01 X13.0669 Y7.9616
G01 X13.0508 Y7.9674
G01 X13.0341 Y7.9716
G01 X13.0171 Y7.9741
G01 X12.9988 Y7.9750
G01 X12.5512 Y7.9750
G01 X12.5329 Y7.9741
G01 X12.5159 Y7.9716
G01 X12.4992 Y7.9674
G01 X12.4831 Y7.9616
G01 X12.4675 Y7.9543
G01 X12.4528 Y7.9455
G01 X12.4390 Y7.9352
G01 X12.4263 Y7.9237
G01 X12.4148 Y7.9110
G01 X12.4045 Y7.8972
G01 X12.3957 Y7.8825
G01 X12.3884 Y7.8669
G01 X12.3826 Y7.8508
G01 X12.3784 Y7.8341
G01 X12.3759 Y7.8171
G01 X12.3750 Y7.7988
G01 X12.3750 Y7.3012
G01 X12.3759 Y7.2829
G01 X12.3784 Y7.2659
G01 X12.3826 Y7.2492
G01 X12.3884 Y7.2331
G01 X12.3957 Y7.2175
G01 X12.4045 Y7.2028
G01 X12.4148 Y7.1890
G01 X12.4263 Y7.1763
G01 X12.4390 Y7.1648
G01 X12.4528 Y7.1545
G01 X12.4675 Y7.1457
G01 X12.4831 Y7.1384
G01 X12.4992 Y7.1326
G01 X12.5159 Y7.1284
G01 X12.5329 Y7.1259
G01 X12.5512 Y7.1250
G01 X12.9988 Y7.1250
G01 X13.0171 Y7.1259
G01 X13.0341 Y7.1284
G01 X13.0508 Y7.1326
G01 X13.0669 Y7.1384
G01 X13.0825 Y7.1457
G01 X13.0972 Y7.1545
G01 X13.1110 Y7.1648
G01 X13.1237 Y7.1763
G01 X13.1352 Y7.1890
G01 X13.1455 Y7.2028
G01 X13.1543 Y7.2175
G01 X13.1616 Y7.2331
G01 X13.1674 Y7.2492
G01 X13.1716 Y7.2659
G01 X13.1741 Y7.2829
G01 X13.1750 Y7.3012
G01 X13.0950 Y7.3032
G01 X13.0950 Y7.7968
G01 X13.0944 Y7.8093
G01 X13.0930 Y7.8185
G01 X13.0908 Y7.8275
G01 X13.0876 Y7.8363
G01 X13.0836 Y7.8447
G01 X13.0789 Y7.8527
G01 X13.0733 Y7.8602
G01 X13.0671 Y7.8671
G01 X13.0602 Y7.8733
G01 X13.0527 Y7.8789
G01 X13.0447 Y7.8836
G01 X13.0363 Y7.8876
G01 X13.0275 Y7.8908
G01 X13.0185 Y7.8930
G01 X13.0093 Y7.8944
G01 X12.9968 Y7.8950
G01 X12.5532 Y7.8950
G01 X12.5407 Y7.8944
G01 X12.5315 Y7.8930
G01 X12.5225 Y7.8908
G01 X12.5137 Y7.8876
G01 X12.5053 Y7.8836
G01 X12.4973 Y7.8789
G01 X12.4898 Y7.8733
G01 X12.4829 Y7.8671
G01 X12.4767 Y7.8602
G01 X12.4711 Y7.8527
G01 X12.4664 Y7.8447
G01 X12.4624 Y7.8363
G01 X12.4592 Y7.8275
G01 X12.4570 Y7.8185
G01 X12.4556 Y7.8093
G01 X12.4550 Y7.7968
G01 X12.4550 Y7.3032
G01 X12.4556 Y7.2907
G01 X12.4570 Y7.2815
G01 X12.4592 Y7.2725
G01 X12.4624 Y7.2637
G01 X12.4664 Y7.2553
G01 X12.4711 Y7.2473
G01 X12.4767 Y7.2398
G01 X12.4829 Y7.2329
G01 X12.4898 Y7.2267
G01 X12.4973 Y7.2211
G01 X12.5053 Y7.2164
G01 X12.5137 Y7.2124
G01 X12.5225 Y7.2092
G01 X12.5315 Y7.2070
G01 X12.5407 Y7.2056
G01 X12.5532 Y7.2050
G01 X12.9968 Y7.2050
G01 X13.0093 Y7.2056
G01 X13.0185 Y7.2070
G01 X13.0275 Y7.2092
G01 X13.0363 Y7.2124
G01 X13.0447 Y7.2164
G01 X13.0527 Y7.2211
G01 X13.0602 Y7.2267
G01 X13.0671 Y7.2329
G01 X13.0733 Y7.2398
G01 X13.0789 Y7.2473
G01 X13.0836 Y7.2553
G01 X13.0876 Y7.2637
G01 X13.0908 Y7.2725
G01 X13.0930 Y7.2815
G01 X13.0944 Y7.2907
G01 X13.0950 Y7.3032
G01 X13.0150 Y7.3052
G01 X13.0150 Y7.7948
G01 X13.0145 Y7.8029
G01 X13.0130 Y7.8070
G01 X13.0114 Y7.8094
G01 X13.0094 Y7.8114
G01 X13.0070 Y7.8130
G01 X13.0043 Y7.8141
G01 X13.0014 Y7.8147
G01 X12.9948 Y7.8150
G01 X12.5552 Y7.8150
G01 X12.5486 Y7.8147
G01 X12.5457 Y7.8141
G01 X12.5418 Y7.8123
G01 X12.5386 Y7.8094
G01 X12.5370 Y7.8070
G01 X12.5355 Y7.8029
G01 X12.5350 Y7.7948
G01 X12.5350 Y7.3052
G01 X12.5353 Y7.2986
G01 X12.5359 Y7.2957
G01 X12.5377 Y7.2918
G01 X12.5396 Y7.2896
G01 X12.5430 Y7.2870
G01 X12.5457 Y7.2859
G01 X12.5486 Y7.2853
G01 X12.5552 Y7.2850
G01 X12.9948 Y7.2850
G01 X13.0029 Y7.2855
G01 X13.0056 Y7.2864
G01 X13.0082 Y7.2877
G01 X13.0104 Y7.2896
G01 X13.0123 Y7.2918
G01 X13.0136 Y7.2944
G01 X13.0145 Y7.2971
G01 X13.0150 Y7.3052
G01 X12.6950 Y7.4450
G01 X12.8550 Y7.4450
G01 X12.8550 Y7.6550
G01 X12.6950 Y7.6550
G01 X12.6950 Y7.4450
G01 X12.6150 Y7.3650
G01 X12.9350 Y7.3650
G01 X12.9350 Y7.7350
G01 X12.6150 Y7.7350
G01 X12.6150 Y7.3650
G00 Z2.0000
G00 X13.1850 Y5.6912
G01 F60.00
G01 Z-0.1000
G01 F120.00
G01 X13.1850 Y6.1888
G01 X13.1841 Y6.2071
G01 X13.1816 Y6.2241
G01 X13.1774 Y6.2408
G01 X13.1716 Y6.2569
G01 X13.1643 Y6.2725
G01 X13.1555 Y6.2872
G01 X13.1452 Y6.3010
G01 X13.1337 Y6.3137
G01 X13.1210 Y6.3252
G01 X13.1072 Y6.3355
G01 X13.0925 Y6.3443
G01 X13.0769 Y6.3516
G01 X13.0608 Y6.3574
G01 X13.0441 Y6.3616
G01 X13.0271 Y6.3641
G01 X13.0088 Y6.3650
G01 X12.5612 Y6.3650
G01 X12.5429 Y6.3641
G01 X12.5259 Y6.3616
G01 X12.5092 Y6.3574
G01 X12.4931 Y6.3516
G01 X12.4775 Y6.3443
G01 X12.4628 Y6.3355
G01 X12.4490 Y6.3252
G01 X12.4363 Y6.3137
G01 X12.4248 Y6.3010
G01 X12.4145 Y6.2872
G01 X12.4057 Y6.2725
G01 X12.3984 Y6.2569
G01 X12.3926 Y6.2408
G01 X12.3884 Y6.2241
G01 X12.3859 Y6.2071
G01 X12.3850 Y6.1888
G01 X12.3850 Y5.6912
G01 X12.3859 Y5.6729
G01 X12.3884 Y5.6559
G01 X12.3926 Y5.6392
G01 X12.3984 Y5.6231
G01 X12.4057 Y5.6075
G01 X12.4145 Y5.5928
G01 X12.4248 Y5.5790
G01 X12.4363 Y5.5663
G01 X12.4490 Y5.5548
G01 X12.4628 Y5.5445
G01 X12.4775 Y5.5357
G01 X12.4931 Y5.5284
G01 X12.5092 Y5.5226
G01 X12.5259 Y5.5184
G01 X12.5429 Y5.5159
G01 X12.5612 Y5.5150
G01 X13.0088 Y5.5150
G01 X13.0271 Y5.5159
G01 X13.0441 Y5.5184
G01 X13.0608 Y5.5226
G01 X13.0769 Y5.5284
G01 X13.0925 Y5.5357
G01 X13.1072 Y5.5445
G01 X13.1210 Y5.5548
G01 X13.1337 Y5.5663
G01 X13.1452 Y5.5790
G01 X13.1555 Y5.5928
G01 X13.1643 Y5.6075
G01 X13.1716 Y5.6231
G01 X13.1774 Y5.6392
G01 X13.1816 Y5.6559
G01 X13.1841 Y5.6729
G01 X13.1850 Y5.6912
G01 X13.1050 Y5.6932
G01 X13.1050 Y6.1868
G01 X13.1044 Y6.1993
G01 X13.1030 Y6.2085
G01 X13.1008 Y6.2175
G01 X13.0976 Y6.2263
G01 X13.0936 Y6.2347
G01 X13.0889 Y6.2427
G01 X13.0833 Y6.2502
G01 X13.0771 Y6.2571
G01 X13.0702 Y6.2633
G01 X13.0627 Y6.2689
G01 X13.0547 Y6.2736
G01 X13.0463 Y6.2776
G01 X13.0375 Y6.2808
G01 X13.0285 Y6.2830
G01 X13.0193 Y6.2844
G01 X13.0068 Y6.2850
G01 X12.5632 Y6.2850
G01 X12.5507 Y6.2844
G01 X12.5415 Y6.2830
G01 X12.5325 Y6.2808
G01 X12.5237 Y6.2776
G01 X12.5153 Y6.2736
G01 X12.5073 Y6.2689
G01 X12.4998 Y6.2633
G01 X12.4929 Y6.2571
G01 X12.4867 Y6.2502
G01 X12.4811 Y6.2427
G01 X12.4764 Y6.2347
G01 X12.4724 Y6.2263
G01 X12.4692 Y6.2175
G01 X12.4670 Y6.2085
G01 X12.4656 Y6.1993
G01 X12.4650 Y6.1868
G01 X12.4650 Y5.6932
G01 X12.4656 Y5.6807
G01 X12.4670 Y5.6715
G01 X12.4692 Y5.6625
G01 X12.4724 Y5.6537
G01 X12.4764 Y5.6453
G01 X12.4811 Y5.6373
G01 X12.4867 Y5.6298
G01 X12.4929 Y5.6229
G01 X12.4998 Y5.6167
G01 X12.5073 Y5.6111
G01 X12.5153 Y5.6064
G01 X12.5237 Y5.6024
G01 X12.5325 Y5.5992
G01 X12.5415 Y5.5970
G01 X12.5507 Y5.5956
G01 X12.5632 Y5.5950
G01 X13.0068 Y5.5950
G01 X13.0193 Y5.5956
G01 X13.0285 Y5.5970
G01 X13.0375 Y5.5992
G01 X13.0463 Y5.6024
G01 X13.0547 Y5.6064
G01 X13.0627 Y5.6111
G01 X13.0702 Y5.6167
G01 X13.0771 Y5.6229
G01 X13.0833 Y5.6298
G01 X13.0889 Y5.6373
G01 X13.0936 Y5.6453
G01 X13.0976 Y5.6537
G01 X13.1008 Y5.6625
G01 X13.1030 Y5.6715
G01 X13.1044 Y5.6807
G01 X13.1050 Y5.6932
G01 X13.0250 Y5.6952
G01 X13.0250 Y6.1848
G01 X13.0245 Y6.1929
G01 X13.0230 Y6.1970
G01 X13.0214 Y6.1994
G01 X13.0194 Y6.2014
G01 X13.0170 Y6.2030
G01 X13.0143 Y6.2041
G01 X13.0114 Y6.2047
G01 X13.0048 Y6.2050
G01 X12.5652 Y6.2050
G01 X12.5586 Y6.2047
G01 X12.5557 Y6.2041
G01 X12.5518 Y6.2023
G01 X12.5486 Y6.1994
G01 X12.5470 Y6.1970
G01 X12.5455 Y6.1929
G01 X12.5450 Y6.1848
G01 X12.5450 Y5.6952
G01 X12.5453 Y5.6886
G01 X12.5459 Y5.6857
G01 X12.5477 Y5.6818
G01 X12.5496 Y5.6796
G01 X12.5530 Y5.6770
G01 X12.5557 Y5.6759
G01 X12.5586 Y5.6753
G01 X12.5652 Y5.6750
G01 X13.0048 Y5.6750
G01 X13.0129 Y5.6755
G01 X13.0156 Y5.6764
G01 X13.0182 Y5.6777
G01 X13.0204 Y5.6796
G01 X13.0223 Y5.6818
G01 X13.0236 Y5.6844
G01 X13.0245 Y5.6871
G01 X13.0250 Y5.6952
G01 X12.7050 Y5.8350
G01 X12.8650 Y5.8350
G01 X12.8650 Y6.0450
G01 X12.7050 Y6.0450
G01 X12.7050 Y5.8350
G01 X12.6250 Y5.7550
G01 X12.9450 Y5.7550
G01 X12.9450 Y6.1250
G01 X12.6250 Y6.1250
G01 X12.6250 Y5.7550
G00 Z2.0000
G00 X14.1750 Y5.7550
G01 F60.00
G01 Z-0.1000
G01 F120.00
G01 X14.1750 Y6.1250
G01 X14.4950 Y6.1250
G01 X14.4950 Y5.7550
G01 X14.1750 Y5.7550
G01 X14.2550 Y5.8350
G01 X14.2550 Y6.0450
G01 X14.4150 Y6.0450
G01 X14.4150 Y5.8350
G01 X14.2550 Y5.8350
G01 X14.5750 Y5.6952
G01 X14.5745 Y5.6871
G01 X14.5736 Y5.6844
G01 X14.5723 Y5.6818
G01 X14.5704 Y5.6796
G01 X14.5682 Y5.6777
G01 X14.5656 Y5.6764
G01 X14.5629 Y5.6755
G01 X14.5548 Y5.6750
G01 X14.1152 Y5.6750
G01 X14.1086 Y5.6753
G01 X14.1057 Y5.6759
G01 X14.1030 Y5.6770
G01 X14.0996 Y5.6796
G01 X14.0977 Y5.6818
G01 X14.0959 Y5.6857
G01 X14.0953 Y5.6886
G01 X14.0950 Y5.6952
G01 X14.0950 Y6.1848
G01 X14.0955 Y6.1929
G01 X14.0970 Y6.1970
G01 X14.0986 Y6.1994
G01 X14.1018 Y6.2023
G01 X14.1057 Y6.2041
G01 X14.1086 Y6.2047
G01 X14.1152 Y6.2050
G01 X14.5548 Y6.2050
G01 X14.5614 Y6.2047
G01 X14.5643 Y6.2041
G01 X14.5670 Y6.2030
G01 X14.5694 Y6.2014
G01 X14.5714 Y6.1994
G01 X14.5730 Y6.1970
G01 X14.5745 Y6.1929
G01 X14.5750 Y6.1848
G01 X14.5750 Y5.6952
G01 X14.6550 Y5.6932
G01 X14.6544 Y5.6807
G01 X14.6530 Y5.6715
G01 X14.6508 Y5.6625
G01 X14.6476 Y5.6537
G01 X14.6436 Y5.6453
G01 X14.6389 Y5.6373
G01 X14.6333 Y5.6298
G01 X14.6271 Y5.6229
G01 X14.6202 Y5.6167
G01 X14.6127 Y5.6111
G01 X14.6047 Y5.6064
G01 X14.5963 Y5.6024
G01 X14.5875 Y5.5992
G01 X14.5785 Y5.5970
G01 X14.5693 Y5.5956
G01 X14.5568 Y5.5950
G01 X14.1132 Y5.5950
G01 X14.1007 Y5.5956
G01 X14.0915 Y5.5970
G01 X14.0825 Y5.5992
G01 X14.0737 Y5.6024
G01 X14.0653 Y5.6064
G01 X14.0573 Y5.6111
G01 X14.0498 Y5.6167
G01 X14.0429 Y5.6229
G01 X14.0367 Y5.6298
G01 X14.0311 Y5.6373
G01 X14.0264 Y5.6453
G01 X14.0224 Y5.6537
G01 X14.0192 Y5.6625
G01 X14.0170 Y5.6715
G01 X14.0156 Y5.6807
G01 X14.0150 Y5.6932
G01 X14.0150 Y6.1868
G01 X14.0156 Y6.1993
G01 X14.0170 Y6.2085
G01 X14.0192 Y6.2175
G01 X14.0224 Y6.2263
G01 X14.0264 Y6.2347
G01 X14.0311 Y6.2427
G01 X14.0367 Y6.2502
G01 X14.0429 Y6.2571
G01 X14.0498 Y6.2633
G01 X14.0573 Y6.2689
G01 X14.0653 Y6.2736
G01 X14.0737 Y6.2776
G01 X14.0825 Y6.2808
G01 X14.0915 Y6.2830
G01 X14.1007 Y6.2844
G01 X14.1132 Y6.2850
G01 X14.5568 Y6.2850
G01 X14.5693 Y6.2844
G01 X14.5785 Y6.2830
G01 X14.5875 Y6.2808
G01 X14.5963 Y6.2776
G01 X14.6047 Y6.2736
G01 X14.6127 Y6.2689
G01 X14.6202 Y6.2633
G01 X14.6271 Y6.2571
G01 X14.6333 Y6.2502
G01 X14.6389 Y6.2427
G01 X14.6436 Y6.2347
G01 X14.6476 Y6.2263
G01 X14.6508 Y6.2175
G01 X14.6530 Y6.2085
G01 X14.6544 Y6.1993
G01 X14.6550 Y6.1868
G01 X14.6550 Y5.6932
G01 X14.7350 Y5.6912
G01 X14.7341 Y5.6729
G01 X14.7316 Y5.6559
G01 X14.7274 Y5.6392
G01 X14.7216 Y5.6231
G01 X14.7143 Y5.6075
G01 X14.7055 Y5.5928
G01 X14.6952 Y5.5790
G01 X14.6837 Y5.5663
G01 X14.6710 Y5.5548
G01 X14.6572 Y5.5445
G01 X14.6425 Y5.5357
G01 X14.6269 Y5.5284
G01 X14.6108 Y5.5226
G01 X14.5941 Y5.5184
G01 X14.5771 Y5.5159
G01 X14.5588 Y5.5150
G01 X14.1112 Y5.5150
G01 X14.0929 Y5.5159
G01 X14.0759 Y5.5184
G01 X14.0592 Y5.5226
G01 X14.0431 Y5.5284
G01 X14.0275 Y5.5357
G01 X14.0128 Y5.5445
G01 X13.9990 Y5.5548
G01 X13.9863 Y5.5663
G01 X13.9748 Y5.5790
G01 X13.9645 Y5.5928
G01 X13.9557 Y5.6075
G01 X13.9484 Y5.6231
G01 X13.9426 Y5.6392
G01 X13.9384 Y5.6559
G01 X13.9359 Y5.6729
G01 X13.9350 Y5.6912
G01 X13.9350 Y6.1888
G01 X13.9359 Y6.2071
G01 X13.9384 Y6.2241
G01 X13.9426 Y6.2408
G01 X13.9484 Y6.2569
G01 X13.9557 Y6.2725
G01 X13.9645 Y6.2872
G01 X13.9748 Y6.3010
G01 X13.9863 Y6.3137
G01 X13.9990 Y6.3252
G01 X14.0128 Y6.3355
G01 X14.0275 Y6.3443
G01 X14.0431 Y6.3516
G01 X14.0592 Y6.3574
G01 X14.0759 Y6.3616
G01 X14.0929 Y6.3641
G01 X14.1112 Y6.3650
G01 X14.5588 Y6.3650
G01 X14.5771 Y6.3641
G01 X14.5941 Y6.3616
G01 X14.6108 Y6.3574
G01 X14.6269 Y6.3516
G01 X14.6425 Y6.3443
G01 X14.6572 Y6.3355
G01 X14.6710 Y6.3252
G01 X14.6837 Y6.3137
G01 X14.6952 Y6.3010
G01 X14.7055 Y6.2872
G01 X14.7143 Y6.2725
G01 X14.7216 Y6.2569
G01 X14.7274 Y6.2408
G01 X14.7316 Y6.2241
G01 X14.7341 Y6.2071
G01 X14.7350 Y6.1888
G01 X14.7350 Y5.6912
G00 Z2.0000
G00 X11.9150 Y18.3900
G01 F60.00
G01 Z-0.1000
G01 F120.00
G01 X11.9150 Y19.2900
G01 X12.0450 Y19.2900
G01 X12.0450 Y18.3900
G01 X11.9150 Y18.3900
G00 Z2.0000
G00 X11.5150 Y18.3900
G01 F60.00
G01 Z-0.1000
G01 F120.00
G01 X11.5150 Y19.2900
G01 X11.6450 Y19.2900
G01 X11.6450 Y18.3900
G01 X11.5150 Y18.3900
G00 Z2.0000
G00 X11.1150 Y18.3900
G01 F60.00
G01 Z-0.1000
G01 F120.00
G01 X11.1150 Y19.2900
G01 X11.2450 Y19.2900
G01 X11.2450 Y18.3900
G01 X11.1150 Y18.3900
G00 Z2.0000
G00 X10.7150 Y18.3900
G01 F60.00
G01 Z-0.1000
G01 F120.00
G01 X10.7150 Y19.2900
G01 X10.8450 Y19.2900
G01 X10.8450 Y18.3900
G01 X10.7150 Y18.3900
G00 Z2.0000
G00 X10.3150 Y18.3900
G01 F60.00
G01 Z-0.1000
G01 F120.00
G01 X10.3150 Y19.2900
G01 X10.4450 Y19.2900
G01 X10.4450 Y18.3900
G01 X10.3150 Y18.3900
G00 Z2.0000
G00 X9.9150 Y18.3900
G01 F60.00
G01 Z-0.1000
G01 F120.00
G01 X9.9150 Y19.2900
G01 X10.0450 Y19.2900
G01 X10.0450 Y18.3900
G01 X9.9150 Y18.3900
G00 Z2.0000
G00 X9.5150 Y18.3900
G01 F60.00
G01 Z-0.1000
G01 F120.00
G01 X9.5150 Y19.2900
G01 X9.6450 Y19.2900
G01 X9.6450 Y18.3900
G01 X9.5150 Y18.3900
G00 Z2.0000
G00 X9.1150 Y18.3900
G01 F60.00
G01 Z-0.1000
G01 F120.00
G01 X9.1150 Y19.2900
G01 X9.2450 Y19.2900
G01 X9.2450 Y18.3900
G01 X9.1150 Y18.3900
G00 Z2.0000
G00 X8.7150 Y18.3900
G01 F60.00
G01 Z-0.1000
G01 F120.00
G01 X8.7150 Y19.2900
G01 X8.8450 Y19.2900
G01 X8.8450 Y18.3900
G01 X8.7150 Y18.3900
G00 Z2.0000
G00 X8.3150 Y18.3900
G01 F60.00
G01 Z-0.1000
G01 F120.00
G01 X8.3150 Y19.2900
G01 X8.4450 Y19.2900
G01 X8.4450 Y18.3900
G01 X8.3150 Y18.3900
G00 Z2.0000
G00 X7.9150 Y18.3900
G01 F60.00
G01 Z-0.1000
G01 F120.00
G01 X7.9150 Y19.2900
G01 X8.0450 Y19.2900
G01 X8.0450 Y18.3900
G01 X7.9150 Y18.3900
G00 Z2.0000
G00 X7.5150 Y18.3900
G01 F60.00
G01 Z-0.1000
G01 F120.00
G01 X7.5150 Y19.2900
G01 X7.6450 Y19.2900
G01 X7.6450 Y18.3900
G01 X7.5150 Y18.3900
G00 Z2.0000
G00 X7.1150 Y18.3900
G01 F60.00
G01 Z-0.1000
G01 F120.00
G01 X7.1150 Y19.2900
G01 X7.2450 Y19.2900
G01 X7.2450 Y18.3900
G01 X7.1150 Y18.3900
G00 Z2.0000
G00 X6.7150 Y18.3900
G01 F60.00
G01 Z-0.1000
G01 F120.00
G01 X6.7150 Y19.2900
G01 X6.8450 Y19.2900
G01 X6.8450 Y18.3900
G01 X6.7150 Y18.3900
G00 Z2.0000
G00 X6.3150 Y18.3900
G01 F60.00
G01 Z-0.1000
G01 F120.00
G01 X6.3150 Y19.2900
G01 X6.4450 Y19.2900
G01 X6.4450 Y18.3900
G01 X6.3150 Y18.3900
G00 Z2.0000
G00 X5.9150 Y18.3900
G01 F60.00
G01 Z-0.1000
G01 F120.00
G01 X5.9150 Y19.2900
G01 X6.0450 Y19.2900
G01 X6.0450 Y18.3900
G01 X5.9150 Y18.3900
G00 Z2.0000
G00 X5.5150 Y18.3900
G01 F60.00
G01 Z-0.1000
G01 F120.00
G01 X5.5150 Y19.2900
G01 X5.6450 Y19.2900
G01 X5.6450 Y18.3900
G01 X5.5150 Y18.3900
G00 Z2.0000
M05
G00 Z2.0000
G00 Z15.00


