(G-CODE GENERATED BY FLATCAM v8.994 - www.flatcam.org - Version Date: 2020/11/7)

(Name: eMMC_V3.5.2_0603-B_Paste.gbp_mt_paint_cnc)
(Type: G-code from Geometry)
(Units: MM)

(Created on Monday, 05 August 2024 at 02:07)

(This preprocessor is the default preprocessor used by FlatCAM.)
(It is made to work with MACH3 compatible motion controllers.)

(TOOL DIAMETER: 0.1 mm)
(Feedrate_XY: 120.0 mm/min)
(Feedrate_Z: 60.0 mm/min)
(Feedrate rapids 1500.0 mm/min)

(Z_Cut: -0.1 mm)
(Z_Move: 2.0 mm)
(Z Start: None mm)
(Z End: 28.0 mm)
(X,Y End: None mm)
(Steps per circle: 64)
(Preprocessor Geometry: default)

(X range:    1.9450 ...   13.8350  mm)
(Y range:    4.8150 ...   18.5900  mm)

(Spindle Speed: 100.0 RPM)
G21
G90
G94

G01 F120.00

M5
G00 Z15.0000
G00 X0.0000 Y0.0000
T2
M6    
(MSG, Change to Tool Dia = 0.1000)
M0
G00 Z15.0000

M03 S100.0
G01 F120.00
G00 X2.1450 Y6.2950
G01 F60.00
G01 Z-0.1000
G01 F120.00
G01 X2.1450 Y6.7450
G01 X2.5450 Y6.7450
G01 X2.5450 Y6.2950
G01 X2.1450 Y6.2950
G01 X2.1950 Y6.3450
G01 X2.1950 Y6.6950
G01 X2.4950 Y6.6950
G01 X2.4950 Y6.3450
G01 X2.1950 Y6.3450
G01 X2.2450 Y6.3950
G01 X2.2450 Y6.6450
G01 X2.4450 Y6.6450
G01 X2.4450 Y6.3950
G01 X2.2450 Y6.3950
G01 X2.2950 Y6.4450
G01 X2.2950 Y6.5950
G01 X2.3950 Y6.5950
G01 X2.3950 Y6.4450
G01 X2.2950 Y6.4450
G01 X2.5950 Y6.2749
G01 X2.5946 Y6.2676
G01 X2.5937 Y6.2628
G01 X2.5918 Y6.2583
G01 X2.5891 Y6.2543
G01 X2.5857 Y6.2509
G01 X2.5795 Y6.2471
G01 X2.5724 Y6.2454
G01 X2.5651 Y6.2450
G01 X2.1249 Y6.2450
G01 X2.1176 Y6.2454
G01 X2.1128 Y6.2463
G01 X2.1083 Y6.2482
G01 X2.1025 Y6.2525
G01 X2.0994 Y6.2562
G01 X2.0963 Y6.2628
G01 X2.0954 Y6.2676
G01 X2.0950 Y6.2749
G01 X2.0950 Y6.7651
G01 X2.0954 Y6.7724
G01 X2.0963 Y6.7772
G01 X2.0994 Y6.7838
G01 X2.1025 Y6.7875
G01 X2.1083 Y6.7918
G01 X2.1128 Y6.7937
G01 X2.1176 Y6.7946
G01 X2.1249 Y6.7950
G01 X2.5651 Y6.7950
G01 X2.5748 Y6.7943
G01 X2.5795 Y6.7929
G01 X2.5838 Y6.7906
G01 X2.5875 Y6.7875
G01 X2.5906 Y6.7838
G01 X2.5929 Y6.7795
G01 X2.5943 Y6.7748
G01 X2.5950 Y6.7651
G01 X2.5950 Y6.2749
G01 X2.6450 Y6.2737
G01 X2.6445 Y6.2627
G01 X2.6434 Y6.2554
G01 X2.6416 Y6.2483
G01 X2.6391 Y6.2414
G01 X2.6360 Y6.2347
G01 X2.6322 Y6.2284
G01 X2.6278 Y6.2225
G01 X2.6229 Y6.2171
G01 X2.6175 Y6.2122
G01 X2.6116 Y6.2078
G01 X2.6053 Y6.2040
G01 X2.5986 Y6.2009
G01 X2.5917 Y6.1984
G01 X2.5846 Y6.1966
G01 X2.5773 Y6.1955
G01 X2.5663 Y6.1950
G01 X2.1237 Y6.1950
G01 X2.1127 Y6.1955
G01 X2.1054 Y6.1966
G01 X2.0983 Y6.1984
G01 X2.0914 Y6.2009
G01 X2.0847 Y6.2040
G01 X2.0784 Y6.2078
G01 X2.0725 Y6.2122
G01 X2.0671 Y6.2171
G01 X2.0622 Y6.2225
G01 X2.0578 Y6.2284
G01 X2.0540 Y6.2347
G01 X2.0509 Y6.2414
G01 X2.0484 Y6.2483
G01 X2.0466 Y6.2554
G01 X2.0455 Y6.2627
G01 X2.0450 Y6.2737
G01 X2.0450 Y6.7663
G01 X2.0455 Y6.7773
G01 X2.0466 Y6.7846
G01 X2.0484 Y6.7917
G01 X2.0509 Y6.7986
G01 X2.0540 Y6.8053
G01 X2.0578 Y6.8116
G01 X2.0622 Y6.8175
G01 X2.0671 Y6.8229
G01 X2.0725 Y6.8278
G01 X2.0784 Y6.8322
G01 X2.0847 Y6.8360
G01 X2.0914 Y6.8391
G01 X2.0983 Y6.8416
G01 X2.1054 Y6.8434
G01 X2.1127 Y6.8445
G01 X2.1237 Y6.8450
G01 X2.5663 Y6.8450
G01 X2.5773 Y6.8445
G01 X2.5846 Y6.8434
G01 X2.5917 Y6.8416
G01 X2.5986 Y6.8391
G01 X2.6053 Y6.8360
G01 X2.6116 Y6.8322
G01 X2.6175 Y6.8278
G01 X2.6229 Y6.8229
G01 X2.6278 Y6.8175
G01 X2.6322 Y6.8116
G01 X2.6360 Y6.8053
G01 X2.6391 Y6.7986
G01 X2.6416 Y6.7917
G01 X2.6434 Y6.7846
G01 X2.6445 Y6.7773
G01 X2.6450 Y6.7663
G01 X2.6450 Y6.2737
G01 X2.6950 Y6.2725
G01 X2.6943 Y6.2578
G01 X2.6925 Y6.2456
G01 X2.6895 Y6.2337
G01 X2.6854 Y6.2222
G01 X2.6801 Y6.2111
G01 X2.6738 Y6.2006
G01 X2.6665 Y6.1908
G01 X2.6583 Y6.1817
G01 X2.6492 Y6.1735
G01 X2.6394 Y6.1662
G01 X2.6289 Y6.1599
G01 X2.6178 Y6.1546
G01 X2.6063 Y6.1505
G01 X2.5944 Y6.1475
G01 X2.5822 Y6.1457
G01 X2.5675 Y6.1450
G01 X2.1225 Y6.1450
G01 X2.1078 Y6.1457
G01 X2.0956 Y6.1475
G01 X2.0837 Y6.1505
G01 X2.0722 Y6.1546
G01 X2.0611 Y6.1599
G01 X2.0506 Y6.1662
G01 X2.0408 Y6.1735
G01 X2.0317 Y6.1817
G01 X2.0235 Y6.1908
G01 X2.0162 Y6.2006
G01 X2.0099 Y6.2111
G01 X2.0046 Y6.2222
G01 X2.0005 Y6.2337
G01 X1.9975 Y6.2456
G01 X1.9957 Y6.2578
G01 X1.9950 Y6.2725
G01 X1.9950 Y6.7675
G01 X1.9957 Y6.7822
G01 X1.9975 Y6.7944
G01 X2.0005 Y6.8063
G01 X2.0046 Y6.8178
G01 X2.0099 Y6.8289
G01 X2.0162 Y6.8394
G01 X2.0235 Y6.8492
G01 X2.0317 Y6.8583
G01 X2.0408 Y6.8665
G01 X2.0506 Y6.8738
G01 X2.0611 Y6.8801
G01 X2.0722 Y6.8854
G01 X2.0837 Y6.8895
G01 X2.0956 Y6.8925
G01 X2.1078 Y6.8943
G01 X2.1225 Y6.8950
G01 X2.5675 Y6.8950
G01 X2.5822 Y6.8943
G01 X2.5944 Y6.8925
G01 X2.6063 Y6.8895
G01 X2.6178 Y6.8854
G01 X2.6289 Y6.8801
G01 X2.6394 Y6.8738
G01 X2.6492 Y6.8665
G01 X2.6583 Y6.8583
G01 X2.6665 Y6.8492
G01 X2.6738 Y6.8394
G01 X2.6801 Y6.8289
G01 X2.6854 Y6.8178
G01 X2.6895 Y6.8063
G01 X2.6925 Y6.7944
G01 X2.6943 Y6.7822
G01 X2.6950 Y6.7675
G01 X2.6950 Y6.2725
G01 X2.7450 Y6.2712
G01 X2.7441 Y6.2529
G01 X2.7416 Y6.2359
G01 X2.7374 Y6.2192
G01 X2.7316 Y6.2031
G01 X2.7243 Y6.1875
G01 X2.7155 Y6.1728
G01 X2.7052 Y6.1590
G01 X2.6937 Y6.1463
G01 X2.6810 Y6.1348
G01 X2.6672 Y6.1245
G01 X2.6525 Y6.1157
G01 X2.6369 Y6.1084
G01 X2.6208 Y6.1026
G01 X2.6041 Y6.0984
G01 X2.5871 Y6.0959
G01 X2.5688 Y6.0950
G01 X2.1212 Y6.0950
G01 X2.1029 Y6.0959
G01 X2.0859 Y6.0984
G01 X2.0692 Y6.1026
G01 X2.0531 Y6.1084
G01 X2.0375 Y6.1157
G01 X2.0228 Y6.1245
G01 X2.0090 Y6.1348
G01 X1.9963 Y6.1463
G01 X1.9848 Y6.1590
G01 X1.9745 Y6.1728
G01 X1.9657 Y6.1875
G01 X1.9584 Y6.2031
G01 X1.9526 Y6.2192
G01 X1.9484 Y6.2359
G01 X1.9459 Y6.2529
G01 X1.9450 Y6.2712
G01 X1.9450 Y6.7688
G01 X1.9459 Y6.7871
G01 X1.9484 Y6.8041
G01 X1.9526 Y6.8208
G01 X1.9584 Y6.8369
G01 X1.9657 Y6.8525
G01 X1.9745 Y6.8672
G01 X1.9848 Y6.8810
G01 X1.9963 Y6.8937
G01 X2.0090 Y6.9052
G01 X2.0228 Y6.9155
G01 X2.0375 Y6.9243
G01 X2.0531 Y6.9316
G01 X2.0692 Y6.9374
G01 X2.0859 Y6.9416
G01 X2.1029 Y6.9441
G01 X2.1212 Y6.9450
G01 X2.5688 Y6.9450
G01 X2.5871 Y6.9441
G01 X2.6041 Y6.9416
G01 X2.6208 Y6.9374
G01 X2.6369 Y6.9316
G01 X2.6525 Y6.9243
G01 X2.6672 Y6.9155
G01 X2.6810 Y6.9052
G01 X2.6937 Y6.8937
G01 X2.7052 Y6.8810
G01 X2.7155 Y6.8672
G01 X2.7243 Y6.8525
G01 X2.7316 Y6.8369
G01 X2.7374 Y6.8208
G01 X2.7416 Y6.8041
G01 X2.7441 Y6.7871
G01 X2.7450 Y6.7688
G01 X2.7450 Y6.2712
G00 Z2.0000
G00 X3.6950 Y6.2950
G01 F60.00
G01 Z-0.1000
G01 F120.00
G01 X3.6950 Y6.7450
G01 X4.0950 Y6.7450
G01 X4.0950 Y6.2950
G01 X3.6950 Y6.2950
G01 X3.7450 Y6.3450
G01 X3.7450 Y6.6950
G01 X4.0450 Y6.6950
G01 X4.0450 Y6.3450
G01 X3.7450 Y6.3450
G01 X3.7950 Y6.3950
G01 X3.7950 Y6.6450
G01 X3.9950 Y6.6450
G01 X3.9950 Y6.3950
G01 X3.7950 Y6.3950
G01 X3.8450 Y6.4450
G01 X3.8450 Y6.5950
G01 X3.9450 Y6.5950
G01 X3.9450 Y6.4450
G01 X3.8450 Y6.4450
G01 X4.1450 Y6.2749
G01 X4.1446 Y6.2676
G01 X4.1437 Y6.2628
G01 X4.1418 Y6.2583
G01 X4.1391 Y6.2543
G01 X4.1357 Y6.2509
G01 X4.1295 Y6.2471
G01 X4.1224 Y6.2454
G01 X4.1151 Y6.2450
G01 X3.6749 Y6.2450
G01 X3.6676 Y6.2454
G01 X3.6628 Y6.2463
G01 X3.6583 Y6.2482
G01 X3.6525 Y6.2525
G01 X3.6494 Y6.2562
G01 X3.6463 Y6.2628
G01 X3.6454 Y6.2676
G01 X3.6450 Y6.2749
G01 X3.6450 Y6.7651
G01 X3.6454 Y6.7724
G01 X3.6463 Y6.7772
G01 X3.6494 Y6.7838
G01 X3.6525 Y6.7875
G01 X3.6583 Y6.7918
G01 X3.6628 Y6.7937
G01 X3.6676 Y6.7946
G01 X3.6749 Y6.7950
G01 X4.1151 Y6.7950
G01 X4.1248 Y6.7943
G01 X4.1295 Y6.7929
G01 X4.1338 Y6.7906
G01 X4.1375 Y6.7875
G01 X4.1406 Y6.7838
G01 X4.1429 Y6.7795
G01 X4.1443 Y6.7748
G01 X4.1450 Y6.7651
G01 X4.1450 Y6.2749
G01 X4.1950 Y6.2737
G01 X4.1945 Y6.2627
G01 X4.1934 Y6.2554
G01 X4.1916 Y6.2483
G01 X4.1891 Y6.2414
G01 X4.1860 Y6.2347
G01 X4.1822 Y6.2284
G01 X4.1778 Y6.2225
G01 X4.1729 Y6.2171
G01 X4.1675 Y6.2122
G01 X4.1616 Y6.2078
G01 X4.1553 Y6.2040
G01 X4.1486 Y6.2009
G01 X4.1417 Y6.1984
G01 X4.1346 Y6.1966
G01 X4.1273 Y6.1955
G01 X4.1163 Y6.1950
G01 X3.6737 Y6.1950
G01 X3.6627 Y6.1955
G01 X3.6554 Y6.1966
G01 X3.6483 Y6.1984
G01 X3.6414 Y6.2009
G01 X3.6347 Y6.2040
G01 X3.6284 Y6.2078
G01 X3.6225 Y6.2122
G01 X3.6171 Y6.2171
G01 X3.6122 Y6.2225
G01 X3.6078 Y6.2284
G01 X3.6040 Y6.2347
G01 X3.6009 Y6.2414
G01 X3.5984 Y6.2483
G01 X3.5966 Y6.2554
G01 X3.5955 Y6.2627
G01 X3.5950 Y6.2737
G01 X3.5950 Y6.7663
G01 X3.5955 Y6.7773
G01 X3.5966 Y6.7846
G01 X3.5984 Y6.7917
G01 X3.6009 Y6.7986
G01 X3.6040 Y6.8053
G01 X3.6078 Y6.8116
G01 X3.6122 Y6.8175
G01 X3.6171 Y6.8229
G01 X3.6225 Y6.8278
G01 X3.6284 Y6.8322
G01 X3.6347 Y6.8360
G01 X3.6414 Y6.8391
G01 X3.6483 Y6.8416
G01 X3.6554 Y6.8434
G01 X3.6627 Y6.8445
G01 X3.6737 Y6.8450
G01 X4.1163 Y6.8450
G01 X4.1273 Y6.8445
G01 X4.1346 Y6.8434
G01 X4.1417 Y6.8416
G01 X4.1486 Y6.8391
G01 X4.1553 Y6.8360
G01 X4.1616 Y6.8322
G01 X4.1675 Y6.8278
G01 X4.1729 Y6.8229
G01 X4.1778 Y6.8175
G01 X4.1822 Y6.8116
G01 X4.1860 Y6.8053
G01 X4.1891 Y6.7986
G01 X4.1916 Y6.7917
G01 X4.1934 Y6.7846
G01 X4.1945 Y6.7773
G01 X4.1950 Y6.7663
G01 X4.1950 Y6.2737
G01 X4.2450 Y6.2725
G01 X4.2443 Y6.2578
G01 X4.2425 Y6.2456
G01 X4.2395 Y6.2337
G01 X4.2354 Y6.2222
G01 X4.2301 Y6.2111
G01 X4.2238 Y6.2006
G01 X4.2165 Y6.1908
G01 X4.2083 Y6.1817
G01 X4.1992 Y6.1735
G01 X4.1894 Y6.1662
G01 X4.1789 Y6.1599
G01 X4.1678 Y6.1546
G01 X4.1563 Y6.1505
G01 X4.1444 Y6.1475
G01 X4.1322 Y6.1457
G01 X4.1175 Y6.1450
G01 X3.6725 Y6.1450
G01 X3.6578 Y6.1457
G01 X3.6456 Y6.1475
G01 X3.6337 Y6.1505
G01 X3.6222 Y6.1546
G01 X3.6111 Y6.1599
G01 X3.6006 Y6.1662
G01 X3.5908 Y6.1735
G01 X3.5817 Y6.1817
G01 X3.5735 Y6.1908
G01 X3.5662 Y6.2006
G01 X3.5599 Y6.2111
G01 X3.5546 Y6.2222
G01 X3.5505 Y6.2337
G01 X3.5475 Y6.2456
G01 X3.5457 Y6.2578
G01 X3.5450 Y6.2725
G01 X3.5450 Y6.7675
G01 X3.5457 Y6.7822
G01 X3.5475 Y6.7944
G01 X3.5505 Y6.8063
G01 X3.5546 Y6.8178
G01 X3.5599 Y6.8289
G01 X3.5662 Y6.8394
G01 X3.5735 Y6.8492
G01 X3.5817 Y6.8583
G01 X3.5908 Y6.8665
G01 X3.6006 Y6.8738
G01 X3.6111 Y6.8801
G01 X3.6222 Y6.8854
G01 X3.6337 Y6.8895
G01 X3.6456 Y6.8925
G01 X3.6578 Y6.8943
G01 X3.6725 Y6.8950
G01 X4.1175 Y6.8950
G01 X4.1322 Y6.8943
G01 X4.1444 Y6.8925
G01 X4.1563 Y6.8895
G01 X4.1678 Y6.8854
G01 X4.1789 Y6.8801
G01 X4.1894 Y6.8738
G01 X4.1992 Y6.8665
G01 X4.2083 Y6.8583
G01 X4.2165 Y6.8492
G01 X4.2238 Y6.8394
G01 X4.2301 Y6.8289
G01 X4.2354 Y6.8178
G01 X4.2395 Y6.8063
G01 X4.2425 Y6.7944
G01 X4.2443 Y6.7822
G01 X4.2450 Y6.7675
G01 X4.2450 Y6.2725
G01 X4.2950 Y6.2712
G01 X4.2941 Y6.2529
G01 X4.2916 Y6.2359
G01 X4.2874 Y6.2192
G01 X4.2816 Y6.2031
G01 X4.2743 Y6.1875
G01 X4.2655 Y6.1728
G01 X4.2552 Y6.1590
G01 X4.2437 Y6.1463
G01 X4.2310 Y6.1348
G01 X4.2172 Y6.1245
G01 X4.2025 Y6.1157
G01 X4.1869 Y6.1084
G01 X4.1708 Y6.1026
G01 X4.1541 Y6.0984
G01 X4.1371 Y6.0959
G01 X4.1188 Y6.0950
G01 X3.6712 Y6.0950
G01 X3.6529 Y6.0959
G01 X3.6359 Y6.0984
G01 X3.6192 Y6.1026
G01 X3.6031 Y6.1084
G01 X3.5875 Y6.1157
G01 X3.5728 Y6.1245
G01 X3.5590 Y6.1348
G01 X3.5463 Y6.1463
G01 X3.5348 Y6.1590
G01 X3.5245 Y6.1728
G01 X3.5157 Y6.1875
G01 X3.5084 Y6.2031
G01 X3.5026 Y6.2192
G01 X3.4984 Y6.2359
G01 X3.4959 Y6.2529
G01 X3.4950 Y6.2712
G01 X3.4950 Y6.7688
G01 X3.4959 Y6.7871
G01 X3.4984 Y6.8041
G01 X3.5026 Y6.8208
G01 X3.5084 Y6.8369
G01 X3.5157 Y6.8525
G01 X3.5245 Y6.8672
G01 X3.5348 Y6.8810
G01 X3.5463 Y6.8937
G01 X3.5590 Y6.9052
G01 X3.5728 Y6.9155
G01 X3.5875 Y6.9243
G01 X3.6031 Y6.9316
G01 X3.6192 Y6.9374
G01 X3.6359 Y6.9416
G01 X3.6529 Y6.9441
G01 X3.6712 Y6.9450
G01 X4.1188 Y6.9450
G01 X4.1371 Y6.9441
G01 X4.1541 Y6.9416
G01 X4.1708 Y6.9374
G01 X4.1869 Y6.9316
G01 X4.2025 Y6.9243
G01 X4.2172 Y6.9155
G01 X4.2310 Y6.9052
G01 X4.2437 Y6.8937
G01 X4.2552 Y6.8810
G01 X4.2655 Y6.8672
G01 X4.2743 Y6.8525
G01 X4.2816 Y6.8369
G01 X4.2874 Y6.8208
G01 X4.2916 Y6.8041
G01 X4.2941 Y6.7871
G01 X4.2950 Y6.7688
G01 X4.2950 Y6.2712
G00 Z2.0000
G00 X5.6950 Y5.9938
G01 F60.00
G01 Z-0.1000
G01 F120.00
G01 X5.6958 Y6.0097
G01 X5.6979 Y6.0243
G01 X5.7015 Y6.0385
G01 X5.7065 Y6.0524
G01 X5.7128 Y6.0657
G01 X5.7203 Y6.0783
G01 X5.7291 Y6.0901
G01 X5.7390 Y6.1010
G01 X5.7499 Y6.1109
G01 X5.7617 Y6.1197
G01 X5.7743 Y6.1272
G01 X5.7876 Y6.1335
G01 X5.8015 Y6.1385
G01 X5.8157 Y6.1421
G01 X5.8303 Y6.1442
G01 X5.8462 Y6.1450
G01 X6.2438 Y6.1450
G01 X6.2597 Y6.1442
G01 X6.2743 Y6.1421
G01 X6.2885 Y6.1385
G01 X6.3024 Y6.1335
G01 X6.3157 Y6.1272
G01 X6.3283 Y6.1197
G01 X6.3401 Y6.1109
G01 X6.3510 Y6.1010
G01 X6.3609 Y6.0901
G01 X6.3697 Y6.0783
G01 X6.3772 Y6.0657
G01 X6.3835 Y6.0524
G01 X6.3885 Y6.0385
G01 X6.3921 Y6.0243
G01 X6.3942 Y6.0097
G01 X6.3950 Y5.9938
G01 X6.3950 Y5.4462
G01 X6.3942 Y5.4303
G01 X6.3921 Y5.4157
G01 X6.3885 Y5.4015
G01 X6.3835 Y5.3876
G01 X6.3772 Y5.3743
G01 X6.3697 Y5.3617
G01 X6.3609 Y5.3499
G01 X6.3510 Y5.3390
G01 X6.3401 Y5.3291
G01 X6.3283 Y5.3203
G01 X6.3157 Y5.3128
G01 X6.3024 Y5.3065
G01 X6.2885 Y5.3015
G01 X6.2743 Y5.2979
G01 X6.2597 Y5.2958
G01 X6.2438 Y5.2950
G01 X5.8462 Y5.2950
G01 X5.8303 Y5.2958
G01 X5.8157 Y5.2979
G01 X5.8015 Y5.3015
G01 X5.7876 Y5.3065
G01 X5.7743 Y5.3128
G01 X5.7617 Y5.3203
G01 X5.7499 Y5.3291
G01 X5.7390 Y5.3390
G01 X5.7291 Y5.3499
G01 X5.7203 Y5.3617
G01 X5.7128 Y5.3743
G01 X5.7065 Y5.3876
G01 X5.7015 Y5.4015
G01 X5.6979 Y5.4157
G01 X5.6958 Y5.4303
G01 X5.6950 Y5.4462
G01 X5.6950 Y5.9938
G01 X5.7450 Y5.9925
G01 X5.7456 Y6.0048
G01 X5.7470 Y6.0145
G01 X5.7494 Y6.0240
G01 X5.7527 Y6.0332
G01 X5.7569 Y6.0421
G01 X5.7620 Y6.0505
G01 X5.7678 Y6.0584
G01 X5.7744 Y6.0656
G01 X5.7816 Y6.0722
G01 X5.7895 Y6.0780
G01 X5.7979 Y6.0831
G01 X5.8068 Y6.0873
G01 X5.8160 Y6.0906
G01 X5.8255 Y6.0930
G01 X5.8352 Y6.0944
G01 X5.8475 Y6.0950
G01 X6.2425 Y6.0950
G01 X6.2548 Y6.0944
G01 X6.2645 Y6.0930
G01 X6.2740 Y6.0906
G01 X6.2832 Y6.0873
G01 X6.2921 Y6.0831
G01 X6.3005 Y6.0780
G01 X6.3084 Y6.0722
G01 X6.3156 Y6.0656
G01 X6.3222 Y6.0584
G01 X6.3280 Y6.0505
G01 X6.3331 Y6.0421
G01 X6.3373 Y6.0332
G01 X6.3406 Y6.0240
G01 X6.3430 Y6.0145
G01 X6.3444 Y6.0048
G01 X6.3450 Y5.9925
G01 X6.3450 Y5.4475
G01 X6.3444 Y5.4352
G01 X6.3430 Y5.4255
G01 X6.3406 Y5.4160
G01 X6.3373 Y5.4068
G01 X6.3331 Y5.3979
G01 X6.3280 Y5.3895
G01 X6.3222 Y5.3816
G01 X6.3156 Y5.3744
G01 X6.3084 Y5.3678
G01 X6.3005 Y5.3620
G01 X6.2921 Y5.3569
G01 X6.2832 Y5.3527
G01 X6.2740 Y5.3494
G01 X6.2645 Y5.3470
G01 X6.2548 Y5.3456
G01 X6.2425 Y5.3450
G01 X5.8475 Y5.3450
G01 X5.8352 Y5.3456
G01 X5.8255 Y5.3470
G01 X5.8160 Y5.3494
G01 X5.8068 Y5.3527
G01 X5.7979 Y5.3569
G01 X5.7895 Y5.3620
G01 X5.7816 Y5.3678
G01 X5.7744 Y5.3744
G01 X5.7678 Y5.3816
G01 X5.7620 Y5.3895
G01 X5.7569 Y5.3979
G01 X5.7527 Y5.4068
G01 X5.7494 Y5.4160
G01 X5.7470 Y5.4255
G01 X5.7456 Y5.4352
G01 X5.7450 Y5.4475
G01 X5.7450 Y5.9925
G01 X5.7950 Y5.9913
G01 X5.7954 Y5.9999
G01 X5.7973 Y6.0095
G01 X5.8011 Y6.0185
G01 X5.8065 Y6.0266
G01 X5.8134 Y6.0335
G01 X5.8215 Y6.0389
G01 X5.8305 Y6.0427
G01 X5.8401 Y6.0446
G01 X5.8487 Y6.0450
G01 X6.2413 Y6.0450
G01 X6.2499 Y6.0446
G01 X6.2547 Y6.0439
G01 X6.2641 Y6.0410
G01 X6.2685 Y6.0389
G01 X6.2727 Y6.0364
G01 X6.2802 Y6.0302
G01 X6.2864 Y6.0227
G01 X6.2889 Y6.0185
G01 X6.2927 Y6.0095
G01 X6.2946 Y5.9999
G01 X6.2950 Y5.9913
G01 X6.2950 Y5.4487
G01 X6.2946 Y5.4401
G01 X6.2939 Y5.4353
G01 X6.2927 Y5.4305
G01 X6.2889 Y5.4215
G01 X6.2835 Y5.4134
G01 X6.2802 Y5.4098
G01 X6.2766 Y5.4065
G01 X6.2685 Y5.4011
G01 X6.2595 Y5.3973
G01 X6.2547 Y5.3961
G01 X6.2499 Y5.3954
G01 X6.2413 Y5.3950
G01 X5.8487 Y5.3950
G01 X5.8401 Y5.3954
G01 X5.8305 Y5.3973
G01 X5.8215 Y5.4011
G01 X5.8173 Y5.4036
G01 X5.8098 Y5.4098
G01 X5.8036 Y5.4173
G01 X5.8011 Y5.4215
G01 X5.7973 Y5.4305
G01 X5.7954 Y5.4401
G01 X5.7950 Y5.4487
G01 X5.7950 Y5.9913
G01 X5.8450 Y5.9901
G01 X5.8452 Y5.9948
G01 X6.2448 Y5.9948
G01 X6.2448 Y5.4452
G01 X5.8452 Y5.4452
G01 X5.8450 Y5.9901
G01 X5.8950 Y5.9450
G01 X6.1950 Y5.9450
G01 X6.1950 Y5.4950
G01 X5.8950 Y5.4950
G01 X5.8950 Y5.9450
G01 X5.9450 Y5.8950
G01 X6.1450 Y5.8950
G01 X6.1450 Y5.5450
G01 X5.9450 Y5.5450
G01 X5.9450 Y5.8950
G01 X5.9950 Y5.8450
G01 X6.0950 Y5.8450
G01 X6.0950 Y5.5950
G01 X5.9950 Y5.5950
G01 X5.9950 Y5.8450
G00 Z2.0000
G00 X7.3450 Y5.9938
G01 F60.00
G01 Z-0.1000
G01 F120.00
G01 X7.3458 Y6.0097
G01 X7.3479 Y6.0243
G01 X7.3515 Y6.0385
G01 X7.3565 Y6.0524
G01 X7.3628 Y6.0657
G01 X7.3703 Y6.0783
G01 X7.3791 Y6.0901
G01 X7.3890 Y6.1010
G01 X7.3999 Y6.1109
G01 X7.4117 Y6.1197
G01 X7.4243 Y6.1272
G01 X7.4376 Y6.1335
G01 X7.4515 Y6.1385
G01 X7.4657 Y6.1421
G01 X7.4803 Y6.1442
G01 X7.4962 Y6.1450
G01 X7.8938 Y6.1450
G01 X7.9097 Y6.1442
G01 X7.9243 Y6.1421
G01 X7.9385 Y6.1385
G01 X7.9524 Y6.1335
G01 X7.9657 Y6.1272
G01 X7.9783 Y6.1197
G01 X7.9901 Y6.1109
G01 X8.0010 Y6.1010
G01 X8.0109 Y6.0901
G01 X8.0197 Y6.0783
G01 X8.0272 Y6.0657
G01 X8.0335 Y6.0524
G01 X8.0385 Y6.0385
G01 X8.0421 Y6.0243
G01 X8.0442 Y6.0097
G01 X8.0450 Y5.9938
G01 X8.0450 Y5.4462
G01 X8.0442 Y5.4303
G01 X8.0421 Y5.4157
G01 X8.0385 Y5.4015
G01 X8.0335 Y5.3876
G01 X8.0272 Y5.3743
G01 X8.0197 Y5.3617
G01 X8.0109 Y5.3499
G01 X8.0010 Y5.3390
G01 X7.9901 Y5.3291
G01 X7.9783 Y5.3203
G01 X7.9657 Y5.3128
G01 X7.9524 Y5.3065
G01 X7.9385 Y5.3015
G01 X7.9243 Y5.2979
G01 X7.9097 Y5.2958
G01 X7.8938 Y5.2950
G01 X7.4962 Y5.2950
G01 X7.4803 Y5.2958
G01 X7.4657 Y5.2979
G01 X7.4515 Y5.3015
G01 X7.4376 Y5.3065
G01 X7.4243 Y5.3128
G01 X7.4117 Y5.3203
G01 X7.3999 Y5.3291
G01 X7.3890 Y5.3390
G01 X7.3791 Y5.3499
G01 X7.3703 Y5.3617
G01 X7.3628 Y5.3743
G01 X7.3565 Y5.3876
G01 X7.3515 Y5.4015
G01 X7.3479 Y5.4157
G01 X7.3458 Y5.4303
G01 X7.3450 Y5.4462
G01 X7.3450 Y5.9938
G01 X7.3950 Y5.9925
G01 X7.3956 Y6.0048
G01 X7.3970 Y6.0145
G01 X7.3994 Y6.0240
G01 X7.4027 Y6.0332
G01 X7.4069 Y6.0421
G01 X7.4120 Y6.0505
G01 X7.4178 Y6.0584
G01 X7.4244 Y6.0656
G01 X7.4316 Y6.0722
G01 X7.4395 Y6.0780
G01 X7.4479 Y6.0831
G01 X7.4568 Y6.0873
G01 X7.4660 Y6.0906
G01 X7.4755 Y6.0930
G01 X7.4852 Y6.0944
G01 X7.4975 Y6.0950
G01 X7.8925 Y6.0950
G01 X7.9048 Y6.0944
G01 X7.9145 Y6.0930
G01 X7.9240 Y6.0906
G01 X7.9332 Y6.0873
G01 X7.9421 Y6.0831
G01 X7.9505 Y6.0780
G01 X7.9584 Y6.0722
G01 X7.9656 Y6.0656
G01 X7.9722 Y6.0584
G01 X7.9780 Y6.0505
G01 X7.9831 Y6.0421
G01 X7.9873 Y6.0332
G01 X7.9906 Y6.0240
G01 X7.9930 Y6.0145
G01 X7.9944 Y6.0048
G01 X7.9950 Y5.9925
G01 X7.9950 Y5.4475
G01 X7.9944 Y5.4352
G01 X7.9930 Y5.4255
G01 X7.9906 Y5.4160
G01 X7.9873 Y5.4068
G01 X7.9831 Y5.3979
G01 X7.9780 Y5.3895
G01 X7.9722 Y5.3816
G01 X7.9656 Y5.3744
G01 X7.9584 Y5.3678
G01 X7.9505 Y5.3620
G01 X7.9421 Y5.3569
G01 X7.9332 Y5.3527
G01 X7.9240 Y5.3494
G01 X7.9145 Y5.3470
G01 X7.9048 Y5.3456
G01 X7.8925 Y5.3450
G01 X7.4975 Y5.3450
G01 X7.4852 Y5.3456
G01 X7.4755 Y5.3470
G01 X7.4660 Y5.3494
G01 X7.4568 Y5.3527
G01 X7.4479 Y5.3569
G01 X7.4395 Y5.3620
G01 X7.4316 Y5.3678
G01 X7.4244 Y5.3744
G01 X7.4178 Y5.3816
G01 X7.4120 Y5.3895
G01 X7.4069 Y5.3979
G01 X7.4027 Y5.4068
G01 X7.3994 Y5.4160
G01 X7.3970 Y5.4255
G01 X7.3956 Y5.4352
G01 X7.3950 Y5.4475
G01 X7.3950 Y5.9925
G01 X7.4450 Y5.9913
G01 X7.4454 Y5.9999
G01 X7.4473 Y6.0095
G01 X7.4511 Y6.0185
G01 X7.4565 Y6.0266
G01 X7.4634 Y6.0335
G01 X7.4715 Y6.0389
G01 X7.4805 Y6.0427
G01 X7.4901 Y6.0446
G01 X7.4987 Y6.0450
G01 X7.8913 Y6.0450
G01 X7.8999 Y6.0446
G01 X7.9047 Y6.0439
G01 X7.9141 Y6.0410
G01 X7.9185 Y6.0389
G01 X7.9266 Y6.0335
G01 X7.9302 Y6.0302
G01 X7.9364 Y6.0227
G01 X7.9389 Y6.0185
G01 X7.9427 Y6.0095
G01 X7.9446 Y5.9999
G01 X7.9450 Y5.9913
G01 X7.9450 Y5.4487
G01 X7.9446 Y5.4401
G01 X7.9439 Y5.4353
G01 X7.9427 Y5.4305
G01 X7.9389 Y5.4215
G01 X7.9364 Y5.4173
G01 X7.9302 Y5.4098
G01 X7.9266 Y5.4065
G01 X7.9185 Y5.4011
G01 X7.9095 Y5.3973
G01 X7.9047 Y5.3961
G01 X7.8999 Y5.3954
G01 X7.8913 Y5.3950
G01 X7.4987 Y5.3950
G01 X7.4901 Y5.3954
G01 X7.4805 Y5.3973
G01 X7.4715 Y5.4011
G01 X7.4673 Y5.4036
G01 X7.4598 Y5.4098
G01 X7.4536 Y5.4173
G01 X7.4511 Y5.4215
G01 X7.4473 Y5.4305
G01 X7.4454 Y5.4401
G01 X7.4450 Y5.4487
G01 X7.4450 Y5.9913
G01 X7.4950 Y5.9901
G01 X7.4952 Y5.9948
G01 X7.8948 Y5.9948
G01 X7.8948 Y5.4452
G01 X7.4952 Y5.4452
G01 X7.4950 Y5.9901
G01 X7.5450 Y5.9450
G01 X7.8450 Y5.9450
G01 X7.8450 Y5.4950
G01 X7.5450 Y5.4950
G01 X7.5450 Y5.9450
G01 X7.5950 Y5.8950
G01 X7.7950 Y5.8950
G01 X7.7950 Y5.5450
G01 X7.5950 Y5.5450
G01 X7.5950 Y5.8950
G01 X7.6450 Y5.8450
G01 X7.7450 Y5.8450
G01 X7.7450 Y5.5950
G01 X7.6450 Y5.5950
G01 X7.6450 Y5.8450
G00 Z2.0000
G00 X7.9450 Y7.2987
G01 F60.00
G01 Z-0.1000
G01 F120.00
G01 X7.9446 Y7.2901
G01 X7.9427 Y7.2805
G01 X7.9389 Y7.2715
G01 X7.9335 Y7.2634
G01 X7.9266 Y7.2565
G01 X7.9185 Y7.2511
G01 X7.9095 Y7.2473
G01 X7.8999 Y7.2454
G01 X7.8913 Y7.2450
G01 X7.4987 Y7.2450
G01 X7.4901 Y7.2454
G01 X7.4853 Y7.2461
G01 X7.4759 Y7.2490
G01 X7.4715 Y7.2511
G01 X7.4634 Y7.2565
G01 X7.4565 Y7.2634
G01 X7.4511 Y7.2715
G01 X7.4473 Y7.2805
G01 X7.4454 Y7.2901
G01 X7.4450 Y7.2987
G01 X7.4450 Y7.8413
G01 X7.4454 Y7.8499
G01 X7.4461 Y7.8547
G01 X7.4490 Y7.8641
G01 X7.4536 Y7.8727
G01 X7.4598 Y7.8802
G01 X7.4634 Y7.8835
G01 X7.4715 Y7.8889
G01 X7.4805 Y7.8927
G01 X7.4901 Y7.8946
G01 X7.4987 Y7.8950
G01 X7.8913 Y7.8950
G01 X7.8999 Y7.8946
G01 X7.9047 Y7.8939
G01 X7.9141 Y7.8910
G01 X7.9185 Y7.8889
G01 X7.9266 Y7.8835
G01 X7.9335 Y7.8766
G01 X7.9389 Y7.8685
G01 X7.9427 Y7.8595
G01 X7.9446 Y7.8499
G01 X7.9450 Y7.8413
G01 X7.9450 Y7.2987
G01 X7.9950 Y7.2975
G01 X7.9944 Y7.2852
G01 X7.9930 Y7.2755
G01 X7.9906 Y7.2660
G01 X7.9873 Y7.2568
G01 X7.9831 Y7.2479
G01 X7.9780 Y7.2395
G01 X7.9722 Y7.2316
G01 X7.9656 Y7.2244
G01 X7.9584 Y7.2178
G01 X7.9505 Y7.2120
G01 X7.9421 Y7.2069
G01 X7.9332 Y7.2027
G01 X7.9240 Y7.1994
G01 X7.9145 Y7.1970
G01 X7.9048 Y7.1956
G01 X7.8925 Y7.1950
G01 X7.4975 Y7.1950
G01 X7.4852 Y7.1956
G01 X7.4755 Y7.1970
G01 X7.4660 Y7.1994
G01 X7.4568 Y7.2027
G01 X7.4479 Y7.2069
G01 X7.4395 Y7.2120
G01 X7.4316 Y7.2178
G01 X7.4244 Y7.2244
G01 X7.4178 Y7.2316
G01 X7.4120 Y7.2395
G01 X7.4069 Y7.2479
G01 X7.4027 Y7.2568
G01 X7.3994 Y7.2660
G01 X7.3970 Y7.2755
G01 X7.3956 Y7.2852
G01 X7.3950 Y7.2975
G01 X7.3950 Y7.8425
G01 X7.3956 Y7.8548
G01 X7.3970 Y7.8645
G01 X7.3994 Y7.8740
G01 X7.4027 Y7.8832
G01 X7.4069 Y7.8921
G01 X7.4120 Y7.9005
G01 X7.4178 Y7.9084
G01 X7.4244 Y7.9156
G01 X7.4316 Y7.9222
G01 X7.4395 Y7.9280
G01 X7.4479 Y7.9331
G01 X7.4568 Y7.9373
G01 X7.4660 Y7.9406
G01 X7.4755 Y7.9430
G01 X7.4852 Y7.9444
G01 X7.4975 Y7.9450
G01 X7.8925 Y7.9450
G01 X7.9048 Y7.9444
G01 X7.9145 Y7.9430
G01 X7.9240 Y7.9406
G01 X7.9332 Y7.9373
G01 X7.9421 Y7.9331
G01 X7.9505 Y7.9280
G01 X7.9584 Y7.9222
G01 X7.9656 Y7.9156
G01 X7.9722 Y7.9084
G01 X7.9780 Y7.9005
G01 X7.9831 Y7.8921
G01 X7.9873 Y7.8832
G01 X7.9906 Y7.8740
G01 X7.9930 Y7.8645
G01 X7.9944 Y7.8548
G01 X7.9950 Y7.8425
G01 X7.9950 Y7.2975
G01 X8.0450 Y7.2962
G01 X8.0442 Y7.2803
G01 X8.0421 Y7.2657
G01 X8.0385 Y7.2515
G01 X8.0335 Y7.2376
G01 X8.0272 Y7.2243
G01 X8.0197 Y7.2117
G01 X8.0109 Y7.1999
G01 X8.0010 Y7.1890
G01 X7.9901 Y7.1791
G01 X7.9783 Y7.1703
G01 X7.9657 Y7.1628
G01 X7.9524 Y7.1565
G01 X7.9385 Y7.1515
G01 X7.9243 Y7.1479
G01 X7.9097 Y7.1458
G01 X7.8938 Y7.1450
G01 X7.4962 Y7.1450
G01 X7.4803 Y7.1458
G01 X7.4657 Y7.1479
G01 X7.4515 Y7.1515
G01 X7.4376 Y7.1565
G01 X7.4243 Y7.1628
G01 X7.4117 Y7.1703
G01 X7.3999 Y7.1791
G01 X7.3890 Y7.1890
G01 X7.3791 Y7.1999
G01 X7.3703 Y7.2117
G01 X7.3628 Y7.2243
G01 X7.3565 Y7.2376
G01 X7.3515 Y7.2515
G01 X7.3479 Y7.2657
G01 X7.3458 Y7.2803
G01 X7.3450 Y7.2962
G01 X7.3450 Y7.8438
G01 X7.3458 Y7.8597
G01 X7.3479 Y7.8743
G01 X7.3515 Y7.8885
G01 X7.3565 Y7.9024
G01 X7.3628 Y7.9157
G01 X7.3703 Y7.9283
G01 X7.3791 Y7.9401
G01 X7.3890 Y7.9510
G01 X7.3999 Y7.9609
G01 X7.4117 Y7.9697
G01 X7.4243 Y7.9772
G01 X7.4376 Y7.9835
G01 X7.4515 Y7.9885
G01 X7.4657 Y7.9921
G01 X7.4803 Y7.9942
G01 X7.4962 Y7.9950
G01 X7.8938 Y7.9950
G01 X7.9097 Y7.9942
G01 X7.9243 Y7.9921
G01 X7.9385 Y7.9885
G01 X7.9524 Y7.9835
G01 X7.9657 Y7.9772
G01 X7.9783 Y7.9697
G01 X7.9901 Y7.9609
G01 X8.0010 Y7.9510
G01 X8.0109 Y7.9401
G01 X8.0197 Y7.9283
G01 X8.0272 Y7.9157
G01 X8.0335 Y7.9024
G01 X8.0385 Y7.8885
G01 X8.0421 Y7.8743
G01 X8.0442 Y7.8597
G01 X8.0450 Y7.8438
G01 X8.0450 Y7.2962
G01 X7.6450 Y7.6950
G01 X7.7450 Y7.6950
G01 X7.7450 Y7.4450
G01 X7.6450 Y7.4450
G01 X7.6450 Y7.6950
G01 X7.5950 Y7.7450
G01 X7.7950 Y7.7450
G01 X7.7950 Y7.3950
G01 X7.5950 Y7.3950
G01 X7.5950 Y7.7450
G01 X7.5450 Y7.7950
G01 X7.8450 Y7.7950
G01 X7.8450 Y7.3450
G01 X7.5450 Y7.3450
G01 X7.5450 Y7.7950
G01 X7.4952 Y7.8448
G01 X7.4999 Y7.8450
G01 X7.8948 Y7.8448
G01 X7.8950 Y7.8401
G01 X7.8950 Y7.2999
G01 X7.8948 Y7.2952
G01 X7.8901 Y7.2950
G01 X7.4952 Y7.2952
G01 X7.4952 Y7.8448
G00 Z2.0000
G00 X6.2950 Y7.2987
G01 F60.00
G01 Z-0.1000
G01 F120.00
G01 X6.2946 Y7.2901
G01 X6.2927 Y7.2805
G01 X6.2889 Y7.2715
G01 X6.2835 Y7.2634
G01 X6.2766 Y7.2565
G01 X6.2685 Y7.2511
G01 X6.2595 Y7.2473
G01 X6.2499 Y7.2454
G01 X6.2413 Y7.2450
G01 X5.8487 Y7.2450
G01 X5.8401 Y7.2454
G01 X5.8353 Y7.2461
G01 X5.8259 Y7.2490
G01 X5.8215 Y7.2511
G01 X5.8134 Y7.2565
G01 X5.8065 Y7.2634
G01 X5.8011 Y7.2715
G01 X5.7973 Y7.2805
G01 X5.7954 Y7.2901
G01 X5.7950 Y7.2987
G01 X5.7950 Y7.8413
G01 X5.7954 Y7.8499
G01 X5.7961 Y7.8547
G01 X5.7990 Y7.8641
G01 X5.8036 Y7.8727
G01 X5.8098 Y7.8802
G01 X5.8134 Y7.8835
G01 X5.8215 Y7.8889
G01 X5.8305 Y7.8927
G01 X5.8401 Y7.8946
G01 X5.8487 Y7.8950
G01 X6.2413 Y7.8950
G01 X6.2499 Y7.8946
G01 X6.2547 Y7.8939
G01 X6.2641 Y7.8910
G01 X6.2685 Y7.8889
G01 X6.2766 Y7.8835
G01 X6.2835 Y7.8766
G01 X6.2889 Y7.8685
G01 X6.2927 Y7.8595
G01 X6.2946 Y7.8499
G01 X6.2950 Y7.8413
G01 X6.2950 Y7.2987
G01 X6.3450 Y7.2975
G01 X6.3444 Y7.2852
G01 X6.3430 Y7.2755
G01 X6.3406 Y7.2660
G01 X6.3373 Y7.2568
G01 X6.3331 Y7.2479
G01 X6.3280 Y7.2395
G01 X6.3222 Y7.2316
G01 X6.3156 Y7.2244
G01 X6.3084 Y7.2178
G01 X6.3005 Y7.2120
G01 X6.2921 Y7.2069
G01 X6.2832 Y7.2027
G01 X6.2740 Y7.1994
G01 X6.2645 Y7.1970
G01 X6.2548 Y7.1956
G01 X6.2425 Y7.1950
G01 X5.8475 Y7.1950
G01 X5.8352 Y7.1956
G01 X5.8255 Y7.1970
G01 X5.8160 Y7.1994
G01 X5.8068 Y7.2027
G01 X5.7979 Y7.2069
G01 X5.7895 Y7.2120
G01 X5.7816 Y7.2178
G01 X5.7744 Y7.2244
G01 X5.7678 Y7.2316
G01 X5.7620 Y7.2395
G01 X5.7569 Y7.2479
G01 X5.7527 Y7.2568
G01 X5.7494 Y7.2660
G01 X5.7470 Y7.2755
G01 X5.7456 Y7.2852
G01 X5.7450 Y7.2975
G01 X5.7450 Y7.8425
G01 X5.7456 Y7.8548
G01 X5.7470 Y7.8645
G01 X5.7494 Y7.8740
G01 X5.7527 Y7.8832
G01 X5.7569 Y7.8921
G01 X5.7620 Y7.9005
G01 X5.7678 Y7.9084
G01 X5.7744 Y7.9156
G01 X5.7816 Y7.9222
G01 X5.7895 Y7.9280
G01 X5.7979 Y7.9331
G01 X5.8068 Y7.9373
G01 X5.8160 Y7.9406
G01 X5.8255 Y7.9430
G01 X5.8352 Y7.9444
G01 X5.8475 Y7.9450
G01 X6.2425 Y7.9450
G01 X6.2548 Y7.9444
G01 X6.2645 Y7.9430
G01 X6.2740 Y7.9406
G01 X6.2832 Y7.9373
G01 X6.2921 Y7.9331
G01 X6.3005 Y7.9280
G01 X6.3084 Y7.9222
G01 X6.3156 Y7.9156
G01 X6.3222 Y7.9084
G01 X6.3280 Y7.9005
G01 X6.3331 Y7.8921
G01 X6.3373 Y7.8832
G01 X6.3406 Y7.8740
G01 X6.3430 Y7.8645
G01 X6.3444 Y7.8548
G01 X6.3450 Y7.8425
G01 X6.3450 Y7.2975
G01 X6.3950 Y7.2962
G01 X6.3942 Y7.2803
G01 X6.3921 Y7.2657
G01 X6.3885 Y7.2515
G01 X6.3835 Y7.2376
G01 X6.3772 Y7.2243
G01 X6.3697 Y7.2117
G01 X6.3609 Y7.1999
G01 X6.3510 Y7.1890
G01 X6.3401 Y7.1791
G01 X6.3283 Y7.1703
G01 X6.3157 Y7.1628
G01 X6.3024 Y7.1565
G01 X6.2885 Y7.1515
G01 X6.2743 Y7.1479
G01 X6.2597 Y7.1458
G01 X6.2438 Y7.1450
G01 X5.8462 Y7.1450
G01 X5.8303 Y7.1458
G01 X5.8157 Y7.1479
G01 X5.8015 Y7.1515
G01 X5.7876 Y7.1565
G01 X5.7743 Y7.1628
G01 X5.7617 Y7.1703
G01 X5.7499 Y7.1791
G01 X5.7390 Y7.1890
G01 X5.7291 Y7.1999
G01 X5.7203 Y7.2117
G01 X5.7128 Y7.2243
G01 X5.7065 Y7.2376
G01 X5.7015 Y7.2515
G01 X5.6979 Y7.2657
G01 X5.6958 Y7.2803
G01 X5.6950 Y7.2962
G01 X5.6950 Y7.8438
G01 X5.6958 Y7.8597
G01 X5.6979 Y7.8743
G01 X5.7015 Y7.8885
G01 X5.7065 Y7.9024
G01 X5.7128 Y7.9157
G01 X5.7203 Y7.9283
G01 X5.7291 Y7.9401
G01 X5.7390 Y7.9510
G01 X5.7499 Y7.9609
G01 X5.7617 Y7.9697
G01 X5.7743 Y7.9772
G01 X5.7876 Y7.9835
G01 X5.8015 Y7.9885
G01 X5.8157 Y7.9921
G01 X5.8303 Y7.9942
G01 X5.8462 Y7.9950
G01 X6.2438 Y7.9950
G01 X6.2597 Y7.9942
G01 X6.2743 Y7.9921
G01 X6.2885 Y7.9885
G01 X6.3024 Y7.9835
G01 X6.3157 Y7.9772
G01 X6.3283 Y7.9697
G01 X6.3401 Y7.9609
G01 X6.3510 Y7.9510
G01 X6.3609 Y7.9401
G01 X6.3697 Y7.9283
G01 X6.3772 Y7.9157
G01 X6.3835 Y7.9024
G01 X6.3885 Y7.8885
G01 X6.3921 Y7.8743
G01 X6.3942 Y7.8597
G01 X6.3950 Y7.8438
G01 X6.3950 Y7.2962
G01 X5.9950 Y7.6950
G01 X6.0950 Y7.6950
G01 X6.0950 Y7.4450
G01 X5.9950 Y7.4450
G01 X5.9950 Y7.6950
G01 X5.9450 Y7.7450
G01 X6.1450 Y7.7450
G01 X6.1450 Y7.3950
G01 X5.9450 Y7.3950
G01 X5.9450 Y7.7450
G01 X5.8950 Y7.7950
G01 X6.1950 Y7.7950
G01 X6.1950 Y7.3450
G01 X5.8950 Y7.3450
G01 X5.8950 Y7.7950
G01 X5.8452 Y7.8448
G01 X5.8499 Y7.8450
G01 X6.2448 Y7.8448
G01 X6.2450 Y7.8401
G01 X6.2450 Y7.2999
G01 X6.2448 Y7.2952
G01 X6.2401 Y7.2950
G01 X5.8452 Y7.2952
G01 X5.8452 Y7.8448
G00 Z2.0000
G00 X4.2950 Y7.8912
G01 F60.00
G01 Z-0.1000
G01 F120.00
G01 X4.2950 Y8.3888
G01 X4.2941 Y8.4071
G01 X4.2916 Y8.4241
G01 X4.2874 Y8.4408
G01 X4.2816 Y8.4569
G01 X4.2743 Y8.4725
G01 X4.2655 Y8.4872
G01 X4.2552 Y8.5010
G01 X4.2437 Y8.5137
G01 X4.2310 Y8.5252
G01 X4.2172 Y8.5355
G01 X4.2025 Y8.5443
G01 X4.1869 Y8.5516
G01 X4.1708 Y8.5574
G01 X4.1541 Y8.5616
G01 X4.1371 Y8.5641
G01 X4.1188 Y8.5650
G01 X3.6712 Y8.5650
G01 X3.6529 Y8.5641
G01 X3.6359 Y8.5616
G01 X3.6192 Y8.5574
G01 X3.6031 Y8.5516
G01 X3.5875 Y8.5443
G01 X3.5728 Y8.5355
G01 X3.5590 Y8.5252
G01 X3.5463 Y8.5137
G01 X3.5348 Y8.5010
G01 X3.5245 Y8.4872
G01 X3.5157 Y8.4725
G01 X3.5084 Y8.4569
G01 X3.5026 Y8.4408
G01 X3.4984 Y8.4241
G01 X3.4959 Y8.4071
G01 X3.4950 Y8.3888
G01 X3.4950 Y7.8912
G01 X3.4959 Y7.8729
G01 X3.4984 Y7.8559
G01 X3.5026 Y7.8392
G01 X3.5084 Y7.8231
G01 X3.5157 Y7.8075
G01 X3.5245 Y7.7928
G01 X3.5348 Y7.7790
G01 X3.5463 Y7.7663
G01 X3.5590 Y7.7548
G01 X3.5728 Y7.7445
G01 X3.5875 Y7.7357
G01 X3.6031 Y7.7284
G01 X3.6192 Y7.7226
G01 X3.6359 Y7.7184
G01 X3.6529 Y7.7159
G01 X3.6712 Y7.7150
G01 X4.1188 Y7.7150
G01 X4.1371 Y7.7159
G01 X4.1541 Y7.7184
G01 X4.1708 Y7.7226
G01 X4.1869 Y7.7284
G01 X4.2025 Y7.7357
G01 X4.2172 Y7.7445
G01 X4.2310 Y7.7548
G01 X4.2437 Y7.7663
G01 X4.2552 Y7.7790
G01 X4.2655 Y7.7928
G01 X4.2743 Y7.8075
G01 X4.2816 Y7.8231
G01 X4.2874 Y7.8392
G01 X4.2916 Y7.8559
G01 X4.2941 Y7.8729
G01 X4.2950 Y7.8912
G01 X4.2450 Y7.8925
G01 X4.2450 Y8.3875
G01 X4.2443 Y8.4022
G01 X4.2425 Y8.4144
G01 X4.2395 Y8.4263
G01 X4.2354 Y8.4378
G01 X4.2301 Y8.4489
G01 X4.2238 Y8.4594
G01 X4.2165 Y8.4692
G01 X4.2083 Y8.4783
G01 X4.1992 Y8.4865
G01 X4.1894 Y8.4938
G01 X4.1789 Y8.5001
G01 X4.1678 Y8.5054
G01 X4.1563 Y8.5095
G01 X4.1444 Y8.5125
G01 X4.1322 Y8.5143
G01 X4.1175 Y8.5150
G01 X3.6725 Y8.5150
G01 X3.6578 Y8.5143
G01 X3.6456 Y8.5125
G01 X3.6337 Y8.5095
G01 X3.6222 Y8.5054
G01 X3.6111 Y8.5001
G01 X3.6006 Y8.4938
G01 X3.5908 Y8.4865
G01 X3.5817 Y8.4783
G01 X3.5735 Y8.4692
G01 X3.5662 Y8.4594
G01 X3.5599 Y8.4489
G01 X3.5546 Y8.4378
G01 X3.5505 Y8.4263
G01 X3.5475 Y8.4144
G01 X3.5457 Y8.4022
G01 X3.5450 Y8.3875
G01 X3.5450 Y7.8925
G01 X3.5457 Y7.8778
G01 X3.5475 Y7.8656
G01 X3.5505 Y7.8537
G01 X3.5546 Y7.8422
G01 X3.5599 Y7.8311
G01 X3.5662 Y7.8206
G01 X3.5735 Y7.8108
G01 X3.5817 Y7.8017
G01 X3.5908 Y7.7935
G01 X3.6006 Y7.7862
G01 X3.6111 Y7.7799
G01 X3.6222 Y7.7746
G01 X3.6337 Y7.7705
G01 X3.6456 Y7.7675
G01 X3.6578 Y7.7657
G01 X3.6725 Y7.7650
G01 X4.1175 Y7.7650
G01 X4.1322 Y7.7657
G01 X4.1444 Y7.7675
G01 X4.1563 Y7.7705
G01 X4.1678 Y7.7746
G01 X4.1789 Y7.7799
G01 X4.1894 Y7.7862
G01 X4.1992 Y7.7935
G01 X4.2083 Y7.8017
G01 X4.2165 Y7.8108
G01 X4.2238 Y7.8206
G01 X4.2301 Y7.8311
G01 X4.2354 Y7.8422
G01 X4.2395 Y7.8537
G01 X4.2425 Y7.8656
G01 X4.2443 Y7.8778
G01 X4.2450 Y7.8925
G01 X4.1950 Y7.8937
G01 X4.1950 Y8.3863
G01 X4.1945 Y8.3973
G01 X4.1934 Y8.4046
G01 X4.1916 Y8.4117
G01 X4.1891 Y8.4186
G01 X4.1860 Y8.4253
G01 X4.1822 Y8.4316
G01 X4.1778 Y8.4375
G01 X4.1729 Y8.4429
G01 X4.1675 Y8.4478
G01 X4.1616 Y8.4522
G01 X4.1553 Y8.4560
G01 X4.1486 Y8.4591
G01 X4.1417 Y8.4616
G01 X4.1346 Y8.4634
G01 X4.1273 Y8.4645
G01 X4.1163 Y8.4650
G01 X3.6737 Y8.4650
G01 X3.6627 Y8.4645
G01 X3.6554 Y8.4634
G01 X3.6483 Y8.4616
G01 X3.6414 Y8.4591
G01 X3.6347 Y8.4560
G01 X3.6284 Y8.4522
G01 X3.6225 Y8.4478
G01 X3.6171 Y8.4429
G01 X3.6122 Y8.4375
G01 X3.6078 Y8.4316
G01 X3.6040 Y8.4253
G01 X3.6009 Y8.4186
G01 X3.5984 Y8.4117
G01 X3.5966 Y8.4046
G01 X3.5955 Y8.3973
G01 X3.5950 Y8.3863
G01 X3.5950 Y7.8937
G01 X3.5955 Y7.8827
G01 X3.5966 Y7.8754
G01 X3.5984 Y7.8683
G01 X3.6009 Y7.8614
G01 X3.6040 Y7.8547
G01 X3.6078 Y7.8484
G01 X3.6122 Y7.8425
G01 X3.6171 Y7.8371
G01 X3.6225 Y7.8322
G01 X3.6284 Y7.8278
G01 X3.6347 Y7.8240
G01 X3.6414 Y7.8209
G01 X3.6483 Y7.8184
G01 X3.6554 Y7.8166
G01 X3.6627 Y7.8155
G01 X3.6737 Y7.8150
G01 X4.1163 Y7.8150
G01 X4.1273 Y7.8155
G01 X4.1346 Y7.8166
G01 X4.1417 Y7.8184
G01 X4.1486 Y7.8209
G01 X4.1553 Y7.8240
G01 X4.1616 Y7.8278
G01 X4.1675 Y7.8322
G01 X4.1729 Y7.8371
G01 X4.1778 Y7.8425
G01 X4.1822 Y7.8484
G01 X4.1860 Y7.8547
G01 X4.1891 Y7.8614
G01 X4.1916 Y7.8683
G01 X4.1934 Y7.8754
G01 X4.1945 Y7.8827
G01 X4.1950 Y7.8937
G01 X4.1450 Y7.8949
G01 X4.1450 Y8.3851
G01 X4.1443 Y8.3948
G01 X4.1429 Y8.3995
G01 X4.1406 Y8.4038
G01 X4.1375 Y8.4075
G01 X4.1338 Y8.4106
G01 X4.1295 Y8.4129
G01 X4.1248 Y8.4143
G01 X4.1151 Y8.4150
G01 X3.6749 Y8.4150
G01 X3.6676 Y8.4146
G01 X3.6628 Y8.4137
G01 X3.6583 Y8.4118
G01 X3.6525 Y8.4075
G01 X3.6494 Y8.4038
G01 X3.6463 Y8.3972
G01 X3.6454 Y8.3924
G01 X3.6450 Y8.3851
G01 X3.6450 Y7.8949
G01 X3.6454 Y7.8876
G01 X3.6463 Y7.8828
G01 X3.6494 Y7.8762
G01 X3.6525 Y7.8725
G01 X3.6583 Y7.8682
G01 X3.6628 Y7.8663
G01 X3.6676 Y7.8654
G01 X3.6749 Y7.8650
G01 X4.1151 Y7.8650
G01 X4.1224 Y7.8654
G01 X4.1295 Y7.8671
G01 X4.1357 Y7.8709
G01 X4.1391 Y7.8743
G01 X4.1418 Y7.8783
G01 X4.1437 Y7.8828
G01 X4.1446 Y7.8876
G01 X4.1450 Y7.8949
G01 X3.8450 Y8.0650
G01 X3.9450 Y8.0650
G01 X3.9450 Y8.2150
G01 X3.8450 Y8.2150
G01 X3.8450 Y8.0650
G01 X3.7950 Y8.0150
G01 X3.9950 Y8.0150
G01 X3.9950 Y8.2650
G01 X3.7950 Y8.2650
G01 X3.7950 Y8.0150
G01 X3.7450 Y7.9650
G01 X4.0450 Y7.9650
G01 X4.0450 Y8.3150
G01 X3.7450 Y8.3150
G01 X3.7450 Y7.9650
G01 X3.6950 Y7.9150
G01 X4.0950 Y7.9150
G01 X4.0950 Y8.3650
G01 X3.6950 Y8.3650
G01 X3.6950 Y7.9150
G00 Z2.0000
G00 X2.7450 Y7.8912
G01 F60.00
G01 Z-0.1000
G01 F120.00
G01 X2.7450 Y8.3888
G01 X2.7441 Y8.4071
G01 X2.7416 Y8.4241
G01 X2.7374 Y8.4408
G01 X2.7316 Y8.4569
G01 X2.7243 Y8.4725
G01 X2.7155 Y8.4872
G01 X2.7052 Y8.5010
G01 X2.6937 Y8.5137
G01 X2.6810 Y8.5252
G01 X2.6672 Y8.5355
G01 X2.6525 Y8.5443
G01 X2.6369 Y8.5516
G01 X2.6208 Y8.5574
G01 X2.6041 Y8.5616
G01 X2.5871 Y8.5641
G01 X2.5688 Y8.5650
G01 X2.1212 Y8.5650
G01 X2.1029 Y8.5641
G01 X2.0859 Y8.5616
G01 X2.0692 Y8.5574
G01 X2.0531 Y8.5516
G01 X2.0375 Y8.5443
G01 X2.0228 Y8.5355
G01 X2.0090 Y8.5252
G01 X1.9963 Y8.5137
G01 X1.9848 Y8.5010
G01 X1.9745 Y8.4872
G01 X1.9657 Y8.4725
G01 X1.9584 Y8.4569
G01 X1.9526 Y8.4408
G01 X1.9484 Y8.4241
G01 X1.9459 Y8.4071
G01 X1.9450 Y8.3888
G01 X1.9450 Y7.8912
G01 X1.9459 Y7.8729
G01 X1.9484 Y7.8559
G01 X1.9526 Y7.8392
G01 X1.9584 Y7.8231
G01 X1.9657 Y7.8075
G01 X1.9745 Y7.7928
G01 X1.9848 Y7.7790
G01 X1.9963 Y7.7663
G01 X2.0090 Y7.7548
G01 X2.0228 Y7.7445
G01 X2.0375 Y7.7357
G01 X2.0531 Y7.7284
G01 X2.0692 Y7.7226
G01 X2.0859 Y7.7184
G01 X2.1029 Y7.7159
G01 X2.1212 Y7.7150
G01 X2.5688 Y7.7150
G01 X2.5871 Y7.7159
G01 X2.6041 Y7.7184
G01 X2.6208 Y7.7226
G01 X2.6369 Y7.7284
G01 X2.6525 Y7.7357
G01 X2.6672 Y7.7445
G01 X2.6810 Y7.7548
G01 X2.6937 Y7.7663
G01 X2.7052 Y7.7790
G01 X2.7155 Y7.7928
G01 X2.7243 Y7.8075
G01 X2.7316 Y7.8231
G01 X2.7374 Y7.8392
G01 X2.7416 Y7.8559
G01 X2.7441 Y7.8729
G01 X2.7450 Y7.8912
G01 X2.6950 Y7.8925
G01 X2.6950 Y8.3875
G01 X2.6943 Y8.4022
G01 X2.6925 Y8.4144
G01 X2.6895 Y8.4263
G01 X2.6854 Y8.4378
G01 X2.6801 Y8.4489
G01 X2.6738 Y8.4594
G01 X2.6665 Y8.4692
G01 X2.6583 Y8.4783
G01 X2.6492 Y8.4865
G01 X2.6394 Y8.4938
G01 X2.6289 Y8.5001
G01 X2.6178 Y8.5054
G01 X2.6063 Y8.5095
G01 X2.5944 Y8.5125
G01 X2.5822 Y8.5143
G01 X2.5675 Y8.5150
G01 X2.1225 Y8.5150
G01 X2.1078 Y8.5143
G01 X2.0956 Y8.5125
G01 X2.0837 Y8.5095
G01 X2.0722 Y8.5054
G01 X2.0611 Y8.5001
G01 X2.0506 Y8.4938
G01 X2.0408 Y8.4865
G01 X2.0317 Y8.4783
G01 X2.0235 Y8.4692
G01 X2.0162 Y8.4594
G01 X2.0099 Y8.4489
G01 X2.0046 Y8.4378
G01 X2.0005 Y8.4263
G01 X1.9975 Y8.4144
G01 X1.9957 Y8.4022
G01 X1.9950 Y8.3875
G01 X1.9950 Y7.8925
G01 X1.9957 Y7.8778
G01 X1.9975 Y7.8656
G01 X2.0005 Y7.8537
G01 X2.0046 Y7.8422
G01 X2.0099 Y7.8311
G01 X2.0162 Y7.8206
G01 X2.0235 Y7.8108
G01 X2.0317 Y7.8017
G01 X2.0408 Y7.7935
G01 X2.0506 Y7.7862
G01 X2.0611 Y7.7799
G01 X2.0722 Y7.7746
G01 X2.0837 Y7.7705
G01 X2.0956 Y7.7675
G01 X2.1078 Y7.7657
G01 X2.1225 Y7.7650
G01 X2.5675 Y7.7650
G01 X2.5822 Y7.7657
G01 X2.5944 Y7.7675
G01 X2.6063 Y7.7705
G01 X2.6178 Y7.7746
G01 X2.6289 Y7.7799
G01 X2.6394 Y7.7862
G01 X2.6492 Y7.7935
G01 X2.6583 Y7.8017
G01 X2.6665 Y7.8108
G01 X2.6738 Y7.8206
G01 X2.6801 Y7.8311
G01 X2.6854 Y7.8422
G01 X2.6895 Y7.8537
G01 X2.6925 Y7.8656
G01 X2.6943 Y7.8778
G01 X2.6950 Y7.8925
G01 X2.6450 Y7.8937
G01 X2.6450 Y8.3863
G01 X2.6445 Y8.3973
G01 X2.6434 Y8.4046
G01 X2.6416 Y8.4117
G01 X2.6391 Y8.4186
G01 X2.6360 Y8.4253
G01 X2.6322 Y8.4316
G01 X2.6278 Y8.4375
G01 X2.6229 Y8.4429
G01 X2.6175 Y8.4478
G01 X2.6116 Y8.4522
G01 X2.6053 Y8.4560
G01 X2.5986 Y8.4591
G01 X2.5917 Y8.4616
G01 X2.5846 Y8.4634
G01 X2.5773 Y8.4645
G01 X2.5663 Y8.4650
G01 X2.1237 Y8.4650
G01 X2.1127 Y8.4645
G01 X2.1054 Y8.4634
G01 X2.0983 Y8.4616
G01 X2.0914 Y8.4591
G01 X2.0847 Y8.4560
G01 X2.0784 Y8.4522
G01 X2.0725 Y8.4478
G01 X2.0671 Y8.4429
G01 X2.0622 Y8.4375
G01 X2.0578 Y8.4316
G01 X2.0540 Y8.4253
G01 X2.0509 Y8.4186
G01 X2.0484 Y8.4117
G01 X2.0466 Y8.4046
G01 X2.0455 Y8.3973
G01 X2.0450 Y8.3863
G01 X2.0450 Y7.8937
G01 X2.0455 Y7.8827
G01 X2.0466 Y7.8754
G01 X2.0484 Y7.8683
G01 X2.0509 Y7.8614
G01 X2.0540 Y7.8547
G01 X2.0578 Y7.8484
G01 X2.0622 Y7.8425
G01 X2.0671 Y7.8371
G01 X2.0725 Y7.8322
G01 X2.0784 Y7.8278
G01 X2.0847 Y7.8240
G01 X2.0914 Y7.8209
G01 X2.0983 Y7.8184
G01 X2.1054 Y7.8166
G01 X2.1127 Y7.8155
G01 X2.1237 Y7.8150
G01 X2.5663 Y7.8150
G01 X2.5773 Y7.8155
G01 X2.5846 Y7.8166
G01 X2.5917 Y7.8184
G01 X2.5986 Y7.8209
G01 X2.6053 Y7.8240
G01 X2.6116 Y7.8278
G01 X2.6175 Y7.8322
G01 X2.6229 Y7.8371
G01 X2.6278 Y7.8425
G01 X2.6322 Y7.8484
G01 X2.6360 Y7.8547
G01 X2.6391 Y7.8614
G01 X2.6416 Y7.8683
G01 X2.6434 Y7.8754
G01 X2.6445 Y7.8827
G01 X2.6450 Y7.8937
G01 X2.5950 Y7.8949
G01 X2.5950 Y8.3851
G01 X2.5943 Y8.3948
G01 X2.5929 Y8.3995
G01 X2.5906 Y8.4038
G01 X2.5875 Y8.4075
G01 X2.5838 Y8.4106
G01 X2.5795 Y8.4129
G01 X2.5748 Y8.4143
G01 X2.5651 Y8.4150
G01 X2.1249 Y8.4150
G01 X2.1176 Y8.4146
G01 X2.1128 Y8.4137
G01 X2.1083 Y8.4118
G01 X2.1025 Y8.4075
G01 X2.0994 Y8.4038
G01 X2.0963 Y8.3972
G01 X2.0954 Y8.3924
G01 X2.0950 Y8.3851
G01 X2.0950 Y7.8949
G01 X2.0954 Y7.8876
G01 X2.0963 Y7.8828
G01 X2.0994 Y7.8762
G01 X2.1025 Y7.8725
G01 X2.1083 Y7.8682
G01 X2.1128 Y7.8663
G01 X2.1176 Y7.8654
G01 X2.1249 Y7.8650
G01 X2.5651 Y7.8650
G01 X2.5724 Y7.8654
G01 X2.5795 Y7.8671
G01 X2.5857 Y7.8709
G01 X2.5891 Y7.8743
G01 X2.5918 Y7.8783
G01 X2.5937 Y7.8828
G01 X2.5946 Y7.8876
G01 X2.5950 Y7.8949
G01 X2.2950 Y8.0650
G01 X2.3950 Y8.0650
G01 X2.3950 Y8.2150
G01 X2.2950 Y8.2150
G01 X2.2950 Y8.0650
G01 X2.2450 Y8.0150
G01 X2.4450 Y8.0150
G01 X2.4450 Y8.2650
G01 X2.2450 Y8.2650
G01 X2.2450 Y8.0150
G01 X2.1950 Y7.9650
G01 X2.4950 Y7.9650
G01 X2.4950 Y8.3150
G01 X2.1950 Y8.3150
G01 X2.1950 Y7.9650
G01 X2.1450 Y7.9150
G01 X2.5450 Y7.9150
G01 X2.5450 Y8.3650
G01 X2.1450 Y8.3650
G01 X2.1450 Y7.9150
G00 Z2.0000
G00 X4.6150 Y14.2900
G01 F60.00
G01 Z-0.1000
G01 F120.00
G01 X4.6150 Y15.1900
G01 X4.7450 Y15.1900
G01 X4.7450 Y14.2900
G01 X4.6150 Y14.2900
G01 X4.6650 Y14.3400
G01 X4.6650 Y15.1400
G01 X4.6950 Y15.1400
G01 X4.6950 Y14.3400
G01 X4.6650 Y14.3400
G00 Z2.0000
G00 X5.0150 Y14.2900
G01 F60.00
G01 Z-0.1000
G01 F120.00
G01 X5.0150 Y15.1900
G01 X5.1450 Y15.1900
G01 X5.1450 Y14.2900
G01 X5.0150 Y14.2900
G01 X5.0650 Y14.3400
G01 X5.0650 Y15.1400
G01 X5.0950 Y15.1400
G01 X5.0950 Y14.3400
G01 X5.0650 Y14.3400
G00 Z2.0000
G00 X5.4150 Y14.2900
G01 F60.00
G01 Z-0.1000
G01 F120.00
G01 X5.4150 Y15.1900
G01 X5.5450 Y15.1900
G01 X5.5450 Y14.2900
G01 X5.4150 Y14.2900
G01 X5.4650 Y14.3400
G01 X5.4650 Y15.1400
G01 X5.4950 Y15.1400
G01 X5.4950 Y14.3400
G01 X5.4650 Y14.3400
G00 Z2.0000
G00 X5.8150 Y14.2900
G01 F60.00
G01 Z-0.1000
G01 F120.00
G01 X5.8150 Y15.1900
G01 X5.9450 Y15.1900
G01 X5.9450 Y14.2900
G01 X5.8150 Y14.2900
G01 X5.8650 Y14.3400
G01 X5.8650 Y15.1400
G01 X5.8950 Y15.1400
G01 X5.8950 Y14.3400
G01 X5.8650 Y14.3400
G00 Z2.0000
G00 X6.2150 Y14.2900
G01 F60.00
G01 Z-0.1000
G01 F120.00
G01 X6.2150 Y15.1900
G01 X6.3450 Y15.1900
G01 X6.3450 Y14.2900
G01 X6.2150 Y14.2900
G01 X6.2650 Y14.3400
G01 X6.2650 Y15.1400
G01 X6.2950 Y15.1400
G01 X6.2950 Y14.3400
G01 X6.2650 Y14.3400
G00 Z2.0000
G00 X6.6150 Y14.2900
G01 F60.00
G01 Z-0.1000
G01 F120.00
G01 X6.6150 Y15.1900
G01 X6.7450 Y15.1900
G01 X6.7450 Y14.2900
G01 X6.6150 Y14.2900
G01 X6.6650 Y14.3400
G01 X6.6650 Y15.1400
G01 X6.6950 Y15.1400
G01 X6.6950 Y14.3400
G01 X6.6650 Y14.3400
G00 Z2.0000
G00 X7.0150 Y14.2900
G01 F60.00
G01 Z-0.1000
G01 F120.00
G01 X7.0150 Y15.1900
G01 X7.1450 Y15.1900
G01 X7.1450 Y14.2900
G01 X7.0150 Y14.2900
G01 X7.0650 Y14.3400
G01 X7.0650 Y15.1400
G01 X7.0950 Y15.1400
G01 X7.0950 Y14.3400
G01 X7.0650 Y14.3400
G00 Z2.0000
G00 X7.4150 Y14.2900
G01 F60.00
G01 Z-0.1000
G01 F120.00
G01 X7.4150 Y15.1900
G01 X7.5450 Y15.1900
G01 X7.5450 Y14.2900
G01 X7.4150 Y14.2900
G01 X7.4650 Y14.3400
G01 X7.4650 Y15.1400
G01 X7.4950 Y15.1400
G01 X7.4950 Y14.3400
G01 X7.4650 Y14.3400
G00 Z2.0000
G00 X7.8150 Y14.2900
G01 F60.00
G01 Z-0.1000
G01 F120.00
G01 X7.8150 Y15.1900
G01 X7.9450 Y15.1900
G01 X7.9450 Y14.2900
G01 X7.8150 Y14.2900
G01 X7.8650 Y14.3400
G01 X7.8650 Y15.1400
G01 X7.8950 Y15.1400
G01 X7.8950 Y14.3400
G01 X7.8650 Y14.3400
G00 Z2.0000
G00 X8.2150 Y14.2900
G01 F60.00
G01 Z-0.1000
G01 F120.00
G01 X8.2150 Y15.1900
G01 X8.3450 Y15.1900
G01 X8.3450 Y14.2900
G01 X8.2150 Y14.2900
G01 X8.2650 Y14.3400
G01 X8.2650 Y15.1400
G01 X8.2950 Y15.1400
G01 X8.2950 Y14.3400
G01 X8.2650 Y14.3400
G00 Z2.0000
G00 X8.6150 Y14.2900
G01 F60.00
G01 Z-0.1000
G01 F120.00
G01 X8.6150 Y15.1900
G01 X8.7450 Y15.1900
G01 X8.7450 Y14.2900
G01 X8.6150 Y14.2900
G01 X8.6650 Y14.3400
G01 X8.6650 Y15.1400
G01 X8.6950 Y15.1400
G01 X8.6950 Y14.3400
G01 X8.6650 Y14.3400
G00 Z2.0000
G00 X9.0150 Y14.2900
G01 F60.00
G01 Z-0.1000
G01 F120.00
G01 X9.0150 Y15.1900
G01 X9.1450 Y15.1900
G01 X9.1450 Y14.2900
G01 X9.0150 Y14.2900
G01 X9.0650 Y14.3400
G01 X9.0650 Y15.1400
G01 X9.0950 Y15.1400
G01 X9.0950 Y14.3400
G01 X9.0650 Y14.3400
G00 Z2.0000
G00 X9.4150 Y14.2900
G01 F60.00
G01 Z-0.1000
G01 F120.00
G01 X9.4150 Y15.1900
G01 X9.5450 Y15.1900
G01 X9.5450 Y14.2900
G01 X9.4150 Y14.2900
G01 X9.4650 Y14.3400
G01 X9.4650 Y15.1400
G01 X9.4950 Y15.1400
G01 X9.4950 Y14.3400
G01 X9.4650 Y14.3400
G00 Z2.0000
G00 X9.8150 Y14.2900
G01 F60.00
G01 Z-0.1000
G01 F120.00
G01 X9.8150 Y15.1900
G01 X9.9450 Y15.1900
G01 X9.9450 Y14.2900
G01 X9.8150 Y14.2900
G01 X9.8650 Y14.3400
G01 X9.8650 Y15.1400
G01 X9.8950 Y15.1400
G01 X9.8950 Y14.3400
G01 X9.8650 Y14.3400
G00 Z2.0000
G00 X10.2150 Y14.2900
G01 F60.00
G01 Z-0.1000
G01 F120.00
G01 X10.2150 Y15.1900
G01 X10.3450 Y15.1900
G01 X10.3450 Y14.2900
G01 X10.2150 Y14.2900
G01 X10.2650 Y14.3400
G01 X10.2650 Y15.1400
G01 X10.2950 Y15.1400
G01 X10.2950 Y14.3400
G01 X10.2650 Y14.3400
G00 Z2.0000
G00 X10.6150 Y14.2900
G01 F60.00
G01 Z-0.1000
G01 F120.00
G01 X10.6150 Y15.1900
G01 X10.7450 Y15.1900
G01 X10.7450 Y14.2900
G01 X10.6150 Y14.2900
G01 X10.6650 Y14.3400
G01 X10.6650 Y15.1400
G01 X10.6950 Y15.1400
G01 X10.6950 Y14.3400
G01 X10.6650 Y14.3400
G00 Z2.0000
G00 X11.0150 Y14.2900
G01 F60.00
G01 Z-0.1000
G01 F120.00
G01 X11.0150 Y15.1900
G01 X11.1450 Y15.1900
G01 X11.1450 Y14.2900
G01 X11.0150 Y14.2900
G01 X11.0650 Y14.3400
G01 X11.0650 Y15.1400
G01 X11.0950 Y15.1400
G01 X11.0950 Y14.3400
G01 X11.0650 Y14.3400
G00 Z2.0000
G00 X11.6750 Y11.8650
G01 F60.00
G01 Z-0.1000
G01 F120.00
G01 X11.6750 Y12.3150
G01 X12.0750 Y12.3150
G01 X12.0750 Y11.8650
G01 X11.6750 Y11.8650
G01 X11.7250 Y11.9150
G01 X11.7250 Y12.2650
G01 X12.0250 Y12.2650
G01 X12.0250 Y11.9150
G01 X11.7250 Y11.9150
G01 X11.7750 Y11.9650
G01 X11.7750 Y12.2150
G01 X11.9750 Y12.2150
G01 X11.9750 Y11.9650
G01 X11.7750 Y11.9650
G01 X11.8250 Y12.0150
G01 X11.8250 Y12.1650
G01 X11.9250 Y12.1650
G01 X11.9250 Y12.0150
G01 X11.8250 Y12.0150
G01 X12.1250 Y11.8449
G01 X12.1246 Y11.8376
G01 X12.1237 Y11.8328
G01 X12.1218 Y11.8283
G01 X12.1191 Y11.8243
G01 X12.1157 Y11.8209
G01 X12.1095 Y11.8171
G01 X12.1024 Y11.8154
G01 X12.0951 Y11.8150
G01 X11.6549 Y11.8150
G01 X11.6476 Y11.8154
G01 X11.6428 Y11.8163
G01 X11.6383 Y11.8182
G01 X11.6325 Y11.8225
G01 X11.6282 Y11.8283
G01 X11.6263 Y11.8328
G01 X11.6254 Y11.8376
G01 X11.6250 Y11.8449
G01 X11.6250 Y12.3351
G01 X11.6254 Y12.3424
G01 X11.6263 Y12.3472
G01 X11.6294 Y12.3538
G01 X11.6325 Y12.3575
G01 X11.6383 Y12.3618
G01 X11.6428 Y12.3637
G01 X11.6476 Y12.3646
G01 X11.6549 Y12.3650
G01 X12.0951 Y12.3650
G01 X12.1048 Y12.3643
G01 X12.1095 Y12.3629
G01 X12.1138 Y12.3606
G01 X12.1175 Y12.3575
G01 X12.1206 Y12.3538
G01 X12.1229 Y12.3495
G01 X12.1243 Y12.3448
G01 X12.1250 Y12.3351
G01 X12.1250 Y11.8449
G01 X12.1750 Y11.8437
G01 X12.1745 Y11.8327
G01 X12.1734 Y11.8254
G01 X12.1716 Y11.8183
G01 X12.1691 Y11.8114
G01 X12.1660 Y11.8047
G01 X12.1622 Y11.7984
G01 X12.1578 Y11.7925
G01 X12.1529 Y11.7871
G01 X12.1475 Y11.7822
G01 X12.1416 Y11.7778
G01 X12.1353 Y11.7740
G01 X12.1286 Y11.7709
G01 X12.1217 Y11.7684
G01 X12.1146 Y11.7666
G01 X12.1073 Y11.7655
G01 X12.0963 Y11.7650
G01 X11.6537 Y11.7650
G01 X11.6427 Y11.7655
G01 X11.6354 Y11.7666
G01 X11.6283 Y11.7684
G01 X11.6214 Y11.7709
G01 X11.6147 Y11.7740
G01 X11.6084 Y11.7778
G01 X11.6025 Y11.7822
G01 X11.5971 Y11.7871
G01 X11.5922 Y11.7925
G01 X11.5878 Y11.7984
G01 X11.5840 Y11.8047
G01 X11.5809 Y11.8114
G01 X11.5784 Y11.8183
G01 X11.5766 Y11.8254
G01 X11.5755 Y11.8327
G01 X11.5750 Y11.8437
G01 X11.5750 Y12.3363
G01 X11.5755 Y12.3473
G01 X11.5766 Y12.3546
G01 X11.5784 Y12.3617
G01 X11.5809 Y12.3686
G01 X11.5840 Y12.3753
G01 X11.5878 Y12.3816
G01 X11.5922 Y12.3875
G01 X11.5971 Y12.3929
G01 X11.6025 Y12.3978
G01 X11.6084 Y12.4022
G01 X11.6147 Y12.4060
G01 X11.6214 Y12.4091
G01 X11.6283 Y12.4116
G01 X11.6354 Y12.4134
G01 X11.6427 Y12.4145
G01 X11.6537 Y12.4150
G01 X12.0963 Y12.4150
G01 X12.1073 Y12.4145
G01 X12.1146 Y12.4134
G01 X12.1217 Y12.4116
G01 X12.1286 Y12.4091
G01 X12.1353 Y12.4060
G01 X12.1416 Y12.4022
G01 X12.1475 Y12.3978
G01 X12.1529 Y12.3929
G01 X12.1578 Y12.3875
G01 X12.1622 Y12.3816
G01 X12.1660 Y12.3753
G01 X12.1691 Y12.3686
G01 X12.1716 Y12.3617
G01 X12.1734 Y12.3546
G01 X12.1745 Y12.3473
G01 X12.1750 Y12.3363
G01 X12.1750 Y11.8437
G01 X12.2250 Y11.8425
G01 X12.2243 Y11.8278
G01 X12.2225 Y11.8156
G01 X12.2195 Y11.8037
G01 X12.2154 Y11.7922
G01 X12.2101 Y11.7811
G01 X12.2038 Y11.7706
G01 X12.1965 Y11.7608
G01 X12.1883 Y11.7517
G01 X12.1792 Y11.7435
G01 X12.1694 Y11.7362
G01 X12.1589 Y11.7299
G01 X12.1478 Y11.7246
G01 X12.1363 Y11.7205
G01 X12.1244 Y11.7175
G01 X12.1122 Y11.7157
G01 X12.0975 Y11.7150
G01 X11.6525 Y11.7150
G01 X11.6378 Y11.7157
G01 X11.6256 Y11.7175
G01 X11.6137 Y11.7205
G01 X11.6022 Y11.7246
G01 X11.5911 Y11.7299
G01 X11.5806 Y11.7362
G01 X11.5708 Y11.7435
G01 X11.5617 Y11.7517
G01 X11.5535 Y11.7608
G01 X11.5462 Y11.7706
G01 X11.5399 Y11.7811
G01 X11.5346 Y11.7922
G01 X11.5305 Y11.8037
G01 X11.5275 Y11.8156
G01 X11.5257 Y11.8278
G01 X11.5250 Y11.8425
G01 X11.5250 Y12.3375
G01 X11.5257 Y12.3522
G01 X11.5275 Y12.3644
G01 X11.5305 Y12.3763
G01 X11.5346 Y12.3878
G01 X11.5399 Y12.3989
G01 X11.5462 Y12.4094
G01 X11.5535 Y12.4192
G01 X11.5617 Y12.4283
G01 X11.5708 Y12.4365
G01 X11.5806 Y12.4438
G01 X11.5911 Y12.4501
G01 X11.6022 Y12.4554
G01 X11.6137 Y12.4595
G01 X11.6256 Y12.4625
G01 X11.6378 Y12.4643
G01 X11.6525 Y12.4650
G01 X12.0975 Y12.4650
G01 X12.1122 Y12.4643
G01 X12.1244 Y12.4625
G01 X12.1363 Y12.4595
G01 X12.1478 Y12.4554
G01 X12.1589 Y12.4501
G01 X12.1694 Y12.4438
G01 X12.1792 Y12.4365
G01 X12.1883 Y12.4283
G01 X12.1965 Y12.4192
G01 X12.2038 Y12.4094
G01 X12.2101 Y12.3989
G01 X12.2154 Y12.3878
G01 X12.2195 Y12.3763
G01 X12.2225 Y12.3644
G01 X12.2243 Y12.3522
G01 X12.2250 Y12.3375
G01 X12.2250 Y11.8425
G01 X12.2750 Y11.8412
G01 X12.2741 Y11.8229
G01 X12.2716 Y11.8059
G01 X12.2674 Y11.7892
G01 X12.2616 Y11.7731
G01 X12.2543 Y11.7575
G01 X12.2455 Y11.7428
G01 X12.2352 Y11.7290
G01 X12.2237 Y11.7163
G01 X12.2110 Y11.7048
G01 X12.1972 Y11.6945
G01 X12.1825 Y11.6857
G01 X12.1669 Y11.6784
G01 X12.1508 Y11.6726
G01 X12.1341 Y11.6684
G01 X12.1171 Y11.6659
G01 X12.0988 Y11.6650
G01 X11.6512 Y11.6650
G01 X11.6329 Y11.6659
G01 X11.6159 Y11.6684
G01 X11.5992 Y11.6726
G01 X11.5831 Y11.6784
G01 X11.5675 Y11.6857
G01 X11.5528 Y11.6945
G01 X11.5390 Y11.7048
G01 X11.5263 Y11.7163
G01 X11.5148 Y11.7290
G01 X11.5045 Y11.7428
G01 X11.4957 Y11.7575
G01 X11.4884 Y11.7731
G01 X11.4826 Y11.7892
G01 X11.4784 Y11.8059
G01 X11.4759 Y11.8229
G01 X11.4750 Y11.8412
G01 X11.4750 Y12.3388
G01 X11.4759 Y12.3571
G01 X11.4784 Y12.3741
G01 X11.4826 Y12.3908
G01 X11.4884 Y12.4069
G01 X11.4957 Y12.4225
G01 X11.5045 Y12.4372
G01 X11.5148 Y12.4510
G01 X11.5263 Y12.4637
G01 X11.5390 Y12.4752
G01 X11.5528 Y12.4855
G01 X11.5675 Y12.4943
G01 X11.5831 Y12.5016
G01 X11.5992 Y12.5074
G01 X11.6159 Y12.5116
G01 X11.6329 Y12.5141
G01 X11.6512 Y12.5150
G01 X12.0988 Y12.5150
G01 X12.1171 Y12.5141
G01 X12.1341 Y12.5116
G01 X12.1508 Y12.5074
G01 X12.1669 Y12.5016
G01 X12.1825 Y12.4943
G01 X12.1972 Y12.4855
G01 X12.2110 Y12.4752
G01 X12.2237 Y12.4637
G01 X12.2352 Y12.4510
G01 X12.2455 Y12.4372
G01 X12.2543 Y12.4225
G01 X12.2616 Y12.4069
G01 X12.2674 Y12.3908
G01 X12.2716 Y12.3741
G01 X12.2741 Y12.3571
G01 X12.2750 Y12.3388
G01 X12.2750 Y11.8412
G00 Z2.0000
G00 X13.2250 Y11.8650
G01 F60.00
G01 Z-0.1000
G01 F120.00
G01 X13.2250 Y12.3150
G01 X13.6250 Y12.3150
G01 X13.6250 Y11.8650
G01 X13.2250 Y11.8650
G01 X13.2750 Y11.9150
G01 X13.2750 Y12.2650
G01 X13.5750 Y12.2650
G01 X13.5750 Y11.9150
G01 X13.2750 Y11.9150
G01 X13.3250 Y11.9650
G01 X13.3250 Y12.2150
G01 X13.5250 Y12.2150
G01 X13.5250 Y11.9650
G01 X13.3250 Y11.9650
G01 X13.3750 Y12.0150
G01 X13.3750 Y12.1650
G01 X13.4750 Y12.1650
G01 X13.4750 Y12.0150
G01 X13.3750 Y12.0150
G01 X13.6750 Y11.8449
G01 X13.6746 Y11.8376
G01 X13.6737 Y11.8328
G01 X13.6718 Y11.8283
G01 X13.6691 Y11.8243
G01 X13.6657 Y11.8209
G01 X13.6595 Y11.8171
G01 X13.6524 Y11.8154
G01 X13.6451 Y11.8150
G01 X13.2049 Y11.8150
G01 X13.1976 Y11.8154
G01 X13.1928 Y11.8163
G01 X13.1883 Y11.8182
G01 X13.1825 Y11.8225
G01 X13.1782 Y11.8283
G01 X13.1763 Y11.8328
G01 X13.1754 Y11.8376
G01 X13.1750 Y11.8449
G01 X13.1750 Y12.3351
G01 X13.1754 Y12.3424
G01 X13.1763 Y12.3472
G01 X13.1794 Y12.3538
G01 X13.1825 Y12.3575
G01 X13.1883 Y12.3618
G01 X13.1928 Y12.3637
G01 X13.1976 Y12.3646
G01 X13.2049 Y12.3650
G01 X13.6451 Y12.3650
G01 X13.6548 Y12.3643
G01 X13.6595 Y12.3629
G01 X13.6638 Y12.3606
G01 X13.6675 Y12.3575
G01 X13.6706 Y12.3538
G01 X13.6729 Y12.3495
G01 X13.6743 Y12.3448
G01 X13.6750 Y12.3351
G01 X13.6750 Y11.8449
G01 X13.7250 Y11.8437
G01 X13.7245 Y11.8327
G01 X13.7234 Y11.8254
G01 X13.7216 Y11.8183
G01 X13.7191 Y11.8114
G01 X13.7160 Y11.8047
G01 X13.7122 Y11.7984
G01 X13.7078 Y11.7925
G01 X13.7029 Y11.7871
G01 X13.6975 Y11.7822
G01 X13.6916 Y11.7778
G01 X13.6853 Y11.7740
G01 X13.6786 Y11.7709
G01 X13.6717 Y11.7684
G01 X13.6646 Y11.7666
G01 X13.6573 Y11.7655
G01 X13.6463 Y11.7650
G01 X13.2037 Y11.7650
G01 X13.1927 Y11.7655
G01 X13.1854 Y11.7666
G01 X13.1783 Y11.7684
G01 X13.1714 Y11.7709
G01 X13.1647 Y11.7740
G01 X13.1584 Y11.7778
G01 X13.1525 Y11.7822
G01 X13.1471 Y11.7871
G01 X13.1422 Y11.7925
G01 X13.1378 Y11.7984
G01 X13.1340 Y11.8047
G01 X13.1309 Y11.8114
G01 X13.1284 Y11.8183
G01 X13.1266 Y11.8254
G01 X13.1255 Y11.8327
G01 X13.1250 Y11.8437
G01 X13.1250 Y12.3363
G01 X13.1255 Y12.3473
G01 X13.1266 Y12.3546
G01 X13.1284 Y12.3617
G01 X13.1309 Y12.3686
G01 X13.1340 Y12.3753
G01 X13.1378 Y12.3816
G01 X13.1422 Y12.3875
G01 X13.1471 Y12.3929
G01 X13.1525 Y12.3978
G01 X13.1584 Y12.4022
G01 X13.1647 Y12.4060
G01 X13.1714 Y12.4091
G01 X13.1783 Y12.4116
G01 X13.1854 Y12.4134
G01 X13.1927 Y12.4145
G01 X13.2037 Y12.4150
G01 X13.6463 Y12.4150
G01 X13.6573 Y12.4145
G01 X13.6646 Y12.4134
G01 X13.6717 Y12.4116
G01 X13.6786 Y12.4091
G01 X13.6853 Y12.4060
G01 X13.6916 Y12.4022
G01 X13.6975 Y12.3978
G01 X13.7029 Y12.3929
G01 X13.7078 Y12.3875
G01 X13.7122 Y12.3816
G01 X13.7160 Y12.3753
G01 X13.7191 Y12.3686
G01 X13.7216 Y12.3617
G01 X13.7234 Y12.3546
G01 X13.7245 Y12.3473
G01 X13.7250 Y12.3363
G01 X13.7250 Y11.8437
G01 X13.7750 Y11.8425
G01 X13.7743 Y11.8278
G01 X13.7725 Y11.8156
G01 X13.7695 Y11.8037
G01 X13.7654 Y11.7922
G01 X13.7601 Y11.7811
G01 X13.7538 Y11.7706
G01 X13.7465 Y11.7608
G01 X13.7383 Y11.7517
G01 X13.7292 Y11.7435
G01 X13.7194 Y11.7362
G01 X13.7089 Y11.7299
G01 X13.6978 Y11.7246
G01 X13.6863 Y11.7205
G01 X13.6744 Y11.7175
G01 X13.6622 Y11.7157
G01 X13.6475 Y11.7150
G01 X13.2025 Y11.7150
G01 X13.1878 Y11.7157
G01 X13.1756 Y11.7175
G01 X13.1637 Y11.7205
G01 X13.1522 Y11.7246
G01 X13.1411 Y11.7299
G01 X13.1306 Y11.7362
G01 X13.1208 Y11.7435
G01 X13.1117 Y11.7517
G01 X13.1035 Y11.7608
G01 X13.0962 Y11.7706
G01 X13.0899 Y11.7811
G01 X13.0846 Y11.7922
G01 X13.0805 Y11.8037
G01 X13.0775 Y11.8156
G01 X13.0757 Y11.8278
G01 X13.0750 Y11.8425
G01 X13.0750 Y12.3375
G01 X13.0757 Y12.3522
G01 X13.0775 Y12.3644
G01 X13.0805 Y12.3763
G01 X13.0846 Y12.3878
G01 X13.0899 Y12.3989
G01 X13.0962 Y12.4094
G01 X13.1035 Y12.4192
G01 X13.1117 Y12.4283
G01 X13.1208 Y12.4365
G01 X13.1306 Y12.4438
G01 X13.1411 Y12.4501
G01 X13.1522 Y12.4554
G01 X13.1637 Y12.4595
G01 X13.1756 Y12.4625
G01 X13.1878 Y12.4643
G01 X13.2025 Y12.4650
G01 X13.6475 Y12.4650
G01 X13.6622 Y12.4643
G01 X13.6744 Y12.4625
G01 X13.6863 Y12.4595
G01 X13.6978 Y12.4554
G01 X13.7089 Y12.4501
G01 X13.7194 Y12.4438
G01 X13.7292 Y12.4365
G01 X13.7383 Y12.4283
G01 X13.7465 Y12.4192
G01 X13.7538 Y12.4094
G01 X13.7601 Y12.3989
G01 X13.7654 Y12.3878
G01 X13.7695 Y12.3763
G01 X13.7725 Y12.3644
G01 X13.7743 Y12.3522
G01 X13.7750 Y12.3375
G01 X13.7750 Y11.8425
G01 X13.8250 Y11.8412
G01 X13.8241 Y11.8229
G01 X13.8216 Y11.8059
G01 X13.8174 Y11.7892
G01 X13.8116 Y11.7731
G01 X13.8043 Y11.7575
G01 X13.7955 Y11.7428
G01 X13.7852 Y11.7290
G01 X13.7737 Y11.7163
G01 X13.7610 Y11.7048
G01 X13.7472 Y11.6945
G01 X13.7325 Y11.6857
G01 X13.7169 Y11.6784
G01 X13.7008 Y11.6726
G01 X13.6841 Y11.6684
G01 X13.6671 Y11.6659
G01 X13.6488 Y11.6650
G01 X13.2012 Y11.6650
G01 X13.1829 Y11.6659
G01 X13.1659 Y11.6684
G01 X13.1492 Y11.6726
G01 X13.1331 Y11.6784
G01 X13.1175 Y11.6857
G01 X13.1028 Y11.6945
G01 X13.0890 Y11.7048
G01 X13.0763 Y11.7163
G01 X13.0648 Y11.7290
G01 X13.0545 Y11.7428
G01 X13.0457 Y11.7575
G01 X13.0384 Y11.7731
G01 X13.0326 Y11.7892
G01 X13.0284 Y11.8059
G01 X13.0259 Y11.8229
G01 X13.0250 Y11.8412
G01 X13.0250 Y12.3388
G01 X13.0259 Y12.3571
G01 X13.0284 Y12.3741
G01 X13.0326 Y12.3908
G01 X13.0384 Y12.4069
G01 X13.0457 Y12.4225
G01 X13.0545 Y12.4372
G01 X13.0648 Y12.4510
G01 X13.0763 Y12.4637
G01 X13.0890 Y12.4752
G01 X13.1028 Y12.4855
G01 X13.1175 Y12.4943
G01 X13.1331 Y12.5016
G01 X13.1492 Y12.5074
G01 X13.1659 Y12.5116
G01 X13.1829 Y12.5141
G01 X13.2012 Y12.5150
G01 X13.6488 Y12.5150
G01 X13.6671 Y12.5141
G01 X13.6841 Y12.5116
G01 X13.7008 Y12.5074
G01 X13.7169 Y12.5016
G01 X13.7325 Y12.4943
G01 X13.7472 Y12.4855
G01 X13.7610 Y12.4752
G01 X13.7737 Y12.4637
G01 X13.7852 Y12.4510
G01 X13.7955 Y12.4372
G01 X13.8043 Y12.4225
G01 X13.8116 Y12.4069
G01 X13.8174 Y12.3908
G01 X13.8216 Y12.3741
G01 X13.8241 Y12.3571
G01 X13.8250 Y12.3388
G01 X13.8250 Y11.8412
G00 Z2.0000
G00 X13.8250 Y10.2512
G01 F60.00
G01 Z-0.1000
G01 F120.00
G01 X13.8250 Y10.7488
G01 X13.8241 Y10.7671
G01 X13.8216 Y10.7841
G01 X13.8174 Y10.8008
G01 X13.8116 Y10.8169
G01 X13.8043 Y10.8325
G01 X13.7955 Y10.8472
G01 X13.7852 Y10.8610
G01 X13.7737 Y10.8737
G01 X13.7610 Y10.8852
G01 X13.7472 Y10.8955
G01 X13.7325 Y10.9043
G01 X13.7169 Y10.9116
G01 X13.7008 Y10.9174
G01 X13.6841 Y10.9216
G01 X13.6671 Y10.9241
G01 X13.6488 Y10.9250
G01 X13.2012 Y10.9250
G01 X13.1829 Y10.9241
G01 X13.1659 Y10.9216
G01 X13.1492 Y10.9174
G01 X13.1331 Y10.9116
G01 X13.1175 Y10.9043
G01 X13.1028 Y10.8955
G01 X13.0890 Y10.8852
G01 X13.0763 Y10.8737
G01 X13.0648 Y10.8610
G01 X13.0545 Y10.8472
G01 X13.0457 Y10.8325
G01 X13.0384 Y10.8169
G01 X13.0326 Y10.8008
G01 X13.0284 Y10.7841
G01 X13.0259 Y10.7671
G01 X13.0250 Y10.7488
G01 X13.0250 Y10.2512
G01 X13.0259 Y10.2329
G01 X13.0284 Y10.2159
G01 X13.0326 Y10.1992
G01 X13.0384 Y10.1831
G01 X13.0457 Y10.1675
G01 X13.0545 Y10.1528
G01 X13.0648 Y10.1390
G01 X13.0763 Y10.1263
G01 X13.0890 Y10.1148
G01 X13.1028 Y10.1045
G01 X13.1175 Y10.0957
G01 X13.1331 Y10.0884
G01 X13.1492 Y10.0826
G01 X13.1659 Y10.0784
G01 X13.1829 Y10.0759
G01 X13.2012 Y10.0750
G01 X13.6488 Y10.0750
G01 X13.6671 Y10.0759
G01 X13.6841 Y10.0784
G01 X13.7008 Y10.0826
G01 X13.7169 Y10.0884
G01 X13.7325 Y10.0957
G01 X13.7472 Y10.1045
G01 X13.7610 Y10.1148
G01 X13.7737 Y10.1263
G01 X13.7852 Y10.1390
G01 X13.7955 Y10.1528
G01 X13.8043 Y10.1675
G01 X13.8116 Y10.1831
G01 X13.8174 Y10.1992
G01 X13.8216 Y10.2159
G01 X13.8241 Y10.2329
G01 X13.8250 Y10.2512
G01 X13.7750 Y10.2525
G01 X13.7750 Y10.7475
G01 X13.7743 Y10.7622
G01 X13.7725 Y10.7744
G01 X13.7695 Y10.7863
G01 X13.7654 Y10.7978
G01 X13.7601 Y10.8089
G01 X13.7538 Y10.8194
G01 X13.7465 Y10.8292
G01 X13.7383 Y10.8383
G01 X13.7292 Y10.8465
G01 X13.7194 Y10.8538
G01 X13.7089 Y10.8601
G01 X13.6978 Y10.8654
G01 X13.6863 Y10.8695
G01 X13.6744 Y10.8725
G01 X13.6622 Y10.8743
G01 X13.6475 Y10.8750
G01 X13.2025 Y10.8750
G01 X13.1878 Y10.8743
G01 X13.1756 Y10.8725
G01 X13.1637 Y10.8695
G01 X13.1522 Y10.8654
G01 X13.1411 Y10.8601
G01 X13.1306 Y10.8538
G01 X13.1208 Y10.8465
G01 X13.1117 Y10.8383
G01 X13.1035 Y10.8292
G01 X13.0962 Y10.8194
G01 X13.0899 Y10.8089
G01 X13.0846 Y10.7978
G01 X13.0805 Y10.7863
G01 X13.0775 Y10.7744
G01 X13.0757 Y10.7622
G01 X13.0750 Y10.7475
G01 X13.0750 Y10.2525
G01 X13.0757 Y10.2378
G01 X13.0775 Y10.2256
G01 X13.0805 Y10.2137
G01 X13.0846 Y10.2022
G01 X13.0899 Y10.1911
G01 X13.0962 Y10.1806
G01 X13.1035 Y10.1708
G01 X13.1117 Y10.1617
G01 X13.1208 Y10.1535
G01 X13.1306 Y10.1462
G01 X13.1411 Y10.1399
G01 X13.1522 Y10.1346
G01 X13.1637 Y10.1305
G01 X13.1756 Y10.1275
G01 X13.1878 Y10.1257
G01 X13.2025 Y10.1250
G01 X13.6475 Y10.1250
G01 X13.6622 Y10.1257
G01 X13.6744 Y10.1275
G01 X13.6863 Y10.1305
G01 X13.6978 Y10.1346
G01 X13.7089 Y10.1399
G01 X13.7194 Y10.1462
G01 X13.7292 Y10.1535
G01 X13.7383 Y10.1617
G01 X13.7465 Y10.1708
G01 X13.7538 Y10.1806
G01 X13.7601 Y10.1911
G01 X13.7654 Y10.2022
G01 X13.7695 Y10.2137
G01 X13.7725 Y10.2256
G01 X13.7743 Y10.2378
G01 X13.7750 Y10.2525
G01 X13.7250 Y10.2537
G01 X13.7250 Y10.7463
G01 X13.7245 Y10.7573
G01 X13.7234 Y10.7646
G01 X13.7216 Y10.7717
G01 X13.7191 Y10.7786
G01 X13.7160 Y10.7853
G01 X13.7122 Y10.7916
G01 X13.7078 Y10.7975
G01 X13.7029 Y10.8029
G01 X13.6975 Y10.8078
G01 X13.6916 Y10.8122
G01 X13.6853 Y10.8160
G01 X13.6786 Y10.8191
G01 X13.6717 Y10.8216
G01 X13.6646 Y10.8234
G01 X13.6573 Y10.8245
G01 X13.6463 Y10.8250
G01 X13.2037 Y10.8250
G01 X13.1927 Y10.8245
G01 X13.1854 Y10.8234
G01 X13.1783 Y10.8216
G01 X13.1714 Y10.8191
G01 X13.1647 Y10.8160
G01 X13.1584 Y10.8122
G01 X13.1525 Y10.8078
G01 X13.1471 Y10.8029
G01 X13.1422 Y10.7975
G01 X13.1378 Y10.7916
G01 X13.1340 Y10.7853
G01 X13.1309 Y10.7786
G01 X13.1284 Y10.7717
G01 X13.1266 Y10.7646
G01 X13.1255 Y10.7573
G01 X13.1250 Y10.7463
G01 X13.1250 Y10.2537
G01 X13.1255 Y10.2427
G01 X13.1266 Y10.2354
G01 X13.1284 Y10.2283
G01 X13.1309 Y10.2214
G01 X13.1340 Y10.2147
G01 X13.1378 Y10.2084
G01 X13.1422 Y10.2025
G01 X13.1471 Y10.1971
G01 X13.1525 Y10.1922
G01 X13.1584 Y10.1878
G01 X13.1647 Y10.1840
G01 X13.1714 Y10.1809
G01 X13.1783 Y10.1784
G01 X13.1854 Y10.1766
G01 X13.1927 Y10.1755
G01 X13.2037 Y10.1750
G01 X13.6463 Y10.1750
G01 X13.6573 Y10.1755
G01 X13.6646 Y10.1766
G01 X13.6717 Y10.1784
G01 X13.6786 Y10.1809
G01 X13.6853 Y10.1840
G01 X13.6916 Y10.1878
G01 X13.6975 Y10.1922
G01 X13.7029 Y10.1971
G01 X13.7078 Y10.2025
G01 X13.7122 Y10.2084
G01 X13.7160 Y10.2147
G01 X13.7191 Y10.2214
G01 X13.7216 Y10.2283
G01 X13.7234 Y10.2354
G01 X13.7245 Y10.2427
G01 X13.7250 Y10.2537
G01 X13.6750 Y10.2549
G01 X13.6750 Y10.7451
G01 X13.6743 Y10.7548
G01 X13.6729 Y10.7595
G01 X13.6706 Y10.7638
G01 X13.6675 Y10.7675
G01 X13.6638 Y10.7706
G01 X13.6595 Y10.7729
G01 X13.6548 Y10.7743
G01 X13.6451 Y10.7750
G01 X13.2049 Y10.7750
G01 X13.1976 Y10.7746
G01 X13.1928 Y10.7737
G01 X13.1883 Y10.7718
G01 X13.1825 Y10.7675
G01 X13.1794 Y10.7638
G01 X13.1763 Y10.7572
G01 X13.1754 Y10.7524
G01 X13.1750 Y10.7451
G01 X13.1750 Y10.2549
G01 X13.1754 Y10.2476
G01 X13.1763 Y10.2428
G01 X13.1782 Y10.2383
G01 X13.1825 Y10.2325
G01 X13.1883 Y10.2282
G01 X13.1928 Y10.2263
G01 X13.1976 Y10.2254
G01 X13.2049 Y10.2250
G01 X13.6451 Y10.2250
G01 X13.6524 Y10.2254
G01 X13.6595 Y10.2271
G01 X13.6657 Y10.2309
G01 X13.6691 Y10.2343
G01 X13.6718 Y10.2383
G01 X13.6737 Y10.2428
G01 X13.6746 Y10.2476
G01 X13.6750 Y10.2549
G01 X13.3750 Y10.4250
G01 X13.4750 Y10.4250
G01 X13.4750 Y10.5750
G01 X13.3750 Y10.5750
G01 X13.3750 Y10.4250
G01 X13.3250 Y10.3750
G01 X13.5250 Y10.3750
G01 X13.5250 Y10.6250
G01 X13.3250 Y10.6250
G01 X13.3250 Y10.3750
G01 X13.2750 Y10.3250
G01 X13.5750 Y10.3250
G01 X13.5750 Y10.6750
G01 X13.2750 Y10.6750
G01 X13.2750 Y10.3250
G01 X13.2250 Y10.2750
G01 X13.6250 Y10.2750
G01 X13.6250 Y10.7250
G01 X13.2250 Y10.7250
G01 X13.2250 Y10.2750
G00 Z2.0000
G00 X12.2750 Y10.2512
G01 F60.00
G01 Z-0.1000
G01 F120.00
G01 X12.2750 Y10.7488
G01 X12.2741 Y10.7671
G01 X12.2716 Y10.7841
G01 X12.2674 Y10.8008
G01 X12.2616 Y10.8169
G01 X12.2543 Y10.8325
G01 X12.2455 Y10.8472
G01 X12.2352 Y10.8610
G01 X12.2237 Y10.8737
G01 X12.2110 Y10.8852
G01 X12.1972 Y10.8955
G01 X12.1825 Y10.9043
G01 X12.1669 Y10.9116
G01 X12.1508 Y10.9174
G01 X12.1341 Y10.9216
G01 X12.1171 Y10.9241
G01 X12.0988 Y10.9250
G01 X11.6512 Y10.9250
G01 X11.6329 Y10.9241
G01 X11.6159 Y10.9216
G01 X11.5992 Y10.9174
G01 X11.5831 Y10.9116
G01 X11.5675 Y10.9043
G01 X11.5528 Y10.8955
G01 X11.5390 Y10.8852
G01 X11.5263 Y10.8737
G01 X11.5148 Y10.8610
G01 X11.5045 Y10.8472
G01 X11.4957 Y10.8325
G01 X11.4884 Y10.8169
G01 X11.4826 Y10.8008
G01 X11.4784 Y10.7841
G01 X11.4759 Y10.7671
G01 X11.4750 Y10.7488
G01 X11.4750 Y10.2512
G01 X11.4759 Y10.2329
G01 X11.4784 Y10.2159
G01 X11.4826 Y10.1992
G01 X11.4884 Y10.1831
G01 X11.4957 Y10.1675
G01 X11.5045 Y10.1528
G01 X11.5148 Y10.1390
G01 X11.5263 Y10.1263
G01 X11.5390 Y10.1148
G01 X11.5528 Y10.1045
G01 X11.5675 Y10.0957
G01 X11.5831 Y10.0884
G01 X11.5992 Y10.0826
G01 X11.6159 Y10.0784
G01 X11.6329 Y10.0759
G01 X11.6512 Y10.0750
G01 X12.0988 Y10.0750
G01 X12.1171 Y10.0759
G01 X12.1341 Y10.0784
G01 X12.1508 Y10.0826
G01 X12.1669 Y10.0884
G01 X12.1825 Y10.0957
G01 X12.1972 Y10.1045
G01 X12.2110 Y10.1148
G01 X12.2237 Y10.1263
G01 X12.2352 Y10.1390
G01 X12.2455 Y10.1528
G01 X12.2543 Y10.1675
G01 X12.2616 Y10.1831
G01 X12.2674 Y10.1992
G01 X12.2716 Y10.2159
G01 X12.2741 Y10.2329
G01 X12.2750 Y10.2512
G01 X12.2250 Y10.2525
G01 X12.2250 Y10.7475
G01 X12.2243 Y10.7622
G01 X12.2225 Y10.7744
G01 X12.2195 Y10.7863
G01 X12.2154 Y10.7978
G01 X12.2101 Y10.8089
G01 X12.2038 Y10.8194
G01 X12.1965 Y10.8292
G01 X12.1883 Y10.8383
G01 X12.1792 Y10.8465
G01 X12.1694 Y10.8538
G01 X12.1589 Y10.8601
G01 X12.1478 Y10.8654
G01 X12.1363 Y10.8695
G01 X12.1244 Y10.8725
G01 X12.1122 Y10.8743
G01 X12.0975 Y10.8750
G01 X11.6525 Y10.8750
G01 X11.6378 Y10.8743
G01 X11.6256 Y10.8725
G01 X11.6137 Y10.8695
G01 X11.6022 Y10.8654
G01 X11.5911 Y10.8601
G01 X11.5806 Y10.8538
G01 X11.5708 Y10.8465
G01 X11.5617 Y10.8383
G01 X11.5535 Y10.8292
G01 X11.5462 Y10.8194
G01 X11.5399 Y10.8089
G01 X11.5346 Y10.7978
G01 X11.5305 Y10.7863
G01 X11.5275 Y10.7744
G01 X11.5257 Y10.7622
G01 X11.5250 Y10.7475
G01 X11.5250 Y10.2525
G01 X11.5257 Y10.2378
G01 X11.5275 Y10.2256
G01 X11.5305 Y10.2137
G01 X11.5346 Y10.2022
G01 X11.5399 Y10.1911
G01 X11.5462 Y10.1806
G01 X11.5535 Y10.1708
G01 X11.5617 Y10.1617
G01 X11.5708 Y10.1535
G01 X11.5806 Y10.1462
G01 X11.5911 Y10.1399
G01 X11.6022 Y10.1346
G01 X11.6137 Y10.1305
G01 X11.6256 Y10.1275
G01 X11.6378 Y10.1257
G01 X11.6525 Y10.1250
G01 X12.0975 Y10.1250
G01 X12.1122 Y10.1257
G01 X12.1244 Y10.1275
G01 X12.1363 Y10.1305
G01 X12.1478 Y10.1346
G01 X12.1589 Y10.1399
G01 X12.1694 Y10.1462
G01 X12.1792 Y10.1535
G01 X12.1883 Y10.1617
G01 X12.1965 Y10.1708
G01 X12.2038 Y10.1806
G01 X12.2101 Y10.1911
G01 X12.2154 Y10.2022
G01 X12.2195 Y10.2137
G01 X12.2225 Y10.2256
G01 X12.2243 Y10.2378
G01 X12.2250 Y10.2525
G01 X12.1750 Y10.2537
G01 X12.1750 Y10.7463
G01 X12.1745 Y10.7573
G01 X12.1734 Y10.7646
G01 X12.1716 Y10.7717
G01 X12.1691 Y10.7786
G01 X12.1660 Y10.7853
G01 X12.1622 Y10.7916
G01 X12.1578 Y10.7975
G01 X12.1529 Y10.8029
G01 X12.1475 Y10.8078
G01 X12.1416 Y10.8122
G01 X12.1353 Y10.8160
G01 X12.1286 Y10.8191
G01 X12.1217 Y10.8216
G01 X12.1146 Y10.8234
G01 X12.1073 Y10.8245
G01 X12.0963 Y10.8250
G01 X11.6537 Y10.8250
G01 X11.6427 Y10.8245
G01 X11.6354 Y10.8234
G01 X11.6283 Y10.8216
G01 X11.6214 Y10.8191
G01 X11.6147 Y10.8160
G01 X11.6084 Y10.8122
G01 X11.6025 Y10.8078
G01 X11.5971 Y10.8029
G01 X11.5922 Y10.7975
G01 X11.5878 Y10.7916
G01 X11.5840 Y10.7853
G01 X11.5809 Y10.7786
G01 X11.5784 Y10.7717
G01 X11.5766 Y10.7646
G01 X11.5755 Y10.7573
G01 X11.5750 Y10.7463
G01 X11.5750 Y10.2537
G01 X11.5755 Y10.2427
G01 X11.5766 Y10.2354
G01 X11.5784 Y10.2283
G01 X11.5809 Y10.2214
G01 X11.5840 Y10.2147
G01 X11.5878 Y10.2084
G01 X11.5922 Y10.2025
G01 X11.5971 Y10.1971
G01 X11.6025 Y10.1922
G01 X11.6084 Y10.1878
G01 X11.6147 Y10.1840
G01 X11.6214 Y10.1809
G01 X11.6283 Y10.1784
G01 X11.6354 Y10.1766
G01 X11.6427 Y10.1755
G01 X11.6537 Y10.1750
G01 X12.0963 Y10.1750
G01 X12.1073 Y10.1755
G01 X12.1146 Y10.1766
G01 X12.1217 Y10.1784
G01 X12.1286 Y10.1809
G01 X12.1353 Y10.1840
G01 X12.1416 Y10.1878
G01 X12.1475 Y10.1922
G01 X12.1529 Y10.1971
G01 X12.1578 Y10.2025
G01 X12.1622 Y10.2084
G01 X12.1660 Y10.2147
G01 X12.1691 Y10.2214
G01 X12.1716 Y10.2283
G01 X12.1734 Y10.2354
G01 X12.1745 Y10.2427
G01 X12.1750 Y10.2537
G01 X12.1250 Y10.2549
G01 X12.1250 Y10.7451
G01 X12.1243 Y10.7548
G01 X12.1229 Y10.7595
G01 X12.1206 Y10.7638
G01 X12.1175 Y10.7675
G01 X12.1138 Y10.7706
G01 X12.1095 Y10.7729
G01 X12.1048 Y10.7743
G01 X12.0951 Y10.7750
G01 X11.6549 Y10.7750
G01 X11.6476 Y10.7746
G01 X11.6428 Y10.7737
G01 X11.6383 Y10.7718
G01 X11.6325 Y10.7675
G01 X11.6294 Y10.7638
G01 X11.6263 Y10.7572
G01 X11.6254 Y10.7524
G01 X11.6250 Y10.7451
G01 X11.6250 Y10.2549
G01 X11.6254 Y10.2476
G01 X11.6263 Y10.2428
G01 X11.6282 Y10.2383
G01 X11.6325 Y10.2325
G01 X11.6383 Y10.2282
G01 X11.6428 Y10.2263
G01 X11.6476 Y10.2254
G01 X11.6549 Y10.2250
G01 X12.0951 Y10.2250
G01 X12.1024 Y10.2254
G01 X12.1095 Y10.2271
G01 X12.1157 Y10.2309
G01 X12.1191 Y10.2343
G01 X12.1218 Y10.2383
G01 X12.1237 Y10.2428
G01 X12.1246 Y10.2476
G01 X12.1250 Y10.2549
G01 X11.8250 Y10.4250
G01 X11.9250 Y10.4250
G01 X11.9250 Y10.5750
G01 X11.8250 Y10.5750
G01 X11.8250 Y10.4250
G01 X11.7750 Y10.3750
G01 X11.9750 Y10.3750
G01 X11.9750 Y10.6250
G01 X11.7750 Y10.6250
G01 X11.7750 Y10.3750
G01 X11.7250 Y10.3250
G01 X12.0250 Y10.3250
G01 X12.0250 Y10.6750
G01 X11.7250 Y10.6750
G01 X11.7250 Y10.3250
G01 X11.6750 Y10.2750
G01 X12.0750 Y10.2750
G01 X12.0750 Y10.7250
G01 X11.6750 Y10.7250
G01 X11.6750 Y10.2750
G00 Z2.0000
G00 X12.2750 Y8.6512
G01 F60.00
G01 Z-0.1000
G01 F120.00
G01 X12.2750 Y9.1488
G01 X12.2741 Y9.1671
G01 X12.2716 Y9.1841
G01 X12.2674 Y9.2008
G01 X12.2616 Y9.2169
G01 X12.2543 Y9.2325
G01 X12.2455 Y9.2472
G01 X12.2352 Y9.2610
G01 X12.2237 Y9.2737
G01 X12.2110 Y9.2852
G01 X12.1972 Y9.2955
G01 X12.1825 Y9.3043
G01 X12.1669 Y9.3116
G01 X12.1508 Y9.3174
G01 X12.1341 Y9.3216
G01 X12.1171 Y9.3241
G01 X12.0988 Y9.3250
G01 X11.6512 Y9.3250
G01 X11.6329 Y9.3241
G01 X11.6159 Y9.3216
G01 X11.5992 Y9.3174
G01 X11.5831 Y9.3116
G01 X11.5675 Y9.3043
G01 X11.5528 Y9.2955
G01 X11.5390 Y9.2852
G01 X11.5263 Y9.2737
G01 X11.5148 Y9.2610
G01 X11.5045 Y9.2472
G01 X11.4957 Y9.2325
G01 X11.4884 Y9.2169
G01 X11.4826 Y9.2008
G01 X11.4784 Y9.1841
G01 X11.4759 Y9.1671
G01 X11.4750 Y9.1488
G01 X11.4750 Y8.6512
G01 X11.4759 Y8.6329
G01 X11.4784 Y8.6159
G01 X11.4826 Y8.5992
G01 X11.4884 Y8.5831
G01 X11.4957 Y8.5675
G01 X11.5045 Y8.5528
G01 X11.5148 Y8.5390
G01 X11.5263 Y8.5263
G01 X11.5390 Y8.5148
G01 X11.5528 Y8.5045
G01 X11.5675 Y8.4957
G01 X11.5831 Y8.4884
G01 X11.5992 Y8.4826
G01 X11.6159 Y8.4784
G01 X11.6329 Y8.4759
G01 X11.6512 Y8.4750
G01 X12.0988 Y8.4750
G01 X12.1171 Y8.4759
G01 X12.1341 Y8.4784
G01 X12.1508 Y8.4826
G01 X12.1669 Y8.4884
G01 X12.1825 Y8.4957
G01 X12.1972 Y8.5045
G01 X12.2110 Y8.5148
G01 X12.2237 Y8.5263
G01 X12.2352 Y8.5390
G01 X12.2455 Y8.5528
G01 X12.2543 Y8.5675
G01 X12.2616 Y8.5831
G01 X12.2674 Y8.5992
G01 X12.2716 Y8.6159
G01 X12.2741 Y8.6329
G01 X12.2750 Y8.6512
G01 X12.2250 Y8.6525
G01 X12.2250 Y9.1475
G01 X12.2243 Y9.1622
G01 X12.2225 Y9.1744
G01 X12.2195 Y9.1863
G01 X12.2154 Y9.1978
G01 X12.2101 Y9.2089
G01 X12.2038 Y9.2194
G01 X12.1965 Y9.2292
G01 X12.1883 Y9.2383
G01 X12.1792 Y9.2465
G01 X12.1694 Y9.2538
G01 X12.1589 Y9.2601
G01 X12.1478 Y9.2654
G01 X12.1363 Y9.2695
G01 X12.1244 Y9.2725
G01 X12.1122 Y9.2743
G01 X12.0975 Y9.2750
G01 X11.6525 Y9.2750
G01 X11.6378 Y9.2743
G01 X11.6256 Y9.2725
G01 X11.6137 Y9.2695
G01 X11.6022 Y9.2654
G01 X11.5911 Y9.2601
G01 X11.5806 Y9.2538
G01 X11.5708 Y9.2465
G01 X11.5617 Y9.2383
G01 X11.5535 Y9.2292
G01 X11.5462 Y9.2194
G01 X11.5399 Y9.2089
G01 X11.5346 Y9.1978
G01 X11.5305 Y9.1863
G01 X11.5275 Y9.1744
G01 X11.5257 Y9.1622
G01 X11.5250 Y9.1475
G01 X11.5250 Y8.6525
G01 X11.5257 Y8.6378
G01 X11.5275 Y8.6256
G01 X11.5305 Y8.6137
G01 X11.5346 Y8.6022
G01 X11.5399 Y8.5911
G01 X11.5462 Y8.5806
G01 X11.5535 Y8.5708
G01 X11.5617 Y8.5617
G01 X11.5708 Y8.5535
G01 X11.5806 Y8.5462
G01 X11.5911 Y8.5399
G01 X11.6022 Y8.5346
G01 X11.6137 Y8.5305
G01 X11.6256 Y8.5275
G01 X11.6378 Y8.5257
G01 X11.6525 Y8.5250
G01 X12.0975 Y8.5250
G01 X12.1122 Y8.5257
G01 X12.1244 Y8.5275
G01 X12.1363 Y8.5305
G01 X12.1478 Y8.5346
G01 X12.1589 Y8.5399
G01 X12.1694 Y8.5462
G01 X12.1792 Y8.5535
G01 X12.1883 Y8.5617
G01 X12.1965 Y8.5708
G01 X12.2038 Y8.5806
G01 X12.2101 Y8.5911
G01 X12.2154 Y8.6022
G01 X12.2195 Y8.6137
G01 X12.2225 Y8.6256
G01 X12.2243 Y8.6378
G01 X12.2250 Y8.6525
G01 X12.1750 Y8.6537
G01 X12.1750 Y9.1463
G01 X12.1745 Y9.1573
G01 X12.1734 Y9.1646
G01 X12.1716 Y9.1717
G01 X12.1691 Y9.1786
G01 X12.1660 Y9.1853
G01 X12.1622 Y9.1916
G01 X12.1578 Y9.1975
G01 X12.1529 Y9.2029
G01 X12.1475 Y9.2078
G01 X12.1416 Y9.2122
G01 X12.1353 Y9.2160
G01 X12.1286 Y9.2191
G01 X12.1217 Y9.2216
G01 X12.1146 Y9.2234
G01 X12.1073 Y9.2245
G01 X12.0963 Y9.2250
G01 X11.6537 Y9.2250
G01 X11.6427 Y9.2245
G01 X11.6354 Y9.2234
G01 X11.6283 Y9.2216
G01 X11.6214 Y9.2191
G01 X11.6147 Y9.2160
G01 X11.6084 Y9.2122
G01 X11.6025 Y9.2078
G01 X11.5971 Y9.2029
G01 X11.5922 Y9.1975
G01 X11.5878 Y9.1916
G01 X11.5840 Y9.1853
G01 X11.5809 Y9.1786
G01 X11.5784 Y9.1717
G01 X11.5766 Y9.1646
G01 X11.5755 Y9.1573
G01 X11.5750 Y9.1463
G01 X11.5750 Y8.6537
G01 X11.5755 Y8.6427
G01 X11.5766 Y8.6354
G01 X11.5784 Y8.6283
G01 X11.5809 Y8.6214
G01 X11.5840 Y8.6147
G01 X11.5878 Y8.6084
G01 X11.5922 Y8.6025
G01 X11.5971 Y8.5971
G01 X11.6025 Y8.5922
G01 X11.6084 Y8.5878
G01 X11.6147 Y8.5840
G01 X11.6214 Y8.5809
G01 X11.6283 Y8.5784
G01 X11.6354 Y8.5766
G01 X11.6427 Y8.5755
G01 X11.6537 Y8.5750
G01 X12.0963 Y8.5750
G01 X12.1073 Y8.5755
G01 X12.1146 Y8.5766
G01 X12.1217 Y8.5784
G01 X12.1286 Y8.5809
G01 X12.1353 Y8.5840
G01 X12.1416 Y8.5878
G01 X12.1475 Y8.5922
G01 X12.1529 Y8.5971
G01 X12.1578 Y8.6025
G01 X12.1622 Y8.6084
G01 X12.1660 Y8.6147
G01 X12.1691 Y8.6214
G01 X12.1716 Y8.6283
G01 X12.1734 Y8.6354
G01 X12.1745 Y8.6427
G01 X12.1750 Y8.6537
G01 X12.1250 Y8.6549
G01 X12.1250 Y9.1451
G01 X12.1243 Y9.1548
G01 X12.1229 Y9.1595
G01 X12.1206 Y9.1638
G01 X12.1175 Y9.1675
G01 X12.1138 Y9.1706
G01 X12.1095 Y9.1729
G01 X12.1048 Y9.1743
G01 X12.0951 Y9.1750
G01 X11.6549 Y9.1750
G01 X11.6476 Y9.1746
G01 X11.6428 Y9.1737
G01 X11.6383 Y9.1718
G01 X11.6325 Y9.1675
G01 X11.6294 Y9.1638
G01 X11.6263 Y9.1572
G01 X11.6254 Y9.1524
G01 X11.6250 Y9.1451
G01 X11.6250 Y8.6549
G01 X11.6254 Y8.6476
G01 X11.6263 Y8.6428
G01 X11.6282 Y8.6383
G01 X11.6325 Y8.6325
G01 X11.6383 Y8.6282
G01 X11.6428 Y8.6263
G01 X11.6476 Y8.6254
G01 X11.6549 Y8.6250
G01 X12.0951 Y8.6250
G01 X12.1024 Y8.6254
G01 X12.1095 Y8.6271
G01 X12.1157 Y8.6309
G01 X12.1191 Y8.6343
G01 X12.1218 Y8.6383
G01 X12.1237 Y8.6428
G01 X12.1246 Y8.6476
G01 X12.1250 Y8.6549
G01 X11.8250 Y8.8250
G01 X11.9250 Y8.8250
G01 X11.9250 Y8.9750
G01 X11.8250 Y8.9750
G01 X11.8250 Y8.8250
G01 X11.7750 Y8.7750
G01 X11.9750 Y8.7750
G01 X11.9750 Y9.0250
G01 X11.7750 Y9.0250
G01 X11.7750 Y8.7750
G01 X11.7250 Y8.7250
G01 X12.0250 Y8.7250
G01 X12.0250 Y9.0750
G01 X11.7250 Y9.0750
G01 X11.7250 Y8.7250
G01 X11.6750 Y8.6750
G01 X12.0750 Y8.6750
G01 X12.0750 Y9.1250
G01 X11.6750 Y9.1250
G01 X11.6750 Y8.6750
G00 Z2.0000
G00 X13.2250 Y8.6750
G01 F60.00
G01 Z-0.1000
G01 F120.00
G01 X13.2250 Y9.1250
G01 X13.6250 Y9.1250
G01 X13.6250 Y8.6750
G01 X13.2250 Y8.6750
G01 X13.2750 Y8.7250
G01 X13.2750 Y9.0750
G01 X13.5750 Y9.0750
G01 X13.5750 Y8.7250
G01 X13.2750 Y8.7250
G01 X13.3250 Y8.7750
G01 X13.3250 Y9.0250
G01 X13.5250 Y9.0250
G01 X13.5250 Y8.7750
G01 X13.3250 Y8.7750
G01 X13.3750 Y8.8250
G01 X13.3750 Y8.9750
G01 X13.4750 Y8.9750
G01 X13.4750 Y8.8250
G01 X13.3750 Y8.8250
G01 X13.6750 Y8.6549
G01 X13.6746 Y8.6476
G01 X13.6737 Y8.6428
G01 X13.6718 Y8.6383
G01 X13.6691 Y8.6343
G01 X13.6657 Y8.6309
G01 X13.6595 Y8.6271
G01 X13.6524 Y8.6254
G01 X13.6451 Y8.6250
G01 X13.2049 Y8.6250
G01 X13.1976 Y8.6254
G01 X13.1928 Y8.6263
G01 X13.1883 Y8.6282
G01 X13.1825 Y8.6325
G01 X13.1782 Y8.6383
G01 X13.1763 Y8.6428
G01 X13.1754 Y8.6476
G01 X13.1750 Y8.6549
G01 X13.1750 Y9.1451
G01 X13.1754 Y9.1524
G01 X13.1763 Y9.1572
G01 X13.1794 Y9.1638
G01 X13.1825 Y9.1675
G01 X13.1883 Y9.1718
G01 X13.1928 Y9.1737
G01 X13.1976 Y9.1746
G01 X13.2049 Y9.1750
G01 X13.6451 Y9.1750
G01 X13.6548 Y9.1743
G01 X13.6595 Y9.1729
G01 X13.6638 Y9.1706
G01 X13.6675 Y9.1675
G01 X13.6706 Y9.1638
G01 X13.6729 Y9.1595
G01 X13.6743 Y9.1548
G01 X13.6750 Y9.1451
G01 X13.6750 Y8.6549
G01 X13.7250 Y8.6537
G01 X13.7245 Y8.6427
G01 X13.7234 Y8.6354
G01 X13.7216 Y8.6283
G01 X13.7191 Y8.6214
G01 X13.7160 Y8.6147
G01 X13.7122 Y8.6084
G01 X13.7078 Y8.6025
G01 X13.7029 Y8.5971
G01 X13.6975 Y8.5922
G01 X13.6916 Y8.5878
G01 X13.6853 Y8.5840
G01 X13.6786 Y8.5809
G01 X13.6717 Y8.5784
G01 X13.6646 Y8.5766
G01 X13.6573 Y8.5755
G01 X13.6463 Y8.5750
G01 X13.2037 Y8.5750
G01 X13.1927 Y8.5755
G01 X13.1854 Y8.5766
G01 X13.1783 Y8.5784
G01 X13.1714 Y8.5809
G01 X13.1647 Y8.5840
G01 X13.1584 Y8.5878
G01 X13.1525 Y8.5922
G01 X13.1471 Y8.5971
G01 X13.1422 Y8.6025
G01 X13.1378 Y8.6084
G01 X13.1340 Y8.6147
G01 X13.1309 Y8.6214
G01 X13.1284 Y8.6283
G01 X13.1266 Y8.6354
G01 X13.1255 Y8.6427
G01 X13.1250 Y8.6537
G01 X13.1250 Y9.1463
G01 X13.1255 Y9.1573
G01 X13.1266 Y9.1646
G01 X13.1284 Y9.1717
G01 X13.1309 Y9.1786
G01 X13.1340 Y9.1853
G01 X13.1378 Y9.1916
G01 X13.1422 Y9.1975
G01 X13.1471 Y9.2029
G01 X13.1525 Y9.2078
G01 X13.1584 Y9.2122
G01 X13.1647 Y9.2160
G01 X13.1714 Y9.2191
G01 X13.1783 Y9.2216
G01 X13.1854 Y9.2234
G01 X13.1927 Y9.2245
G01 X13.2037 Y9.2250
G01 X13.6463 Y9.2250
G01 X13.6573 Y9.2245
G01 X13.6646 Y9.2234
G01 X13.6717 Y9.2216
G01 X13.6786 Y9.2191
G01 X13.6853 Y9.2160
G01 X13.6916 Y9.2122
G01 X13.6975 Y9.2078
G01 X13.7029 Y9.2029
G01 X13.7078 Y9.1975
G01 X13.7122 Y9.1916
G01 X13.7160 Y9.1853
G01 X13.7191 Y9.1786
G01 X13.7216 Y9.1717
G01 X13.7234 Y9.1646
G01 X13.7245 Y9.1573
G01 X13.7250 Y9.1463
G01 X13.7250 Y8.6537
G01 X13.7750 Y8.6525
G01 X13.7743 Y8.6378
G01 X13.7725 Y8.6256
G01 X13.7695 Y8.6137
G01 X13.7654 Y8.6022
G01 X13.7601 Y8.5911
G01 X13.7538 Y8.5806
G01 X13.7465 Y8.5708
G01 X13.7383 Y8.5617
G01 X13.7292 Y8.5535
G01 X13.7194 Y8.5462
G01 X13.7089 Y8.5399
G01 X13.6978 Y8.5346
G01 X13.6863 Y8.5305
G01 X13.6744 Y8.5275
G01 X13.6622 Y8.5257
G01 X13.6475 Y8.5250
G01 X13.2025 Y8.5250
G01 X13.1878 Y8.5257
G01 X13.1756 Y8.5275
G01 X13.1637 Y8.5305
G01 X13.1522 Y8.5346
G01 X13.1411 Y8.5399
G01 X13.1306 Y8.5462
G01 X13.1208 Y8.5535
G01 X13.1117 Y8.5617
G01 X13.1035 Y8.5708
G01 X13.0962 Y8.5806
G01 X13.0899 Y8.5911
G01 X13.0846 Y8.6022
G01 X13.0805 Y8.6137
G01 X13.0775 Y8.6256
G01 X13.0757 Y8.6378
G01 X13.0750 Y8.6525
G01 X13.0750 Y9.1475
G01 X13.0757 Y9.1622
G01 X13.0775 Y9.1744
G01 X13.0805 Y9.1863
G01 X13.0846 Y9.1978
G01 X13.0899 Y9.2089
G01 X13.0962 Y9.2194
G01 X13.1035 Y9.2292
G01 X13.1117 Y9.2383
G01 X13.1208 Y9.2465
G01 X13.1306 Y9.2538
G01 X13.1411 Y9.2601
G01 X13.1522 Y9.2654
G01 X13.1637 Y9.2695
G01 X13.1756 Y9.2725
G01 X13.1878 Y9.2743
G01 X13.2025 Y9.2750
G01 X13.6475 Y9.2750
G01 X13.6622 Y9.2743
G01 X13.6744 Y9.2725
G01 X13.6863 Y9.2695
G01 X13.6978 Y9.2654
G01 X13.7089 Y9.2601
G01 X13.7194 Y9.2538
G01 X13.7292 Y9.2465
G01 X13.7383 Y9.2383
G01 X13.7465 Y9.2292
G01 X13.7538 Y9.2194
G01 X13.7601 Y9.2089
G01 X13.7654 Y9.1978
G01 X13.7695 Y9.1863
G01 X13.7725 Y9.1744
G01 X13.7743 Y9.1622
G01 X13.7750 Y9.1475
G01 X13.7750 Y8.6525
G01 X13.8250 Y8.6512
G01 X13.8241 Y8.6329
G01 X13.8216 Y8.6159
G01 X13.8174 Y8.5992
G01 X13.8116 Y8.5831
G01 X13.8043 Y8.5675
G01 X13.7955 Y8.5528
G01 X13.7852 Y8.5390
G01 X13.7737 Y8.5263
G01 X13.7610 Y8.5148
G01 X13.7472 Y8.5045
G01 X13.7325 Y8.4957
G01 X13.7169 Y8.4884
G01 X13.7008 Y8.4826
G01 X13.6841 Y8.4784
G01 X13.6671 Y8.4759
G01 X13.6488 Y8.4750
G01 X13.2012 Y8.4750
G01 X13.1829 Y8.4759
G01 X13.1659 Y8.4784
G01 X13.1492 Y8.4826
G01 X13.1331 Y8.4884
G01 X13.1175 Y8.4957
G01 X13.1028 Y8.5045
G01 X13.0890 Y8.5148
G01 X13.0763 Y8.5263
G01 X13.0648 Y8.5390
G01 X13.0545 Y8.5528
G01 X13.0457 Y8.5675
G01 X13.0384 Y8.5831
G01 X13.0326 Y8.5992
G01 X13.0284 Y8.6159
G01 X13.0259 Y8.6329
G01 X13.0250 Y8.6512
G01 X13.0250 Y9.1488
G01 X13.0259 Y9.1671
G01 X13.0284 Y9.1841
G01 X13.0326 Y9.2008
G01 X13.0384 Y9.2169
G01 X13.0457 Y9.2325
G01 X13.0545 Y9.2472
G01 X13.0648 Y9.2610
G01 X13.0763 Y9.2737
G01 X13.0890 Y9.2852
G01 X13.1028 Y9.2955
G01 X13.1175 Y9.3043
G01 X13.1331 Y9.3116
G01 X13.1492 Y9.3174
G01 X13.1659 Y9.3216
G01 X13.1829 Y9.3241
G01 X13.2012 Y9.3250
G01 X13.6488 Y9.3250
G01 X13.6671 Y9.3241
G01 X13.6841 Y9.3216
G01 X13.7008 Y9.3174
G01 X13.7169 Y9.3116
G01 X13.7325 Y9.3043
G01 X13.7472 Y9.2955
G01 X13.7610 Y9.2852
G01 X13.7737 Y9.2737
G01 X13.7852 Y9.2610
G01 X13.7955 Y9.2472
G01 X13.8043 Y9.2325
G01 X13.8116 Y9.2169
G01 X13.8174 Y9.2008
G01 X13.8216 Y9.1841
G01 X13.8241 Y9.1671
G01 X13.8250 Y9.1488
G01 X13.8250 Y8.6512
G00 Z2.0000
G00 X13.8250 Y6.6012
G01 F60.00
G01 Z-0.1000
G01 F120.00
G01 X13.8250 Y7.0988
G01 X13.8241 Y7.1171
G01 X13.8216 Y7.1341
G01 X13.8174 Y7.1508
G01 X13.8116 Y7.1669
G01 X13.8043 Y7.1825
G01 X13.7955 Y7.1972
G01 X13.7852 Y7.2110
G01 X13.7737 Y7.2237
G01 X13.7610 Y7.2352
G01 X13.7472 Y7.2455
G01 X13.7325 Y7.2543
G01 X13.7169 Y7.2616
G01 X13.7008 Y7.2674
G01 X13.6841 Y7.2716
G01 X13.6671 Y7.2741
G01 X13.6488 Y7.2750
G01 X13.2012 Y7.2750
G01 X13.1829 Y7.2741
G01 X13.1659 Y7.2716
G01 X13.1492 Y7.2674
G01 X13.1331 Y7.2616
G01 X13.1175 Y7.2543
G01 X13.1028 Y7.2455
G01 X13.0890 Y7.2352
G01 X13.0763 Y7.2237
G01 X13.0648 Y7.2110
G01 X13.0545 Y7.1972
G01 X13.0457 Y7.1825
G01 X13.0384 Y7.1669
G01 X13.0326 Y7.1508
G01 X13.0284 Y7.1341
G01 X13.0259 Y7.1171
G01 X13.0250 Y7.0988
G01 X13.0250 Y6.6012
G01 X13.0259 Y6.5829
G01 X13.0284 Y6.5659
G01 X13.0326 Y6.5492
G01 X13.0384 Y6.5331
G01 X13.0457 Y6.5175
G01 X13.0545 Y6.5028
G01 X13.0648 Y6.4890
G01 X13.0763 Y6.4763
G01 X13.0890 Y6.4648
G01 X13.1028 Y6.4545
G01 X13.1175 Y6.4457
G01 X13.1331 Y6.4384
G01 X13.1492 Y6.4326
G01 X13.1659 Y6.4284
G01 X13.1829 Y6.4259
G01 X13.2012 Y6.4250
G01 X13.6488 Y6.4250
G01 X13.6671 Y6.4259
G01 X13.6841 Y6.4284
G01 X13.7008 Y6.4326
G01 X13.7169 Y6.4384
G01 X13.7325 Y6.4457
G01 X13.7472 Y6.4545
G01 X13.7610 Y6.4648
G01 X13.7737 Y6.4763
G01 X13.7852 Y6.4890
G01 X13.7955 Y6.5028
G01 X13.8043 Y6.5175
G01 X13.8116 Y6.5331
G01 X13.8174 Y6.5492
G01 X13.8216 Y6.5659
G01 X13.8241 Y6.5829
G01 X13.8250 Y6.6012
G01 X13.7750 Y6.6025
G01 X13.7750 Y7.0975
G01 X13.7743 Y7.1122
G01 X13.7725 Y7.1244
G01 X13.7695 Y7.1363
G01 X13.7654 Y7.1478
G01 X13.7601 Y7.1589
G01 X13.7538 Y7.1694
G01 X13.7465 Y7.1792
G01 X13.7383 Y7.1883
G01 X13.7292 Y7.1965
G01 X13.7194 Y7.2038
G01 X13.7089 Y7.2101
G01 X13.6978 Y7.2154
G01 X13.6863 Y7.2195
G01 X13.6744 Y7.2225
G01 X13.6622 Y7.2243
G01 X13.6475 Y7.2250
G01 X13.2025 Y7.2250
G01 X13.1878 Y7.2243
G01 X13.1756 Y7.2225
G01 X13.1637 Y7.2195
G01 X13.1522 Y7.2154
G01 X13.1411 Y7.2101
G01 X13.1306 Y7.2038
G01 X13.1208 Y7.1965
G01 X13.1117 Y7.1883
G01 X13.1035 Y7.1792
G01 X13.0962 Y7.1694
G01 X13.0899 Y7.1589
G01 X13.0846 Y7.1478
G01 X13.0805 Y7.1363
G01 X13.0775 Y7.1244
G01 X13.0757 Y7.1122
G01 X13.0750 Y7.0975
G01 X13.0750 Y6.6025
G01 X13.0757 Y6.5878
G01 X13.0775 Y6.5756
G01 X13.0805 Y6.5637
G01 X13.0846 Y6.5522
G01 X13.0899 Y6.5411
G01 X13.0962 Y6.5306
G01 X13.1035 Y6.5208
G01 X13.1117 Y6.5117
G01 X13.1208 Y6.5035
G01 X13.1306 Y6.4962
G01 X13.1411 Y6.4899
G01 X13.1522 Y6.4846
G01 X13.1637 Y6.4805
G01 X13.1756 Y6.4775
G01 X13.1878 Y6.4757
G01 X13.2025 Y6.4750
G01 X13.6475 Y6.4750
G01 X13.6622 Y6.4757
G01 X13.6744 Y6.4775
G01 X13.6863 Y6.4805
G01 X13.6978 Y6.4846
G01 X13.7089 Y6.4899
G01 X13.7194 Y6.4962
G01 X13.7292 Y6.5035
G01 X13.7383 Y6.5117
G01 X13.7465 Y6.5208
G01 X13.7538 Y6.5306
G01 X13.7601 Y6.5411
G01 X13.7654 Y6.5522
G01 X13.7695 Y6.5637
G01 X13.7725 Y6.5756
G01 X13.7743 Y6.5878
G01 X13.7750 Y6.6025
G01 X13.7250 Y6.6037
G01 X13.7250 Y7.0963
G01 X13.7245 Y7.1073
G01 X13.7234 Y7.1146
G01 X13.7216 Y7.1217
G01 X13.7191 Y7.1286
G01 X13.7160 Y7.1353
G01 X13.7122 Y7.1416
G01 X13.7078 Y7.1475
G01 X13.7029 Y7.1529
G01 X13.6975 Y7.1578
G01 X13.6916 Y7.1622
G01 X13.6853 Y7.1660
G01 X13.6786 Y7.1691
G01 X13.6717 Y7.1716
G01 X13.6646 Y7.1734
G01 X13.6573 Y7.1745
G01 X13.6463 Y7.1750
G01 X13.2037 Y7.1750
G01 X13.1927 Y7.1745
G01 X13.1854 Y7.1734
G01 X13.1783 Y7.1716
G01 X13.1714 Y7.1691
G01 X13.1647 Y7.1660
G01 X13.1584 Y7.1622
G01 X13.1525 Y7.1578
G01 X13.1471 Y7.1529
G01 X13.1422 Y7.1475
G01 X13.1378 Y7.1416
G01 X13.1340 Y7.1353
G01 X13.1309 Y7.1286
G01 X13.1284 Y7.1217
G01 X13.1266 Y7.1146
G01 X13.1255 Y7.1073
G01 X13.1250 Y7.0963
G01 X13.1250 Y6.6037
G01 X13.1255 Y6.5927
G01 X13.1266 Y6.5854
G01 X13.1284 Y6.5783
G01 X13.1309 Y6.5714
G01 X13.1340 Y6.5647
G01 X13.1378 Y6.5584
G01 X13.1422 Y6.5525
G01 X13.1471 Y6.5471
G01 X13.1525 Y6.5422
G01 X13.1584 Y6.5378
G01 X13.1647 Y6.5340
G01 X13.1714 Y6.5309
G01 X13.1783 Y6.5284
G01 X13.1854 Y6.5266
G01 X13.1927 Y6.5255
G01 X13.2037 Y6.5250
G01 X13.6463 Y6.5250
G01 X13.6573 Y6.5255
G01 X13.6646 Y6.5266
G01 X13.6717 Y6.5284
G01 X13.6786 Y6.5309
G01 X13.6853 Y6.5340
G01 X13.6916 Y6.5378
G01 X13.6975 Y6.5422
G01 X13.7029 Y6.5471
G01 X13.7078 Y6.5525
G01 X13.7122 Y6.5584
G01 X13.7160 Y6.5647
G01 X13.7191 Y6.5714
G01 X13.7216 Y6.5783
G01 X13.7234 Y6.5854
G01 X13.7245 Y6.5927
G01 X13.7250 Y6.6037
G01 X13.6750 Y6.6049
G01 X13.6750 Y7.0951
G01 X13.6743 Y7.1048
G01 X13.6729 Y7.1095
G01 X13.6706 Y7.1138
G01 X13.6675 Y7.1175
G01 X13.6638 Y7.1206
G01 X13.6595 Y7.1229
G01 X13.6548 Y7.1243
G01 X13.6451 Y7.1250
G01 X13.2049 Y7.1250
G01 X13.1976 Y7.1246
G01 X13.1928 Y7.1237
G01 X13.1883 Y7.1218
G01 X13.1825 Y7.1175
G01 X13.1794 Y7.1138
G01 X13.1763 Y7.1072
G01 X13.1754 Y7.1024
G01 X13.1750 Y7.0951
G01 X13.1750 Y6.6049
G01 X13.1754 Y6.5976
G01 X13.1763 Y6.5928
G01 X13.1794 Y6.5862
G01 X13.1825 Y6.5825
G01 X13.1883 Y6.5782
G01 X13.1928 Y6.5763
G01 X13.1976 Y6.5754
G01 X13.2049 Y6.5750
G01 X13.6451 Y6.5750
G01 X13.6524 Y6.5754
G01 X13.6595 Y6.5771
G01 X13.6657 Y6.5809
G01 X13.6691 Y6.5843
G01 X13.6718 Y6.5883
G01 X13.6737 Y6.5928
G01 X13.6746 Y6.5976
G01 X13.6750 Y6.6049
G01 X13.3750 Y6.7750
G01 X13.4750 Y6.7750
G01 X13.4750 Y6.9250
G01 X13.3750 Y6.9250
G01 X13.3750 Y6.7750
G01 X13.3250 Y6.7250
G01 X13.5250 Y6.7250
G01 X13.5250 Y6.9750
G01 X13.3250 Y6.9750
G01 X13.3250 Y6.7250
G01 X13.2750 Y6.6750
G01 X13.5750 Y6.6750
G01 X13.5750 Y7.0250
G01 X13.2750 Y7.0250
G01 X13.2750 Y6.6750
G01 X13.2250 Y6.6250
G01 X13.6250 Y6.6250
G01 X13.6250 Y7.0750
G01 X13.2250 Y7.0750
G01 X13.2250 Y6.6250
G00 Z2.0000
G00 X12.2750 Y6.6012
G01 F60.00
G01 Z-0.1000
G01 F120.00
G01 X12.2750 Y7.0988
G01 X12.2741 Y7.1171
G01 X12.2716 Y7.1341
G01 X12.2674 Y7.1508
G01 X12.2616 Y7.1669
G01 X12.2543 Y7.1825
G01 X12.2455 Y7.1972
G01 X12.2352 Y7.2110
G01 X12.2237 Y7.2237
G01 X12.2110 Y7.2352
G01 X12.1972 Y7.2455
G01 X12.1825 Y7.2543
G01 X12.1669 Y7.2616
G01 X12.1508 Y7.2674
G01 X12.1341 Y7.2716
G01 X12.1171 Y7.2741
G01 X12.0988 Y7.2750
G01 X11.6512 Y7.2750
G01 X11.6329 Y7.2741
G01 X11.6159 Y7.2716
G01 X11.5992 Y7.2674
G01 X11.5831 Y7.2616
G01 X11.5675 Y7.2543
G01 X11.5528 Y7.2455
G01 X11.5390 Y7.2352
G01 X11.5263 Y7.2237
G01 X11.5148 Y7.2110
G01 X11.5045 Y7.1972
G01 X11.4957 Y7.1825
G01 X11.4884 Y7.1669
G01 X11.4826 Y7.1508
G01 X11.4784 Y7.1341
G01 X11.4759 Y7.1171
G01 X11.4750 Y7.0988
G01 X11.4750 Y6.6012
G01 X11.4759 Y6.5829
G01 X11.4784 Y6.5659
G01 X11.4826 Y6.5492
G01 X11.4884 Y6.5331
G01 X11.4957 Y6.5175
G01 X11.5045 Y6.5028
G01 X11.5148 Y6.4890
G01 X11.5263 Y6.4763
G01 X11.5390 Y6.4648
G01 X11.5528 Y6.4545
G01 X11.5675 Y6.4457
G01 X11.5831 Y6.4384
G01 X11.5992 Y6.4326
G01 X11.6159 Y6.4284
G01 X11.6329 Y6.4259
G01 X11.6512 Y6.4250
G01 X12.0988 Y6.4250
G01 X12.1171 Y6.4259
G01 X12.1341 Y6.4284
G01 X12.1508 Y6.4326
G01 X12.1669 Y6.4384
G01 X12.1825 Y6.4457
G01 X12.1972 Y6.4545
G01 X12.2110 Y6.4648
G01 X12.2237 Y6.4763
G01 X12.2352 Y6.4890
G01 X12.2455 Y6.5028
G01 X12.2543 Y6.5175
G01 X12.2616 Y6.5331
G01 X12.2674 Y6.5492
G01 X12.2716 Y6.5659
G01 X12.2741 Y6.5829
G01 X12.2750 Y6.6012
G01 X12.2250 Y6.6025
G01 X12.2250 Y7.0975
G01 X12.2243 Y7.1122
G01 X12.2225 Y7.1244
G01 X12.2195 Y7.1363
G01 X12.2154 Y7.1478
G01 X12.2101 Y7.1589
G01 X12.2038 Y7.1694
G01 X12.1965 Y7.1792
G01 X12.1883 Y7.1883
G01 X12.1792 Y7.1965
G01 X12.1694 Y7.2038
G01 X12.1589 Y7.2101
G01 X12.1478 Y7.2154
G01 X12.1363 Y7.2195
G01 X12.1244 Y7.2225
G01 X12.1122 Y7.2243
G01 X12.0975 Y7.2250
G01 X11.6525 Y7.2250
G01 X11.6378 Y7.2243
G01 X11.6256 Y7.2225
G01 X11.6137 Y7.2195
G01 X11.6022 Y7.2154
G01 X11.5911 Y7.2101
G01 X11.5806 Y7.2038
G01 X11.5708 Y7.1965
G01 X11.5617 Y7.1883
G01 X11.5535 Y7.1792
G01 X11.5462 Y7.1694
G01 X11.5399 Y7.1589
G01 X11.5346 Y7.1478
G01 X11.5305 Y7.1363
G01 X11.5275 Y7.1244
G01 X11.5257 Y7.1122
G01 X11.5250 Y7.0975
G01 X11.5250 Y6.6025
G01 X11.5257 Y6.5878
G01 X11.5275 Y6.5756
G01 X11.5305 Y6.5637
G01 X11.5346 Y6.5522
G01 X11.5399 Y6.5411
G01 X11.5462 Y6.5306
G01 X11.5535 Y6.5208
G01 X11.5617 Y6.5117
G01 X11.5708 Y6.5035
G01 X11.5806 Y6.4962
G01 X11.5911 Y6.4899
G01 X11.6022 Y6.4846
G01 X11.6137 Y6.4805
G01 X11.6256 Y6.4775
G01 X11.6378 Y6.4757
G01 X11.6525 Y6.4750
G01 X12.0975 Y6.4750
G01 X12.1122 Y6.4757
G01 X12.1244 Y6.4775
G01 X12.1363 Y6.4805
G01 X12.1478 Y6.4846
G01 X12.1589 Y6.4899
G01 X12.1694 Y6.4962
G01 X12.1792 Y6.5035
G01 X12.1883 Y6.5117
G01 X12.1965 Y6.5208
G01 X12.2038 Y6.5306
G01 X12.2101 Y6.5411
G01 X12.2154 Y6.5522
G01 X12.2195 Y6.5637
G01 X12.2225 Y6.5756
G01 X12.2243 Y6.5878
G01 X12.2250 Y6.6025
G01 X12.1750 Y6.6037
G01 X12.1750 Y7.0963
G01 X12.1745 Y7.1073
G01 X12.1734 Y7.1146
G01 X12.1716 Y7.1217
G01 X12.1691 Y7.1286
G01 X12.1660 Y7.1353
G01 X12.1622 Y7.1416
G01 X12.1578 Y7.1475
G01 X12.1529 Y7.1529
G01 X12.1475 Y7.1578
G01 X12.1416 Y7.1622
G01 X12.1353 Y7.1660
G01 X12.1286 Y7.1691
G01 X12.1217 Y7.1716
G01 X12.1146 Y7.1734
G01 X12.1073 Y7.1745
G01 X12.0963 Y7.1750
G01 X11.6537 Y7.1750
G01 X11.6427 Y7.1745
G01 X11.6354 Y7.1734
G01 X11.6283 Y7.1716
G01 X11.6214 Y7.1691
G01 X11.6147 Y7.1660
G01 X11.6084 Y7.1622
G01 X11.6025 Y7.1578
G01 X11.5971 Y7.1529
G01 X11.5922 Y7.1475
G01 X11.5878 Y7.1416
G01 X11.5840 Y7.1353
G01 X11.5809 Y7.1286
G01 X11.5784 Y7.1217
G01 X11.5766 Y7.1146
G01 X11.5755 Y7.1073
G01 X11.5750 Y7.0963
G01 X11.5750 Y6.6037
G01 X11.5755 Y6.5927
G01 X11.5766 Y6.5854
G01 X11.5784 Y6.5783
G01 X11.5809 Y6.5714
G01 X11.5840 Y6.5647
G01 X11.5878 Y6.5584
G01 X11.5922 Y6.5525
G01 X11.5971 Y6.5471
G01 X11.6025 Y6.5422
G01 X11.6084 Y6.5378
G01 X11.6147 Y6.5340
G01 X11.6214 Y6.5309
G01 X11.6283 Y6.5284
G01 X11.6354 Y6.5266
G01 X11.6427 Y6.5255
G01 X11.6537 Y6.5250
G01 X12.0963 Y6.5250
G01 X12.1073 Y6.5255
G01 X12.1146 Y6.5266
G01 X12.1217 Y6.5284
G01 X12.1286 Y6.5309
G01 X12.1353 Y6.5340
G01 X12.1416 Y6.5378
G01 X12.1475 Y6.5422
G01 X12.1529 Y6.5471
G01 X12.1578 Y6.5525
G01 X12.1622 Y6.5584
G01 X12.1660 Y6.5647
G01 X12.1691 Y6.5714
G01 X12.1716 Y6.5783
G01 X12.1734 Y6.5854
G01 X12.1745 Y6.5927
G01 X12.1750 Y6.6037
G01 X12.1250 Y6.6049
G01 X12.1250 Y7.0951
G01 X12.1243 Y7.1048
G01 X12.1229 Y7.1095
G01 X12.1206 Y7.1138
G01 X12.1175 Y7.1175
G01 X12.1138 Y7.1206
G01 X12.1095 Y7.1229
G01 X12.1048 Y7.1243
G01 X12.0951 Y7.1250
G01 X11.6549 Y7.1250
G01 X11.6476 Y7.1246
G01 X11.6428 Y7.1237
G01 X11.6383 Y7.1218
G01 X11.6325 Y7.1175
G01 X11.6294 Y7.1138
G01 X11.6263 Y7.1072
G01 X11.6254 Y7.1024
G01 X11.6250 Y7.0951
G01 X11.6250 Y6.6049
G01 X11.6254 Y6.5976
G01 X11.6263 Y6.5928
G01 X11.6294 Y6.5862
G01 X11.6325 Y6.5825
G01 X11.6383 Y6.5782
G01 X11.6428 Y6.5763
G01 X11.6476 Y6.5754
G01 X11.6549 Y6.5750
G01 X12.0951 Y6.5750
G01 X12.1024 Y6.5754
G01 X12.1095 Y6.5771
G01 X12.1157 Y6.5809
G01 X12.1191 Y6.5843
G01 X12.1218 Y6.5883
G01 X12.1237 Y6.5928
G01 X12.1246 Y6.5976
G01 X12.1250 Y6.6049
G01 X11.8250 Y6.7750
G01 X11.9250 Y6.7750
G01 X11.9250 Y6.9250
G01 X11.8250 Y6.9250
G01 X11.8250 Y6.7750
G01 X11.7750 Y6.7250
G01 X11.9750 Y6.7250
G01 X11.9750 Y6.9750
G01 X11.7750 Y6.9750
G01 X11.7750 Y6.7250
G01 X11.7250 Y6.6750
G01 X12.0250 Y6.6750
G01 X12.0250 Y7.0250
G01 X11.7250 Y7.0250
G01 X11.7250 Y6.6750
G01 X11.6750 Y6.6250
G01 X12.0750 Y6.6250
G01 X12.0750 Y7.0750
G01 X11.6750 Y7.0750
G01 X11.6750 Y6.6250
G00 Z2.0000
G00 X12.2850 Y4.9912
G01 F60.00
G01 Z-0.1000
G01 F120.00
G01 X12.2850 Y5.4888
G01 X12.2841 Y5.5071
G01 X12.2816 Y5.5241
G01 X12.2774 Y5.5408
G01 X12.2716 Y5.5569
G01 X12.2643 Y5.5725
G01 X12.2555 Y5.5872
G01 X12.2452 Y5.6010
G01 X12.2337 Y5.6137
G01 X12.2210 Y5.6252
G01 X12.2072 Y5.6355
G01 X12.1925 Y5.6443
G01 X12.1769 Y5.6516
G01 X12.1608 Y5.6574
G01 X12.1441 Y5.6616
G01 X12.1271 Y5.6641
G01 X12.1088 Y5.6650
G01 X11.6612 Y5.6650
G01 X11.6429 Y5.6641
G01 X11.6259 Y5.6616
G01 X11.6092 Y5.6574
G01 X11.5931 Y5.6516
G01 X11.5775 Y5.6443
G01 X11.5628 Y5.6355
G01 X11.5490 Y5.6252
G01 X11.5363 Y5.6137
G01 X11.5248 Y5.6010
G01 X11.5145 Y5.5872
G01 X11.5057 Y5.5725
G01 X11.4984 Y5.5569
G01 X11.4926 Y5.5408
G01 X11.4884 Y5.5241
G01 X11.4859 Y5.5071
G01 X11.4850 Y5.4888
G01 X11.4850 Y4.9912
G01 X11.4859 Y4.9729
G01 X11.4884 Y4.9559
G01 X11.4926 Y4.9392
G01 X11.4984 Y4.9231
G01 X11.5057 Y4.9075
G01 X11.5145 Y4.8928
G01 X11.5248 Y4.8790
G01 X11.5363 Y4.8663
G01 X11.5490 Y4.8548
G01 X11.5628 Y4.8445
G01 X11.5775 Y4.8357
G01 X11.5931 Y4.8284
G01 X11.6092 Y4.8226
G01 X11.6259 Y4.8184
G01 X11.6429 Y4.8159
G01 X11.6612 Y4.8150
G01 X12.1088 Y4.8150
G01 X12.1271 Y4.8159
G01 X12.1441 Y4.8184
G01 X12.1608 Y4.8226
G01 X12.1769 Y4.8284
G01 X12.1925 Y4.8357
G01 X12.2072 Y4.8445
G01 X12.2210 Y4.8548
G01 X12.2337 Y4.8663
G01 X12.2452 Y4.8790
G01 X12.2555 Y4.8928
G01 X12.2643 Y4.9075
G01 X12.2716 Y4.9231
G01 X12.2774 Y4.9392
G01 X12.2816 Y4.9559
G01 X12.2841 Y4.9729
G01 X12.2850 Y4.9912
G01 X12.2350 Y4.9925
G01 X12.2350 Y5.4875
G01 X12.2343 Y5.5022
G01 X12.2325 Y5.5144
G01 X12.2295 Y5.5263
G01 X12.2254 Y5.5378
G01 X12.2201 Y5.5489
G01 X12.2138 Y5.5594
G01 X12.2065 Y5.5692
G01 X12.1983 Y5.5783
G01 X12.1892 Y5.5865
G01 X12.1794 Y5.5938
G01 X12.1689 Y5.6001
G01 X12.1578 Y5.6054
G01 X12.1463 Y5.6095
G01 X12.1344 Y5.6125
G01 X12.1222 Y5.6143
G01 X12.1075 Y5.6150
G01 X11.6625 Y5.6150
G01 X11.6478 Y5.6143
G01 X11.6356 Y5.6125
G01 X11.6237 Y5.6095
G01 X11.6122 Y5.6054
G01 X11.6011 Y5.6001
G01 X11.5906 Y5.5938
G01 X11.5808 Y5.5865
G01 X11.5717 Y5.5783
G01 X11.5635 Y5.5692
G01 X11.5562 Y5.5594
G01 X11.5499 Y5.5489
G01 X11.5446 Y5.5378
G01 X11.5405 Y5.5263
G01 X11.5375 Y5.5144
G01 X11.5357 Y5.5022
G01 X11.5350 Y5.4875
G01 X11.5350 Y4.9925
G01 X11.5357 Y4.9778
G01 X11.5375 Y4.9656
G01 X11.5405 Y4.9537
G01 X11.5446 Y4.9422
G01 X11.5499 Y4.9311
G01 X11.5562 Y4.9206
G01 X11.5635 Y4.9108
G01 X11.5717 Y4.9017
G01 X11.5808 Y4.8935
G01 X11.5906 Y4.8862
G01 X11.6011 Y4.8799
G01 X11.6122 Y4.8746
G01 X11.6237 Y4.8705
G01 X11.6356 Y4.8675
G01 X11.6478 Y4.8657
G01 X11.6625 Y4.8650
G01 X12.1075 Y4.8650
G01 X12.1222 Y4.8657
G01 X12.1344 Y4.8675
G01 X12.1463 Y4.8705
G01 X12.1578 Y4.8746
G01 X12.1689 Y4.8799
G01 X12.1794 Y4.8862
G01 X12.1892 Y4.8935
G01 X12.1983 Y4.9017
G01 X12.2065 Y4.9108
G01 X12.2138 Y4.9206
G01 X12.2201 Y4.9311
G01 X12.2254 Y4.9422
G01 X12.2295 Y4.9537
G01 X12.2325 Y4.9656
G01 X12.2343 Y4.9778
G01 X12.2350 Y4.9925
G01 X12.1850 Y4.9937
G01 X12.1850 Y5.4863
G01 X12.1845 Y5.4973
G01 X12.1834 Y5.5046
G01 X12.1816 Y5.5117
G01 X12.1791 Y5.5186
G01 X12.1760 Y5.5253
G01 X12.1722 Y5.5316
G01 X12.1678 Y5.5375
G01 X12.1629 Y5.5429
G01 X12.1575 Y5.5478
G01 X12.1516 Y5.5522
G01 X12.1453 Y5.5560
G01 X12.1386 Y5.5591
G01 X12.1317 Y5.5616
G01 X12.1246 Y5.5634
G01 X12.1173 Y5.5645
G01 X12.1063 Y5.5650
G01 X11.6637 Y5.5650
G01 X11.6527 Y5.5645
G01 X11.6454 Y5.5634
G01 X11.6383 Y5.5616
G01 X11.6314 Y5.5591
G01 X11.6247 Y5.5560
G01 X11.6184 Y5.5522
G01 X11.6125 Y5.5478
G01 X11.6071 Y5.5429
G01 X11.6022 Y5.5375
G01 X11.5978 Y5.5316
G01 X11.5940 Y5.5253
G01 X11.5909 Y5.5186
G01 X11.5884 Y5.5117
G01 X11.5866 Y5.5046
G01 X11.5855 Y5.4973
G01 X11.5850 Y5.4863
G01 X11.5850 Y4.9937
G01 X11.5855 Y4.9827
G01 X11.5866 Y4.9754
G01 X11.5884 Y4.9683
G01 X11.5909 Y4.9614
G01 X11.5940 Y4.9547
G01 X11.5978 Y4.9484
G01 X11.6022 Y4.9425
G01 X11.6071 Y4.9371
G01 X11.6125 Y4.9322
G01 X11.6184 Y4.9278
G01 X11.6247 Y4.9240
G01 X11.6314 Y4.9209
G01 X11.6383 Y4.9184
G01 X11.6454 Y4.9166
G01 X11.6527 Y4.9155
G01 X11.6637 Y4.9150
G01 X12.1063 Y4.9150
G01 X12.1173 Y4.9155
G01 X12.1246 Y4.9166
G01 X12.1317 Y4.9184
G01 X12.1386 Y4.9209
G01 X12.1453 Y4.9240
G01 X12.1516 Y4.9278
G01 X12.1575 Y4.9322
G01 X12.1629 Y4.9371
G01 X12.1678 Y4.9425
G01 X12.1722 Y4.9484
G01 X12.1760 Y4.9547
G01 X12.1791 Y4.9614
G01 X12.1816 Y4.9683
G01 X12.1834 Y4.9754
G01 X12.1845 Y4.9827
G01 X12.1850 Y4.9937
G01 X12.1350 Y4.9949
G01 X12.1350 Y5.4851
G01 X12.1343 Y5.4948
G01 X12.1329 Y5.4995
G01 X12.1306 Y5.5038
G01 X12.1275 Y5.5075
G01 X12.1238 Y5.5106
G01 X12.1195 Y5.5129
G01 X12.1148 Y5.5143
G01 X12.1051 Y5.5150
G01 X11.6649 Y5.5150
G01 X11.6576 Y5.5146
G01 X11.6528 Y5.5137
G01 X11.6483 Y5.5118
G01 X11.6425 Y5.5075
G01 X11.6394 Y5.5038
G01 X11.6363 Y5.4972
G01 X11.6354 Y5.4924
G01 X11.6350 Y5.4851
G01 X11.6350 Y4.9949
G01 X11.6354 Y4.9876
G01 X11.6363 Y4.9828
G01 X11.6394 Y4.9762
G01 X11.6425 Y4.9725
G01 X11.6483 Y4.9682
G01 X11.6528 Y4.9663
G01 X11.6576 Y4.9654
G01 X11.6649 Y4.9650
G01 X12.1051 Y4.9650
G01 X12.1124 Y4.9654
G01 X12.1195 Y4.9671
G01 X12.1257 Y4.9709
G01 X12.1291 Y4.9743
G01 X12.1318 Y4.9783
G01 X12.1337 Y4.9828
G01 X12.1346 Y4.9876
G01 X12.1350 Y4.9949
G01 X11.8350 Y5.1650
G01 X11.9350 Y5.1650
G01 X11.9350 Y5.3150
G01 X11.8350 Y5.3150
G01 X11.8350 Y5.1650
G01 X11.7850 Y5.1150
G01 X11.9850 Y5.1150
G01 X11.9850 Y5.3650
G01 X11.7850 Y5.3650
G01 X11.7850 Y5.1150
G01 X11.7350 Y5.0650
G01 X12.0350 Y5.0650
G01 X12.0350 Y5.4150
G01 X11.7350 Y5.4150
G01 X11.7350 Y5.0650
G01 X11.6850 Y5.0150
G01 X12.0850 Y5.0150
G01 X12.0850 Y5.4650
G01 X11.6850 Y5.4650
G01 X11.6850 Y5.0150
G00 Z2.0000
G00 X13.2350 Y5.0150
G01 F60.00
G01 Z-0.1000
G01 F120.00
G01 X13.2350 Y5.4650
G01 X13.6350 Y5.4650
G01 X13.6350 Y5.0150
G01 X13.2350 Y5.0150
G01 X13.2850 Y5.0650
G01 X13.2850 Y5.4150
G01 X13.5850 Y5.4150
G01 X13.5850 Y5.0650
G01 X13.2850 Y5.0650
G01 X13.3350 Y5.1150
G01 X13.3350 Y5.3650
G01 X13.5350 Y5.3650
G01 X13.5350 Y5.1150
G01 X13.3350 Y5.1150
G01 X13.3850 Y5.1650
G01 X13.3850 Y5.3150
G01 X13.4850 Y5.3150
G01 X13.4850 Y5.1650
G01 X13.3850 Y5.1650
G01 X13.6850 Y4.9949
G01 X13.6846 Y4.9876
G01 X13.6837 Y4.9828
G01 X13.6818 Y4.9783
G01 X13.6791 Y4.9743
G01 X13.6757 Y4.9709
G01 X13.6695 Y4.9671
G01 X13.6624 Y4.9654
G01 X13.6551 Y4.9650
G01 X13.2149 Y4.9650
G01 X13.2076 Y4.9654
G01 X13.2028 Y4.9663
