(G-CODE GENERATED BY FLATCAM v8.993 - www.flatcam.org - Version Date: 2020/06/05)

(Name: copper_top_0.05mm)
(Type: G-code from Geometry)
(Units: MM)

(Created on Tuesday, 06 August 2024 at 16:41)

(This preprocessor is the default preprocessor used by FlatCAM.)
(It is made to work with MACH3 compatible motion controllers.)

(TOOL DIAMETER: 0.1 mm)
(Feedrate_XY: 120.0 mm/min)
(Feedrate_Z: 60.0 mm/min)
(Feedrate rapids 1500.0 mm/min)

(Z_Cut: -0.05 mm)
(Z_Move: 2.0 mm)
(Z Start: None mm)
(Z End: 15.0 mm)
(Steps per circle: 64)
(Preprocessor Geometry: default)

(X range:    4.1525 ...   66.2475  mm)
(Y range:    4.1525 ...   92.6475  mm)

(Spindle Speed: 1000 RPM)
G21
G90
G94



G01 F120.00
G00 Z2.0000

M03 S1000
G00 X4.4952 Y4.1627
G01 F60.00
G01 Z-0.0500
G01 F120.00
G01 X4.4998 Y4.1664
G01 X4.5032 Y4.1699
G01 X4.5070 Y4.1747
G01 X4.5101 Y4.1797
G01 X4.5127 Y4.1851
G01 X4.5144 Y4.1896
G01 X4.5165 Y4.2001
G01 X4.5167 Y4.2050
G01 X4.5163 Y4.2111
G01 X4.5153 Y4.2168
G01 X4.5136 Y4.2227
G01 X4.5118 Y4.2272
G01 X4.5089 Y4.2325
G01 X4.5055 Y4.2374
G01 X4.5022 Y4.2413
G01 X4.2422 Y4.5014
G01 X4.2374 Y4.5055
G01 X4.2291 Y4.5108
G01 X4.2214 Y4.5140
G01 X4.2122 Y4.5162
G01 X4.2025 Y4.5166
G01 X4.1930 Y4.5153
G01 X4.1836 Y4.5121
G01 X4.1760 Y4.5079
G01 X4.1685 Y4.5019
G01 X4.1622 Y4.4945
G01 X4.1591 Y4.4895
G01 X4.1569 Y4.4852
G01 X4.1552 Y4.4806
G01 X4.1537 Y4.4750
G01 X4.1529 Y4.4703
G01 X4.1525 Y4.4642
G01 X4.1526 Y4.2025
G01 X4.1539 Y4.1930
G01 X4.1571 Y4.1836
G01 X4.1613 Y4.1760
G01 X4.1673 Y4.1685
G01 X4.1747 Y4.1622
G01 X4.1797 Y4.1591
G01 X4.1840 Y4.1569
G01 X4.1886 Y4.1552
G01 X4.1942 Y4.1537
G01 X4.2038 Y4.1525
G01 X4.4654 Y4.1525
G01 X4.4728 Y4.1532
G01 X4.4810 Y4.1553
G01 X4.4889 Y4.1587
G01 X4.4952 Y4.1627
G00 Z2.0000
G00 X5.9024 Y5.0300
G01 F60.00
G01 Z-0.0500
G01 F120.00
G01 X5.8983 Y5.1133
G01 X5.8857 Y5.1982
G01 X5.8648 Y5.2815
G01 X5.8359 Y5.3623
G01 X5.7992 Y5.4400
G01 X5.7550 Y5.5136
G01 X5.7039 Y5.5826
G01 X5.6462 Y5.6462
G01 X5.5826 Y5.7039
G01 X5.5136 Y5.7550
G01 X5.4400 Y5.7992
G01 X5.3623 Y5.8359
G01 X5.2815 Y5.8648
G01 X5.1982 Y5.8857
G01 X5.1133 Y5.8983
G01 X5.0275 Y5.9025
G01 X4.9417 Y5.8983
G01 X4.8568 Y5.8857
G01 X4.7735 Y5.8648
G01 X4.6927 Y5.8359
G01 X4.6150 Y5.7992
G01 X4.5414 Y5.7550
G01 X4.4724 Y5.7039
G01 X4.4088 Y5.6462
G01 X4.3511 Y5.5826
G01 X4.3000 Y5.5136
G01 X4.2558 Y5.4400
G01 X4.2191 Y5.3623
G01 X4.1902 Y5.2815
G01 X4.1693 Y5.1982
G01 X4.1567 Y5.1133
G01 X4.1525 Y5.0275
G01 X4.1567 Y4.9417
G01 X4.1693 Y4.8568
G01 X4.1902 Y4.7735
G01 X4.2191 Y4.6927
G01 X4.2558 Y4.6150
G01 X4.3000 Y4.5414
G01 X4.3511 Y4.4724
G01 X4.4088 Y4.4088
G01 X4.4724 Y4.3511
G01 X4.5414 Y4.3000
G01 X4.6150 Y4.2558
G01 X4.6927 Y4.2191
G01 X4.7735 Y4.1902
G01 X4.8568 Y4.1693
G01 X4.9417 Y4.1567
G01 X5.0275 Y4.1525
G01 X5.1133 Y4.1567
G01 X5.1982 Y4.1693
G01 X5.2815 Y4.1902
G01 X5.3623 Y4.2191
G01 X5.4400 Y4.2558
G01 X5.5136 Y4.3000
G01 X5.5826 Y4.3511
G01 X5.6462 Y4.4088
G01 X5.7039 Y4.4724
G01 X5.7550 Y4.5414
G01 X5.7992 Y4.6150
G01 X5.8359 Y4.6927
G01 X5.8648 Y4.7735
G01 X5.8857 Y4.8568
G01 X5.8983 Y4.9417
G01 X5.9024 Y5.0300
G00 Z2.0000
G00 X7.0955 Y8.8926
G01 F60.00
G01 Z-0.0500
G01 F120.00
G01 X7.4645 Y8.8926
G01 X7.8053 Y9.0338
G01 X8.0662 Y9.2947
G01 X8.2074 Y9.6355
G01 X8.2074 Y10.0045
G01 X8.0662 Y10.3453
G01 X7.8053 Y10.6062
G01 X7.4645 Y10.7474
G01 X7.0955 Y10.7474
G01 X6.7547 Y10.6062
G01 X6.4938 Y10.3453
G01 X6.3526 Y10.0045
G01 X6.3526 Y9.6355
G01 X6.4938 Y9.2947
G01 X6.7547 Y9.0338
G01 X7.0955 Y8.8926
G00 Z2.0000
G00 X8.1549 Y9.8225
G01 F60.00
G01 Z-0.0500
G01 F120.00
G01 X8.1508 Y9.9058
G01 X8.1382 Y9.9907
G01 X8.1173 Y10.0740
G01 X8.0884 Y10.1548
G01 X8.0517 Y10.2325
G01 X8.0075 Y10.3061
G01 X7.9564 Y10.3751
G01 X7.8987 Y10.4387
G01 X7.8351 Y10.4964
G01 X7.7661 Y10.5475
G01 X7.6925 Y10.5917
G01 X7.6148 Y10.6284
G01 X7.5340 Y10.6573
G01 X7.4507 Y10.6782
G01 X7.3658 Y10.6908
G01 X7.2800 Y10.6950
G01 X7.1942 Y10.6908
G01 X7.1093 Y10.6782
G01 X7.0260 Y10.6573
G01 X6.9452 Y10.6284
G01 X6.8675 Y10.5917
G01 X6.7939 Y10.5475
G01 X6.7249 Y10.4964
G01 X6.6613 Y10.4387
G01 X6.6036 Y10.3751
G01 X6.5525 Y10.3061
G01 X6.5083 Y10.2325
G01 X6.4716 Y10.1548
G01 X6.4427 Y10.0740
G01 X6.4218 Y9.9907
G01 X6.4092 Y9.9058
G01 X6.4050 Y9.8200
G01 X6.4092 Y9.7342
G01 X6.4218 Y9.6493
G01 X6.4427 Y9.5660
G01 X6.4716 Y9.4852
G01 X6.5083 Y9.4075
G01 X6.5525 Y9.3339
G01 X6.6036 Y9.2649
G01 X6.6613 Y9.2013
G01 X6.7249 Y9.1436
G01 X6.7939 Y9.0925
G01 X6.8675 Y9.0483
G01 X6.9452 Y9.0116
G01 X7.0260 Y8.9827
G01 X7.1093 Y8.9618
G01 X7.1942 Y8.9492
G01 X7.2800 Y8.9450
G01 X7.3658 Y8.9492
G01 X7.4507 Y8.9618
G01 X7.5340 Y8.9827
G01 X7.6148 Y9.0116
G01 X7.6925 Y9.0483
G01 X7.7661 Y9.0925
G01 X7.8351 Y9.1436
G01 X7.8987 Y9.2013
G01 X7.9564 Y9.2649
G01 X8.0075 Y9.3339
G01 X8.0517 Y9.4075
G01 X8.0884 Y9.4852
G01 X8.1173 Y9.5660
G01 X8.1382 Y9.6493
G01 X8.1508 Y9.7342
G01 X8.1549 Y9.8225
G00 Z2.0000
G00 X9.6355 Y8.8926
G01 F60.00
G01 Z-0.0500
G01 F120.00
G01 X10.0045 Y8.8926
G01 X10.3453 Y9.0338
G01 X10.6062 Y9.2947
G01 X10.7474 Y9.6355
G01 X10.7474 Y10.0045
G01 X10.6062 Y10.3453
G01 X10.3453 Y10.6062
G01 X10.0045 Y10.7474
G01 X9.6355 Y10.7474
G01 X9.2947 Y10.6062
G01 X9.0338 Y10.3453
G01 X8.8926 Y10.0045
G01 X8.8926 Y9.6355
G01 X9.0338 Y9.2947
G01 X9.2947 Y9.0338
G01 X9.6355 Y8.8926
G00 Z2.0000
G00 X10.6949 Y9.8225
G01 F60.00
G01 Z-0.0500
G01 F120.00
G01 X10.6908 Y9.9058
G01 X10.6782 Y9.9907
G01 X10.6573 Y10.0740
G01 X10.6284 Y10.1548
G01 X10.5917 Y10.2325
G01 X10.5475 Y10.3061
G01 X10.4964 Y10.3751
G01 X10.4387 Y10.4387
G01 X10.3751 Y10.4964
G01 X10.3061 Y10.5475
G01 X10.2325 Y10.5917
G01 X10.1548 Y10.6284
G01 X10.0740 Y10.6573
G01 X9.9907 Y10.6782
G01 X9.9058 Y10.6908
G01 X9.8200 Y10.6950
G01 X9.7342 Y10.6908
G01 X9.6493 Y10.6782
G01 X9.5660 Y10.6573
G01 X9.4852 Y10.6284
G01 X9.4075 Y10.5917
G01 X9.3339 Y10.5475
G01 X9.2649 Y10.4964
G01 X9.2013 Y10.4387
G01 X9.1436 Y10.3751
G01 X9.0925 Y10.3061
G01 X9.0483 Y10.2325
G01 X9.0116 Y10.1548
G01 X8.9827 Y10.0740
G01 X8.9618 Y9.9907
G01 X8.9492 Y9.9058
G01 X8.9450 Y9.8200
G01 X8.9492 Y9.7342
G01 X8.9618 Y9.6493
G01 X8.9827 Y9.5660
G01 X9.0116 Y9.4852
G01 X9.0483 Y9.4075
G01 X9.0925 Y9.3339
G01 X9.1436 Y9.2649
G01 X9.2013 Y9.2013
G01 X9.2649 Y9.1436
G01 X9.3339 Y9.0925
G01 X9.4075 Y9.0483
G01 X9.4852 Y9.0116
G01 X9.5660 Y8.9827
G01 X9.6493 Y8.9618
G01 X9.7342 Y8.9492
G01 X9.8200 Y8.9450
G01 X9.9058 Y8.9492
G01 X9.9907 Y8.9618
G01 X10.0740 Y8.9827
G01 X10.1548 Y9.0116
G01 X10.2325 Y9.0483
G01 X10.3061 Y9.0925
G01 X10.3751 Y9.1436
G01 X10.4387 Y9.2013
G01 X10.4964 Y9.2649
G01 X10.5475 Y9.3339
G01 X10.5917 Y9.4075
G01 X10.6284 Y9.4852
G01 X10.6573 Y9.5660
G01 X10.6782 Y9.6493
G01 X10.6908 Y9.7342
G01 X10.6949 Y9.8225
G00 Z2.0000
G00 X12.2338 Y10.6848
G01 F60.00
G01 Z-0.0500
G01 F120.00
G01 X12.1881 Y10.6779
G01 X12.1072 Y10.6577
G01 X12.0240 Y10.6279
G01 X11.9475 Y10.5917
G01 X11.8759 Y10.5488
G01 X11.8059 Y10.4972
G01 X11.7413 Y10.4387
G01 X11.6821 Y10.3732
G01 X11.6325 Y10.3061
G01 X11.5895 Y10.2346
G01 X11.5521 Y10.1560
G01 X11.5227 Y10.0740
G01 X11.5014 Y9.9883
G01 X11.4892 Y9.9058
G01 X11.4851 Y9.8225
G01 X11.4892 Y9.7342
G01 X11.5024 Y9.6469
G01 X11.5227 Y9.5660
G01 X11.5507 Y9.4874
G01 X11.5883 Y9.4075
G01 X11.6332 Y9.3329
G01 X11.6836 Y9.2649
G01 X11.7413 Y9.2013
G01 X11.8049 Y9.1436
G01 X11.8739 Y9.0925
G01 X11.9475 Y9.0483
G01 X12.0252 Y9.0116
G01 X12.1060 Y8.9827
G01 X12.1905 Y8.9616
G01 X12.2742 Y8.9492
G01 X12.3600 Y8.9450
G01 X12.4458 Y8.9492
G01 X12.5319 Y8.9621
G01 X12.6140 Y8.9827
G01 X12.6960 Y9.0121
G01 X12.7735 Y9.0489
G01 X12.8451 Y9.0918
G01 X12.8823 Y9.1192
G01 X14.3907 Y7.6107
G01 X14.3999 Y7.6024
G01 X14.4119 Y7.5937
G01 X14.4205 Y7.5887
G01 X14.4294 Y7.5844
G01 X14.4434 Y7.5792
G01 X14.4554 Y7.5762
G01 X14.4652 Y7.5747
G01 X14.4800 Y7.5738
G01 X15.3212 Y7.5738
G01 X15.3324 Y7.5744
G01 X15.3422 Y7.5758
G01 X15.3566 Y7.5792
G01 X15.3706 Y7.5844
G01 X15.3795 Y7.5887
G01 X15.3891 Y7.5944
G01 X15.4001 Y7.6024
G01 X15.4093 Y7.6107
G01 X16.9177 Y9.1192
G01 X16.9549 Y9.0918
G01 X17.0265 Y9.0489
G01 X17.1052 Y9.0116
G01 X17.1872 Y8.9823
G01 X17.2681 Y8.9621
G01 X17.3138 Y8.9552
G01 X17.3138 Y8.8588
G01 X17.3144 Y8.8476
G01 X17.3162 Y8.8354
G01 X17.3192 Y8.8234
G01 X17.3225 Y8.8140
G01 X17.3287 Y8.8005
G01 X17.3365 Y8.7879
G01 X17.3424 Y8.7799
G01 X17.3490 Y8.7725
G01 X18.8107 Y7.3107
G01 X18.8219 Y7.3009
G01 X18.8299 Y7.2950
G01 X18.8384 Y7.2899
G01 X18.8517 Y7.2834
G01 X18.8645 Y7.2789
G01 X18.8754 Y7.2762
G01 X18.8852 Y7.2747
G01 X18.9000 Y7.2738
G01 X20.7000 Y7.2738
G01 X20.7124 Y7.2744
G01 X20.7270 Y7.2767
G01 X20.7366 Y7.2792
G01 X20.7460 Y7.2825
G01 X20.7595 Y7.2887
G01 X20.7701 Y7.2950
G01 X20.7781 Y7.3009
G01 X20.7893 Y7.3107
G01 X21.2901 Y7.8116
G01 X21.2991 Y7.8219
G01 X21.3050 Y7.8299
G01 X21.3101 Y7.8384
G01 X21.3166 Y7.8517
G01 X21.3208 Y7.8634
G01 X21.3238 Y7.8754
G01 X21.3253 Y7.8852
G01 X21.3262 Y7.9000
G01 X21.3262 Y14.9000
G01 X21.3256 Y14.9124
G01 X21.3233 Y14.9270
G01 X21.3208 Y14.9366
G01 X21.3175 Y14.9460
G01 X21.3119 Y14.9584
G01 X21.3035 Y14.9721
G01 X21.2976 Y14.9801
G01 X21.2893 Y14.9893
G01 X13.8262 Y22.4523
G01 X13.8262 Y28.2477
G01 X15.1523 Y29.5738
G01 X31.4477 Y29.5738
G01 X35.0938 Y25.9277
G01 X35.0938 Y25.9248
G01 X35.0481 Y25.9179
G01 X34.9672 Y25.8977
G01 X34.8840 Y25.8679
G01 X34.8075 Y25.8317
G01 X34.7359 Y25.7888
G01 X34.6640 Y25.7356
G01 X34.6013 Y25.6787
G01 X34.5452 Y25.6170
G01 X34.4925 Y25.5461
G01 X34.4472 Y25.4703
G01 X34.4116 Y25.3948
G01 X34.3830 Y25.3152
G01 X34.3614 Y25.2283
G01 X34.3492 Y25.1458
G01 X34.3451 Y25.0625
G01 X34.3492 Y24.9742
G01 X34.3624 Y24.8869
G01 X34.3827 Y24.8060
G01 X34.4107 Y24.7274
G01 X34.4483 Y24.6475
G01 X34.4939 Y24.5719
G01 X34.5436 Y24.5049
G01 X34.6004 Y24.4422
G01 X34.6649 Y24.3836
G01 X34.7359 Y24.3312
G01 X34.8075 Y24.2883
G01 X34.8829 Y24.2526
G01 X34.9660 Y24.2227
G01 X35.0493 Y24.2018
G01 X35.1367 Y24.1890
G01 X35.2200 Y24.1850
G01 X35.3033 Y24.1890
G01 X35.3907 Y24.2018
G01 X35.4740 Y24.2227
G01 X35.5571 Y24.2526
G01 X35.6325 Y24.2883
G01 X35.7041 Y24.3312
G01 X35.7751 Y24.3836
G01 X35.8404 Y24.4431
G01 X35.8964 Y24.5049
G01 X35.9461 Y24.5719
G01 X35.9917 Y24.6475
G01 X36.0289 Y24.7263
G01 X36.0573 Y24.8060
G01 X36.0776 Y24.8869
G01 X36.0908 Y24.9742
G01 X36.0949 Y25.0625
G01 X36.0908 Y25.1458
G01 X36.0786 Y25.2283
G01 X36.0573 Y25.3140
G01 X36.0274 Y25.3971
G01 X35.9917 Y25.4725
G01 X35.9488 Y25.5441
G01 X35.8956 Y25.6160
G01 X35.8387 Y25.6787
G01 X35.7751 Y25.7364
G01 X35.7061 Y25.7875
G01 X35.6335 Y25.8311
G01 X35.5548 Y25.8684
G01 X35.4752 Y25.8970
G01 X35.3919 Y25.9179
G01 X35.3462 Y25.9248
G01 X35.3462 Y25.9800
G01 X35.3458 Y25.9899
G01 X35.3440 Y26.0034
G01 X35.3415 Y26.0143
G01 X35.3366 Y26.0283
G01 X35.3301 Y26.0416
G01 X35.3250 Y26.0501
G01 X35.3191 Y26.0581
G01 X35.3093 Y26.0693
G01 X31.5893 Y29.7893
G01 X31.5781 Y29.7991
G01 X31.5701 Y29.8050
G01 X31.5595 Y29.8113
G01 X31.5483 Y29.8166
G01 X31.5390 Y29.8200
G01 X31.5234 Y29.8240
G01 X31.5124 Y29.8256
G01 X31.5000 Y29.8262
G01 X15.1000 Y29.8262
G01 X15.0888 Y29.8257
G01 X15.0766 Y29.8240
G01 X15.0657 Y29.8215
G01 X15.0494 Y29.8156
G01 X15.0405 Y29.8113
G01 X15.0299 Y29.8050
G01 X15.0199 Y29.7976
G01 X15.0116 Y29.7901
G01 X13.6107 Y28.3893
G01 X13.6040 Y28.3819
G01 X13.5957 Y28.3711
G01 X13.5899 Y28.3616
G01 X13.5825 Y28.3460
G01 X13.5792 Y28.3366
G01 X13.5762 Y28.3246
G01 X13.5744 Y28.3124
G01 X13.5738 Y28.3000
G01 X13.5738 Y22.4000
G01 X13.5747 Y22.3852
G01 X13.5762 Y22.3754
G01 X13.5785 Y22.3657
G01 X13.5834 Y22.3517
G01 X13.5893 Y22.3394
G01 X13.5950 Y22.3299
G01 X13.6009 Y22.3219
G01 X13.6107 Y22.3107
G01 X21.0738 Y14.8477
G01 X21.0738 Y7.9523
G01 X20.6477 Y7.5262
G01 X18.9523 Y7.5262
G01 X17.5662 Y8.9123
G01 X17.5662 Y8.9552
G01 X17.6119 Y8.9621
G01 X17.6928 Y8.9823
G01 X17.7737 Y9.0111
G01 X17.8525 Y9.0483
G01 X17.9251 Y9.0918
G01 X17.9951 Y9.1436
G01 X18.0569 Y9.1996
G01 X18.1179 Y9.2668
G01 X18.1675 Y9.3339
G01 X18.2117 Y9.4075
G01 X18.2484 Y9.4852
G01 X18.2773 Y9.5660
G01 X18.2982 Y9.6493
G01 X18.3108 Y9.7342
G01 X18.3150 Y9.8200
G01 X18.3109 Y9.9045
G01 X18.2982 Y9.9907
G01 X18.2773 Y10.0740
G01 X18.2484 Y10.1548
G01 X18.2128 Y10.2303
G01 X18.1661 Y10.3081
G01 X18.1164 Y10.3751
G01 X18.0569 Y10.4404
G01 X17.9951 Y10.4964
G01 X17.9261 Y10.5475
G01 X17.8525 Y10.5917
G01 X17.7748 Y10.6284
G01 X17.6940 Y10.6573
G01 X17.6107 Y10.6782
G01 X17.5258 Y10.6908
G01 X17.4425 Y10.6949
G01 X17.3542 Y10.6908
G01 X17.2693 Y10.6782
G01 X17.1860 Y10.6573
G01 X17.1029 Y10.6274
G01 X17.0275 Y10.5917
G01 X16.9559 Y10.5488
G01 X16.8868 Y10.4979
G01 X16.8213 Y10.4387
G01 X16.7621 Y10.3732
G01 X16.7125 Y10.3061
G01 X16.6683 Y10.2325
G01 X16.6316 Y10.1548
G01 X16.6034 Y10.0763
G01 X16.5814 Y9.9883
G01 X16.5692 Y9.9058
G01 X16.5650 Y9.8212
G01 X16.5695 Y9.7318
G01 X16.5818 Y9.6493
G01 X16.6030 Y9.5648
G01 X16.6316 Y9.4852
G01 X16.6678 Y9.4086
G01 X16.7118 Y9.3349
G01 X16.7392 Y9.2977
G01 X15.2677 Y7.8262
G01 X14.5323 Y7.8262
G01 X13.0608 Y9.2977
G01 X13.0882 Y9.3349
G01 X13.1322 Y9.4086
G01 X13.1684 Y9.4852
G01 X13.1977 Y9.5672
G01 X13.2182 Y9.6493
G01 X13.2308 Y9.7342
G01 X13.2350 Y9.8200
G01 X13.2309 Y9.9045
G01 X13.2182 Y9.9907
G01 X13.1973 Y10.0740
G01 X13.1684 Y10.1548
G01 X13.1328 Y10.2303
G01 X13.0861 Y10.3081
G01 X13.0364 Y10.3751
G01 X12.9769 Y10.4404
G01 X12.9151 Y10.4964
G01 X12.8481 Y10.5461
G01 X12.7714 Y10.5922
G01 X12.6948 Y10.6284
G01 X12.6152 Y10.6570
G01 X12.5319 Y10.6779
G01 X12.4862 Y10.6848
G01 X12.4862 Y10.7412
G01 X12.4855 Y10.7536
G01 X12.4833 Y10.7670
G01 X12.4808 Y10.7766
G01 X12.4775 Y10.7860
G01 X12.4713 Y10.7995
G01 X12.4635 Y10.8121
G01 X12.4576 Y10.8201
G01 X12.4510 Y10.8275
G01 X11.2893 Y11.9893
G01 X11.2801 Y11.9976
G01 X11.2701 Y12.0050
G01 X11.2595 Y12.0113
G01 X11.2506 Y12.0156
G01 X11.2366 Y12.0208
G01 X11.2246 Y12.0238
G01 X11.2124 Y12.0256
G01 X11.2000 Y12.0262
G01 X9.5523 Y12.0262
G01 X4.6262 Y16.9523
G01 X4.6262 Y30.3477
G01 X28.4723 Y54.1938
G01 X39.4252 Y54.1938
G01 X39.4321 Y54.1481
G01 X39.4530 Y54.0648
G01 X39.4816 Y53.9852
G01 X39.5189 Y53.9065
G01 X39.5625 Y53.8339
G01 X39.6136 Y53.7649
G01 X39.6713 Y53.7013
G01 X39.7340 Y53.6444
G01 X39.8039 Y53.5925
G01 X39.8754 Y53.5495
G01 X39.9574 Y53.5107
G01 X40.0360 Y53.4827
G01 X40.1193 Y53.4618
G01 X40.2042 Y53.4492
G01 X40.2900 Y53.4450
G01 X40.3758 Y53.4492
G01 X40.4607 Y53.4618
G01 X40.5440 Y53.4827
G01 X40.6226 Y53.5107
G01 X40.7046 Y53.5495
G01 X40.7761 Y53.5925
G01 X40.8460 Y53.6444
G01 X40.9087 Y53.7013
G01 X40.9664 Y53.7649
G01 X41.0175 Y53.8339
G01 X41.0611 Y53.9065
G01 X41.0984 Y53.9852
G01 X41.1270 Y54.0648
G01 X41.1479 Y54.1481
G01 X41.1548 Y54.1938
G01 X41.9652 Y54.1938
G01 X41.9721 Y54.1481
G01 X41.9930 Y54.0648
G01 X42.0216 Y53.9852
G01 X42.0589 Y53.9065
G01 X42.1025 Y53.8339
G01 X42.1536 Y53.7649
G01 X42.2113 Y53.7013
G01 X42.2740 Y53.6444
G01 X42.3439 Y53.5925
G01 X42.4154 Y53.5495
G01 X42.4974 Y53.5107
G01 X42.5760 Y53.4827
G01 X42.6593 Y53.4618
G01 X42.7442 Y53.4492
G01 X42.8300 Y53.4450
G01 X42.9158 Y53.4492
G01 X43.0007 Y53.4618
G01 X43.0840 Y53.4827
G01 X43.1626 Y53.5107
G01 X43.2446 Y53.5495
G01 X43.3161 Y53.5925
G01 X43.3860 Y53.6444
G01 X43.4487 Y53.7013
G01 X43.5064 Y53.7649
G01 X43.5575 Y53.8339
G01 X43.6011 Y53.9065
G01 X43.6384 Y53.9852
G01 X43.6670 Y54.0648
G01 X43.6879 Y54.1481
G01 X43.6948 Y54.1938
G01 X44.5052 Y54.1938
G01 X44.5121 Y54.1481
G01 X44.5330 Y54.0648
G01 X44.5616 Y53.9852
G01 X44.5989 Y53.9065
G01 X44.6425 Y53.8339
G01 X44.6936 Y53.7649
G01 X44.7513 Y53.7013
G01 X44.8140 Y53.6444
G01 X44.8839 Y53.5925
G01 X44.9554 Y53.5495
G01 X45.0374 Y53.5107
G01 X45.1160 Y53.4827
G01 X45.1993 Y53.4618
G01 X45.2842 Y53.4492
G01 X45.3700 Y53.4450
G01 X45.4558 Y53.4492
G01 X45.5407 Y53.4618
G01 X45.6240 Y53.4827
G01 X45.7026 Y53.5107
G01 X45.7846 Y53.5495
G01 X45.8561 Y53.5925
G01 X45.9260 Y53.6444
G01 X45.9887 Y53.7013
G01 X46.0464 Y53.7649
G01 X46.0975 Y53.8339
G01 X46.1411 Y53.9065
G01 X46.1784 Y53.9852
G01 X46.2070 Y54.0648
G01 X46.2279 Y54.1481
G01 X46.2348 Y54.1938
G01 X51.3277 Y54.1938
G01 X61.7638 Y43.7577
G01 X61.7638 Y20.8448
G01 X61.7181 Y20.8379
G01 X61.6348 Y20.8170
G01 X61.5552 Y20.7884
G01 X61.4765 Y20.7511
G01 X61.4039 Y20.7075
G01 X61.3349 Y20.6564
G01 X61.2713 Y20.5987
G01 X61.2144 Y20.5360
G01 X61.1625 Y20.4661
G01 X61.1195 Y20.3946
G01 X61.0807 Y20.3126
G01 X61.0527 Y20.2340
G01 X61.0318 Y20.1507
G01 X61.0192 Y20.0658
G01 X61.0150 Y19.9800
G01 X61.0192 Y19.8942
G01 X61.0318 Y19.8093
G01 X61.0527 Y19.7260
G01 X61.0816 Y19.6452
G01 X61.1183 Y19.5675
G01 X61.1625 Y19.4939
G01 X61.2136 Y19.4249
G01 X61.2713 Y19.3613
G01 X61.3349 Y19.3036
G01 X61.4039 Y19.2525
G01 X61.4775 Y19.2083
G01 X61.5552 Y19.1716
G01 X61.6360 Y19.1427
G01 X61.7193 Y19.1218
G01 X61.8042 Y19.1092
G01 X61.8900 Y19.1050
G01 X61.9758 Y19.1092
G01 X62.0607 Y19.1218
G01 X62.1440 Y19.1427
G01 X62.2248 Y19.1716
G01 X62.3025 Y19.2083
G01 X62.3761 Y19.2525
G01 X62.4451 Y19.3036
G01 X62.5087 Y19.3613
G01 X62.5664 Y19.4249
G01 X62.6175 Y19.4939
G01 X62.6617 Y19.5675
G01 X62.6984 Y19.6452
G01 X62.7273 Y19.7260
G01 X62.7482 Y19.8093
G01 X62.7608 Y19.8942
G01 X62.7650 Y19.9800
G01 X62.7608 Y20.0658
G01 X62.7482 Y20.1507
G01 X62.7273 Y20.2340
G01 X62.6993 Y20.3126
G01 X62.6605 Y20.3946
G01 X62.6175 Y20.4661
G01 X62.5656 Y20.5360
G01 X62.5087 Y20.5987
G01 X62.4451 Y20.6564
G01 X62.3761 Y20.7075
G01 X62.3035 Y20.7511
G01 X62.2248 Y20.7884
G01 X62.1452 Y20.8170
G01 X62.0619 Y20.8379
G01 X62.0162 Y20.8448
G01 X62.0162 Y43.8100
G01 X62.0153 Y43.8248
G01 X62.0138 Y43.8346
G01 X62.0108 Y43.8466
G01 X62.0066 Y43.8583
G01 X62.0024 Y43.8673
G01 X61.9950 Y43.8801
G01 X61.9876 Y43.8901
G01 X61.9793 Y43.8993
G01 X51.4693 Y54.4093
G01 X51.4601 Y54.4176
G01 X51.4481 Y54.4263
G01 X51.4395 Y54.4313
G01 X51.4306 Y54.4356
G01 X51.4166 Y54.4408
G01 X51.4046 Y54.4438
G01 X51.3948 Y54.4453
G01 X51.3800 Y54.4462
G01 X46.2348 Y54.4462
G01 X46.2279 Y54.4919
G01 X46.2070 Y54.5752
G01 X46.1784 Y54.6548
G01 X46.1411 Y54.7335
G01 X46.0975 Y54.8061
G01 X46.0464 Y54.8751
G01 X45.9887 Y54.9387
G01 X45.9260 Y54.9956
G01 X45.8561 Y55.0475
G01 X45.7846 Y55.0905
G01 X45.7026 Y55.1293
G01 X45.6240 Y55.1573
G01 X45.5407 Y55.1782
G01 X45.4558 Y55.1908
G01 X45.3700 Y55.1950
G01 X45.2842 Y55.1908
G01 X45.1993 Y55.1782
G01 X45.1160 Y55.1573
G01 X45.0374 Y55.1293
G01 X44.9554 Y55.0905
G01 X44.8839 Y55.0475
G01 X44.8140 Y54.9956
G01 X44.7513 Y54.9387
G01 X44.6936 Y54.8751
G01 X44.6425 Y54.8061
G01 X44.5989 Y54.7335
G01 X44.5616 Y54.6548
G01 X44.5330 Y54.5752
G01 X44.5121 Y54.4919
G01 X44.5052 Y54.4462
G01 X43.6948 Y54.4462
G01 X43.6879 Y54.4919
G01 X43.6670 Y54.5752
G01 X43.6384 Y54.6548
G01 X43.6011 Y54.7335
G01 X43.5575 Y54.8061
G01 X43.5064 Y54.8751
G01 X43.4487 Y54.9387
G01 X43.3860 Y54.9956
G01 X43.3161 Y55.0475
G01 X43.2446 Y55.0905
G01 X43.1626 Y55.1293
G01 X43.0840 Y55.1573
G01 X43.0007 Y55.1782
G01 X42.9158 Y55.1908
G01 X42.8300 Y55.1950
G01 X42.7442 Y55.1908
G01 X42.6593 Y55.1782
G01 X42.5760 Y55.1573
G01 X42.4974 Y55.1293
G01 X42.4154 Y55.0905
G01 X42.3439 Y55.0475
G01 X42.2740 Y54.9956
G01 X42.2113 Y54.9387
G01 X42.1536 Y54.8751
G01 X42.1025 Y54.8061
G01 X42.0589 Y54.7335
G01 X42.0216 Y54.6548
G01 X41.9930 Y54.5752
G01 X41.9721 Y54.4919
G01 X41.9652 Y54.4462
G01 X41.1548 Y54.4462
G01 X41.1479 Y54.4919
G01 X41.1270 Y54.5752
G01 X41.0984 Y54.6548
G01 X41.0611 Y54.7335
G01 X41.0175 Y54.8061
G01 X40.9664 Y54.8751
G01 X40.9087 Y54.9387
G01 X40.8460 Y54.9956
G01 X40.7761 Y55.0475
G01 X40.7046 Y55.0905
G01 X40.6226 Y55.1293
G01 X40.5440 Y55.1573
G01 X40.4607 Y55.1782
G01 X40.3758 Y55.1908
G01 X40.2900 Y55.1950
G01 X40.2042 Y55.1908
G01 X40.1193 Y55.1782
G01 X40.0360 Y55.1573
G01 X39.9574 Y55.1293
G01 X39.8754 Y55.0905
G01 X39.8039 Y55.0475
G01 X39.7340 Y54.9956
G01 X39.6713 Y54.9387
G01 X39.6136 Y54.8751
G01 X39.5625 Y54.8061
G01 X39.5189 Y54.7335
G01 X39.4816 Y54.6548
G01 X39.4530 Y54.5752
G01 X39.4321 Y54.4919
G01 X39.4252 Y54.4462
G01 X28.4200 Y54.4462
G01 X28.4052 Y54.4453
G01 X28.3954 Y54.4438
G01 X28.3834 Y54.4408
G01 X28.3717 Y54.4366
G01 X28.3627 Y54.4324
G01 X28.3499 Y54.4250
G01 X28.3399 Y54.4176
G01 X28.3307 Y54.4093
G01 X4.4107 Y30.4893
G01 X4.4024 Y30.4801
G01 X4.3950 Y30.4701
G01 X4.3887 Y30.4595
G01 X4.3825 Y30.4460
G01 X4.3792 Y30.4366
G01 X4.3762 Y30.4246
G01 X4.3744 Y30.4124
G01 X4.3738 Y30.4000
G01 X4.3738 Y16.9000
G01 X4.3744 Y16.8876
G01 X4.3762 Y16.8754
G01 X4.3792 Y16.8634
G01 X4.3829 Y16.8528
G01 X4.3887 Y16.8405
G01 X4.3950 Y16.8299
G01 X4.4024 Y16.8199
G01 X4.4107 Y16.8107
G01 X9.4107 Y11.8107
G01 X9.4209 Y11.8016
G01 X9.4299 Y11.7950
G01 X9.4405 Y11.7887
G01 X9.4517 Y11.7834
G01 X9.4610 Y11.7800
G01 X9.4766 Y11.7760
G01 X9.4876 Y11.7744
G01 X9.4988 Y11.7738
G01 X11.1477 Y11.7738
G01 X12.2338 Y10.6877
G01 X12.2338 Y10.6848
G00 Z2.0000
G00 X14.7738 Y10.6848
G01 F60.00
G01 Z-0.0500
G01 F120.00
G01 X14.7281 Y10.6779
G01 X14.6448 Y10.6570
G01 X14.5652 Y10.6284
G01 X14.4865 Y10.5911
G01 X14.4139 Y10.5475
G01 X14.3449 Y10.4964
G01 X14.2813 Y10.4387
G01 X14.2228 Y10.3741
G01 X14.1725 Y10.3061
G01 X14.1283 Y10.2325
G01 X14.0916 Y10.1548
G01 X14.0627 Y10.0740
G01 X14.0418 Y9.9907
G01 X14.0292 Y9.9058
G01 X14.0250 Y9.8200
G01 X14.0293 Y9.7330
G01 X14.0418 Y9.6493
G01 X14.0627 Y9.5660
G01 X14.0916 Y9.4852
G01 X14.1283 Y9.4075
G01 X14.1725 Y9.3339
G01 X14.2236 Y9.2649
G01 X14.2813 Y9.2013
G01 X14.3449 Y9.1436
G01 X14.4139 Y9.0925
G01 X14.4875 Y9.0483
G01 X14.5652 Y9.0116
G01 X14.6460 Y8.9827
G01 X14.7293 Y8.9618
G01 X14.8142 Y8.9492
G01 X14.9000 Y8.9450
G01 X14.9870 Y8.9493
G01 X15.0707 Y8.9618
G01 X15.1540 Y8.9827
G01 X15.2348 Y9.0116
G01 X15.3103 Y9.0472
G01 X15.3881 Y9.0939
G01 X15.4551 Y9.1436
G01 X15.5204 Y9.2031
G01 X15.5764 Y9.2649
G01 X15.6275 Y9.3339
G01 X15.6717 Y9.4075
G01 X15.7084 Y9.4852
G01 X15.7373 Y9.5660
G01 X15.7582 Y9.6493
G01 X15.7708 Y9.7342
G01 X15.7750 Y9.8188
G01 X15.7705 Y9.9082
G01 X15.7582 Y9.9907
G01 X15.7373 Y10.0740
G01 X15.7084 Y10.1548
G01 X15.6728 Y10.2303
G01 X15.6275 Y10.3061
G01 X15.5764 Y10.3751
G01 X15.5187 Y10.4387
G01 X15.4551 Y10.4964
G01 X15.3851 Y10.5482
G01 X15.3125 Y10.5917
G01 X15.2337 Y10.6289
G01 X15.1528 Y10.6577
G01 X15.0719 Y10.6779
G01 X15.0262 Y10.6848
G01 X15.0262 Y10.9477
G01 X16.3523 Y12.2738
G01 X18.7477 Y12.2738
G01 X19.8538 Y11.1677
G01 X19.8538 Y10.6848
G01 X19.8081 Y10.6779
G01 X19.7272 Y10.6577
G01 X19.6440 Y10.6279
G01 X19.5675 Y10.5917
G01 X19.4959 Y10.5488
G01 X19.4240 Y10.4956
G01 X19.3613 Y10.4387
G01 X19.3052 Y10.3770
G01 X19.2525 Y10.3061
G01 X19.2083 Y10.2325
G01 X19.1726 Y10.1571
G01 X19.1423 Y10.0728
G01 X19.1214 Y9.9883
G01 X19.1092 Y9.9058
G01 X19.1051 Y9.8225
G01 X19.1092 Y9.7342
G01 X19.1218 Y9.6493
G01 X19.1427 Y9.5660
G01 X19.1726 Y9.4829
G01 X19.2083 Y9.4075
G01 X19.2512 Y9.3359
G01 X19.3028 Y9.2659
G01 X19.3631 Y9.1996
G01 X19.4249 Y9.1436
G01 X19.4939 Y9.0925
G01 X19.5697 Y9.0472
G01 X19.6452 Y9.0116
G01 X19.7237 Y8.9834
G01 X19.8093 Y8.9618
G01 X19.8967 Y8.9490
G01 X19.9800 Y8.9450
G01 X20.0633 Y8.9490
G01 X20.1531 Y8.9624
G01 X20.2340 Y8.9827
G01 X20.3126 Y9.0107
G01 X20.3925 Y9.0483
G01 X20.4681 Y9.0939
G01 X20.5351 Y9.1436
G01 X20.5987 Y9.2013
G01 X20.6564 Y9.2649
G01 X20.7061 Y9.3319
G01 X20.7517 Y9.4075
G01 X20.7884 Y9.4852
G01 X20.8166 Y9.5637
G01 X20.8384 Y9.6505
G01 X20.8508 Y9.7342
G01 X20.8550 Y9.8200
G01 X20.8508 Y9.9058
G01 X20.8382 Y9.9907
G01 X20.8173 Y10.0740
G01 X20.7884 Y10.1548
G01 X20.7517 Y10.2325
G01 X20.7068 Y10.3071
G01 X20.6564 Y10.3751
G01 X20.5987 Y10.4387
G01 X20.5351 Y10.4964
G01 X20.4651 Y10.5482
G01 X20.3925 Y10.5917
G01 X20.3137 Y10.6289
G01 X20.2328 Y10.6577
G01 X20.1519 Y10.6779
G01 X20.1062 Y10.6848
G01 X20.1062 Y11.2212
G01 X20.1056 Y11.2324
G01 X20.1042 Y11.2422
G01 X20.1008 Y11.2566
G01 X20.0966 Y11.2683
G01 X20.0924 Y11.2773
G01 X20.0843 Y11.2911
G01 X20.0776 Y11.3001
G01 X20.0693 Y11.3093
G01 X18.8893 Y12.4893
G01 X18.8781 Y12.4991
G01 X18.8701 Y12.5050
G01 X18.8616 Y12.5101
G01 X18.8483 Y12.5166
G01 X18.8355 Y12.5211
G01 X18.8246 Y12.5238
G01 X18.8148 Y12.5253
G01 X18.8000 Y12.5262
G01 X16.3000 Y12.5262
G01 X16.2876 Y12.5256
G01 X16.2778 Y12.5242
G01 X16.2610 Y12.5200
G01 X16.2494 Y12.5156
G01 X16.2405 Y12.5113
G01 X16.2319 Y12.5063
G01 X16.2199 Y12.4976
G01 X16.2107 Y12.4893
G01 X14.8107 Y11.0893
G01 X14.8007 Y11.0778
G01 X13.1893 Y12.6893
G01 X13.1801 Y12.6976
G01 X13.1681 Y12.7063
G01 X13.1595 Y12.7113
G01 X13.1506 Y12.7156
G01 X13.1390 Y12.7200
G01 X13.1222 Y12.7242
G01 X13.1124 Y12.7256
G01 X13.1000 Y12.7262
G01 X10.1523 Y12.7262
G01 X5.4262 Y17.4523
G01 X5.4262 Y29.3477
G01 X27.0333 Y50.9548
G01 X39.4252 Y50.9548
G01 X39.4321 Y50.9091
G01 X39.4530 Y50.8258
G01 X39.4816 Y50.7462
G01 X39.5189 Y50.6675
G01 X39.5625 Y50.5949
G01 X39.6136 Y50.5259
G01 X39.6713 Y50.4623
G01 X39.7340 Y50.4054
G01 X39.8039 Y50.3535
G01 X39.8754 Y50.3105
G01 X39.9574 Y50.2717
G01 X40.0360 Y50.2437
G01 X40.1193 Y50.2228
G01 X40.2042 Y50.2102
G01 X40.2900 Y50.2060
G01 X40.3758 Y50.2102
G01 X40.4607 Y50.2228
G01 X40.5440 Y50.2437
G01 X40.6226 Y50.2717
G01 X40.7046 Y50.3105
G01 X40.7761 Y50.3535
G01 X40.8460 Y50.4054
G01 X40.9087 Y50.4623
G01 X40.9664 Y50.5259
G01 X41.0175 Y50.5949
G01 X41.0611 Y50.6675
G01 X41.0984 Y50.7462
G01 X41.1270 Y50.8258
G01 X41.1479 Y50.9091
G01 X41.1548 Y50.9548
G01 X41.9652 Y50.9548
G01 X41.9721 Y50.9091
G01 X41.9930 Y50.8258
G01 X42.0216 Y50.7462
G01 X42.0589 Y50.6675
G01 X42.1025 Y50.5949
G01 X42.1536 Y50.5259
G01 X42.2113 Y50.4623
G01 X42.2740 Y50.4054
G01 X42.3439 Y50.3535
G01 X42.4154 Y50.3105
G01 X42.4974 Y50.2717
G01 X42.5760 Y50.2437
G01 X42.6593 Y50.2228
G01 X42.7442 Y50.2102
G01 X42.8300 Y50.2060
G01 X42.9158 Y50.2102
G01 X43.0007 Y50.2228
G01 X43.0840 Y50.2437
G01 X43.1626 Y50.2717
G01 X43.2446 Y50.3105
G01 X43.3161 Y50.3535
G01 X43.3860 Y50.4054
G01 X43.4487 Y50.4623
G01 X43.5064 Y50.5259
G01 X43.5575 Y50.5949
G01 X43.6011 Y50.6675
G01 X43.6384 Y50.7462
G01 X43.6670 Y50.8258
G01 X43.6879 Y50.9091
G01 X43.6948 Y50.9548
G01 X44.5052 Y50.9548
G01 X44.5121 Y50.9091
G01 X44.5323 Y50.8282
G01 X44.5621 Y50.7450
G01 X44.5995 Y50.6664
G01 X44.6425 Y50.5949
G01 X44.6928 Y50.5269
G01 X44.7513 Y50.4623
G01 X44.8168 Y50.4031
G01 X44.8839 Y50.3535
G01 X44.9554 Y50.3105
G01 X45.0352 Y50.2726
G01 X45.1184 Y50.2430
G01 X45.1993 Y50.2228
G01 X45.2818 Y50.2105
G01 X45.3700 Y50.2060
G01 X45.4570 Y50.2103
G01 X45.5431 Y50.2234
G01 X45.6240 Y50.2437
G01 X45.7037 Y50.2721
G01 X45.7835 Y50.3099
G01 X45.8551 Y50.3528
G01 X45.8923 Y50.3802
G01 X46.4638 Y49.8087
G01 X46.4638 Y40.1948
G01 X46.4181 Y40.1879
G01 X46.3348 Y40.1670
G01 X46.2552 Y40.1384
G01 X46.1765 Y40.1011
G01 X46.1039 Y40.0575
G01 X46.0349 Y40.0064
G01 X45.9713 Y39.9487
G01 X45.9144 Y39.8860
G01 X45.8625 Y39.8161
G01 X45.8183 Y39.7425
G01 X45.7816 Y39.6648
G01 X45.7534 Y39.5863
G01 X45.7318 Y39.5007
G01 X45.7195 Y39.4182
G01 X45.7151 Y39.3275
G01 X45.7192 Y39.2442
G01 X45.7318 Y39.1593
G01 X45.7527 Y39.0760
G01 X45.7807 Y38.9974
G01 X45.8195 Y38.9154
G01 X45.8625 Y38.8439
G01 X45.9121 Y38.7768
G01 X45.9731 Y38.7096
G01 X46.0349 Y38.6536
G01 X46.1039 Y38.6025
G01 X46.1775 Y38.5583
G01 X46.2529 Y38.5226
G01 X46.3372 Y38.4923
G01 X46.4217 Y38.4714
G01 X46.5042 Y38.4592
G01 X46.5875 Y38.4551
G01 X46.6758 Y38.4592
G01 X46.7607 Y38.4718
G01 X46.8440 Y38.4927
G01 X46.9271 Y38.5226
G01 X47.0046 Y38.5595
G01 X47.0761 Y38.6025
G01 X47.1432 Y38.6521
G01 X47.2087 Y38.7113
G01 X47.2664 Y38.7749
G01 X47.3175 Y38.8439
G01 X47.3628 Y38.9197
G01 X47.3993 Y38.9974
G01 X47.4273 Y39.0760
G01 X47.4476 Y39.1569
G01 X47.4608 Y39.2442
G01 X47.4650 Y39.3300
G01 X47.4608 Y39.4158
G01 X47.4482 Y39.5007
G01 X47.4273 Y39.5840
G01 X47.3993 Y39.6626
G01 X47.3605 Y39.7446
G01 X47.3175 Y39.8161
G01 X47.2656 Y39.8860
G01 X47.2087 Y39.9487
G01 X47.1451 Y40.0064
G01 X47.0761 Y40.0575
G01 X47.0035 Y40.1011
G01 X46.9248 Y40.1384
G01 X46.8452 Y40.1670
G01 X46.7619 Y40.1879
G01 X46.7162 Y40.1948
G01 X46.7162 Y49.8610
G01 X46.7158 Y49.8709
G01 X46.7133 Y49.8880
G01 X46.7104 Y49.8988
G01 X46.7061 Y49.9104
G01 X46.7013 Y49.9205
G01 X46.6950 Y49.9311
G01 X46.6876 Y49.9411
G01 X46.6801 Y49.9494
G01 X46.0708 Y50.5587
G01 X46.0982 Y50.5959
G01 X46.1417 Y50.6685
G01 X46.1779 Y50.7450
G01 X46.1883 Y50.7738
G01 X48.6477 Y50.7738
G01 X56.6838 Y42.7377
G01 X56.6838 Y20.8448
G01 X56.6381 Y20.8379
G01 X56.5548 Y20.8170
G01 X56.4752 Y20.7884
G01 X56.3965 Y20.7511
G01 X56.3239 Y20.7075
G01 X56.2549 Y20.6564
G01 X56.1913 Y20.5987
G01 X56.1344 Y20.5360
G01 X56.0825 Y20.4661
G01 X56.0395 Y20.3946
G01 X56.0007 Y20.3126
G01 X55.9727 Y20.2340
G01 X55.9518 Y20.1507
G01 X55.9392 Y20.0658
G01 X55.9350 Y19.9800
G01 X55.9392 Y19.8942
G01 X55.9518 Y19.8093
G01 X55.9727 Y19.7260
G01 X56.0016 Y19.6452
G01 X56.0383 Y19.5675
G01 X56.0825 Y19.4939
G01 X56.1336 Y19.4249
G01 X56.1913 Y19.3613
G01 X56.2549 Y19.3036
G01 X56.3239 Y19.2525
G01 X56.3975 Y19.2083
G01 X56.4752 Y19.1716
G01 X56.5560 Y19.1427
G01 X56.6393 Y19.1218
G01 X56.7242 Y19.1092
G01 X56.8100 Y19.1050
G01 X56.8958 Y19.1092
G01 X56.9807 Y19.1218
G01 X57.0640 Y19.1427
G01 X57.1448 Y19.1716
G01 X57.2225 Y19.2083
G01 X57.2961 Y19.2525
G01 X57.3651 Y19.3036
G01 X57.4287 Y19.3613
G01 X57.4864 Y19.4249
G01 X57.5375 Y19.4939
G01 X57.5817 Y19.5675
G01 X57.6184 Y19.6452
G01 X57.6473 Y19.7260
G01 X57.6682 Y19.8093
G01 X57.6808 Y19.8942
G01 X57.6850 Y19.9800
G01 X57.6808 Y20.0658
G01 X57.6682 Y20.1507
G01 X57.6473 Y20.2340
G01 X57.6193 Y20.3126
G01 X57.5805 Y20.3946
G01 X57.5375 Y20.4661
G01 X57.4856 Y20.5360
G01 X57.4287 Y20.5987
G01 X57.3651 Y20.6564
G01 X57.2961 Y20.7075
G01 X57.2235 Y20.7511
G01 X57.1448 Y20.7884
G01 X57.0652 Y20.8170
G01 X56.9819 Y20.8379
G01 X56.9362 Y20.8448
G01 X56.9362 Y42.7900
G01 X56.9356 Y42.8024
G01 X56.9342 Y42.8122
G01 X56.9300 Y42.8290
G01 X56.9266 Y42.8383
G01 X56.9213 Y42.8495
G01 X56.9150 Y42.8601
G01 X56.9084 Y42.8691
G01 X56.8993 Y42.8793
G01 X48.7893 Y50.9893
G01 X48.7801 Y50.9976
G01 X48.7701 Y51.0050
G01 X48.7616 Y51.0101
G01 X48.7460 Y51.0175
G01 X48.7366 Y51.0208
G01 X48.7246 Y51.0238
G01 X48.7124 Y51.0256
G01 X48.7000 Y51.0262
G01 X46.2424 Y51.0262
G01 X46.2450 Y51.0810
G01 X46.2407 Y51.1680
G01 X46.2282 Y51.2517
G01 X46.2077 Y51.3338
G01 X46.1784 Y51.4158
G01 X46.1428 Y51.4913
G01 X46.0968 Y51.5681
G01 X46.0464 Y51.6361
G01 X45.9887 Y51.6997
G01 X45.9251 Y51.7574
G01 X45.8581 Y51.8071
G01 X45.7803 Y51.8538
G01 X45.7048 Y51.8894
G01 X45.6228 Y51.9187
G01 X45.5407 Y51.9392
G01 X45.4533 Y51.9520
G01 X45.3700 Y51.9560
G01 X45.2867 Y51.9520
G01 X45.2017 Y51.9396
G01 X45.1160 Y51.9183
G01 X45.0352 Y51.8894
G01 X44.9575 Y51.8527
G01 X44.8849 Y51.8092
G01 X44.8149 Y51.7574
G01 X44.7513 Y51.6997
G01 X44.6936 Y51.6361
G01 X44.6418 Y51.5661
G01 X44.5983 Y51.4935
G01 X44.5611 Y51.4147
G01 X44.5323 Y51.3338
G01 X44.5121 Y51.2529
G01 X44.5052 Y51.2072
G01 X43.6948 Y51.2072
G01 X43.6879 Y51.2529
G01 X43.6670 Y51.3362
G01 X43.6384 Y51.4158
G01 X43.6011 Y51.4945
G01 X43.5575 Y51.5671
G01 X43.5064 Y51.6361
G01 X43.4487 Y51.6997
G01 X43.3860 Y51.7566
G01 X43.3161 Y51.8085
G01 X43.2446 Y51.8515
G01 X43.1626 Y51.8903
G01 X43.0840 Y51.9183
G01 X43.0007 Y51.9392
G01 X42.9158 Y51.9518
G01 X42.8300 Y51.9560
G01 X42.7442 Y51.9518
G01 X42.6593 Y51.9392
G01 X42.5760 Y51.9183
G01 X42.4974 Y51.8903
G01 X42.4154 Y51.8515
G01 X42.3439 Y51.8085
G01 X42.2740 Y51.7566
G01 X42.2113 Y51.6997
G01 X42.1536 Y51.6361
G01 X42.1025 Y51.5671
G01 X42.0589 Y51.4945
G01 X42.0216 Y51.4158
G01 X41.9930 Y51.3362
G01 X41.9721 Y51.2529
G01 X41.9652 Y51.2072
G01 X41.1548 Y51.2072
G01 X41.1479 Y51.2529
G01 X41.1270 Y51.3362
G01 X41.0984 Y51.4158
G01 X41.0611 Y51.4945
G01 X41.0175 Y51.5671
G01 X40.9664 Y51.6361
G01 X40.9087 Y51.6997
G01 X40.8460 Y51.7566
G01 X40.7761 Y51.8085
G01 X40.7046 Y51.8515
G01 X40.6226 Y51.8903
G01 X40.5440 Y51.9183
G01 X40.4607 Y51.9392
G01 X40.3758 Y51.9518
G01 X40.2900 Y51.9560
G01 X40.2042 Y51.9518
G01 X40.1193 Y51.9392
G01 X40.0360 Y51.9183
G01 X39.9574 Y51.8903
G01 X39.8754 Y51.8515
G01 X39.8039 Y51.8085
G01 X39.7340 Y51.7566
G01 X39.6713 Y51.6997
G01 X39.6136 Y51.6361
G01 X39.5625 Y51.5671
G01 X39.5189 Y51.4945
G01 X39.4816 Y51.4158
G01 X39.4530 Y51.3362
G01 X39.4321 Y51.2529
G01 X39.4252 Y51.2072
G01 X26.9810 Y51.2072
G01 X26.9686 Y51.2066
G01 X26.9588 Y51.2052
G01 X26.9420 Y51.2010
G01 X26.9327 Y51.1976
G01 X26.9215 Y51.1923
G01 X26.9109 Y51.1860
G01 X26.9019 Y51.1794
G01 X26.8917 Y51.1703
G01 X5.2107 Y29.4893
G01 X5.2024 Y29.4801
G01 X5.1937 Y29.4681
G01 X5.1887 Y29.4595
G01 X5.1844 Y29.4506
G01 X5.1792 Y29.4366
G01 X5.1762 Y29.4246
G01 X5.1747 Y29.4148
G01 X5.1738 Y29.4000
G01 X5.1738 Y17.4000
G01 X5.1744 Y17.3876
G01 X5.1767 Y17.3730
G01 X5.1792 Y17.3634
G01 X5.1825 Y17.3540
G01 X5.1881 Y17.3416
G01 X5.1965 Y17.3279
G01 X5.2024 Y17.3199
G01 X5.2107 Y17.3107
G01 X10.0107 Y12.5107
G01 X10.0199 Y12.5024
G01 X10.0289 Y12.4957
G01 X10.0427 Y12.4876
G01 X10.0517 Y12.4834
G01 X10.0634 Y12.4792
G01 X10.0754 Y12.4762
G01 X10.0852 Y12.4747
G01 X10.1000 Y12.4738
G01 X13.0477 Y12.4738
G01 X14.7738 Y10.7477
G01 X14.7738 Y10.6848
G00 Z2.0000
G00 X14.7155 Y8.8926
G01 F60.00
G01 Z-0.0500
G01 F120.00
G01 X15.0845 Y8.8926
G01 X15.4253 Y9.0338
G01 X15.6862 Y9.2947
G01 X15.8274 Y9.6355
G01 X15.8274 Y10.0045
G01 X15.6862 Y10.3453
G01 X15.4253 Y10.6062
G01 X15.1110 Y10.7364
G01 X15.1031 Y10.7405
G01 X15.0949 Y10.7469
G01 X15.0916 Y10.7503
G01 X15.0881 Y10.7549
G01 X15.0837 Y10.7624
G01 X15.0803 Y10.7717
G01 X15.0787 Y10.7812
G01 X15.0786 Y10.9043
G01 X15.0790 Y10.9104
G01 X15.0803 Y10.9172
G01 X15.0821 Y10.9230
G01 X15.0852 Y10.9296
G01 X15.0890 Y10.9356
G01 X15.0939 Y10.9414
G01 X16.3586 Y12.2061
G01 X16.3654 Y12.2117
G01 X16.3725 Y12.2160
G01 X16.3793 Y12.2187
G01 X16.3872 Y12.2207
G01 X16.3957 Y12.2214
G01 X18.7043 Y12.2214
G01 X18.7116 Y12.2209
G01 X18.7196 Y12.2191
G01 X18.7253 Y12.2170
G01 X18.7307 Y12.2142
G01 X18.7366 Y12.2102
G01 X18.7414 Y12.2061
G01 X19.7869 Y11.1605
G01 X19.7933 Y11.1523
G01 X19.7973 Y11.1446
G01 X19.8000 Y11.1363
G01 X19.8010 Y11.1305
G01 X19.8014 Y11.1255
G01 X19.8014 Y10.7837
G01 X19.8007 Y10.7764
G01 X19.7991 Y10.7696
G01 X19.7965 Y10.7628
G01 X19.7931 Y10.7567
G01 X19.7887 Y10.7508
G01 X19.7836 Y10.7455
G01 X19.7768 Y10.7405
G01 X19.7702 Y10.7369
G01 X19.4547 Y10.6062
G01 X19.1938 Y10.3453
G01 X19.0526 Y10.0045
G01 X19.0526 Y9.6355
G01 X19.1938 Y9.2947
G01 X19.4547 Y9.0338
G01 X19.7955 Y8.8926
G01 X20.1645 Y8.8926
G01 X20.5053 Y9.0338
G01 X20.7662 Y9.2947
G01 X20.9074 Y9.6355
G01 X20.9074 Y10.0045
G01 X20.7662 Y10.3453
G01 X20.5053 Y10.6062
G01 X20.1898 Y10.7369
G01 X20.1831 Y10.7405
G01 X20.1757 Y10.7461
G01 X20.1701 Y10.7522
G01 X20.1654 Y10.7591
G01 X20.1627 Y10.7646
G01 X20.1606 Y10.7705
G01 X20.1591 Y10.7775
G01 X20.1586 Y10.7837
G01 X20.1586 Y11.2940
G01 X18.8740 Y12.5786
G01 X16.2260 Y12.5786
G01 X14.8372 Y11.1897
G01 X14.8327 Y11.1858
G01 X14.8279 Y11.1824
G01 X14.8191 Y11.1779
G01 X14.8144 Y11.1763
G01 X14.8086 Y11.1750
G01 X14.7989 Y11.1743
G01 X14.7940 Y11.1747
G01 X14.7883 Y11.1757
G01 X14.7789 Y11.1788
G01 X14.7705 Y11.1835
G01 X14.7628 Y11.1897
G01 X13.1740 Y12.7786
G01 X10.1957 Y12.7786
G01 X10.1896 Y12.7790
G01 X10.1840 Y12.7800
G01 X10.1781 Y12.7817
G01 X10.1725 Y12.7840
G01 X10.1654 Y12.7883
G01 X10.1586 Y12.7939
G01 X5.4939 Y17.4586
G01 X5.4906 Y17.4624
G01 X5.4852 Y17.4704
G01 X5.4817 Y17.4781
G01 X5.4793 Y17.4872
G01 X5.4786 Y17.4957
G01 X5.4786 Y29.3043
G01 X5.4791 Y29.3116
G01 X5.4809 Y29.3196
G01 X5.4830 Y29.3253
G01 X5.4858 Y29.3307
G01 X5.4898 Y29.3366
G01 X5.4939 Y29.3414
G01 X27.0396 Y50.8871
G01 X27.0434 Y50.8904
G01 X27.0514 Y50.8958
G01 X27.0591 Y50.8993
G01 X27.0682 Y50.9017
G01 X27.0767 Y50.9024
G01 X39.3275 Y50.9023
G01 X39.3348 Y50.9015
G01 X39.3415 Y50.8997
G01 X39.3483 Y50.8970
G01 X39.3543 Y50.8934
G01 X39.3592 Y50.8897
G01 X39.3645 Y50.8846
G01 X39.3689 Y50.8789
G01 X39.3720 Y50.8735
G01 X39.5038 Y50.5557
G01 X39.7647 Y50.2948
G01 X40.1055 Y50.1536
G01 X40.4745 Y50.1536
G01 X40.8153 Y50.2948
G01 X41.0762 Y50.5557
G01 X41.2069 Y50.8712
G01 X41.2105 Y50.8779
G01 X41.2161 Y50.8853
G01 X41.2222 Y50.8909
G01 X41.2302 Y50.8962
G01 X41.2358 Y50.8988
G01 X41.2417 Y50.9007
G01 X41.2487 Y50.9020
G01 X41.2549 Y50.9024
G01 X41.8675 Y50.9023
G01 X41.8748 Y50.9015
G01 X41.8815 Y50.8997
G01 X41.8883 Y50.8970
G01 X41.8943 Y50.8934
G01 X41.8992 Y50.8897
G01 X41.9045 Y50.8846
G01 X41.9089 Y50.8789
G01 X41.9120 Y50.8735
G01 X42.0438 Y50.5557
G01 X42.3047 Y50.2948
G01 X42.6455 Y50.1536
G01 X43.0145 Y50.1536
G01 X43.3553 Y50.2948
G01 X43.6162 Y50.5557
G01 X43.7469 Y50.8712
G01 X43.7505 Y50.8779
G01 X43.7561 Y50.8853
G01 X43.7622 Y50.8909
G01 X43.7702 Y50.8962
G01 X43.7758 Y50.8988
G01 X43.7817 Y50.9007
G01 X43.7887 Y50.9020
G01 X43.7949 Y50.9024
G01 X44.4063 Y50.9024
G01 X44.4136 Y50.9017
G01 X44.4204 Y50.9001
G01 X44.4272 Y50.8975
G01 X44.4333 Y50.8941
G01 X44.4383 Y50.8905
G01 X44.4437 Y50.8855
G01 X44.4481 Y50.8799
G01 X44.4520 Y50.8735
G01 X44.5838 Y50.5557
G01 X44.8447 Y50.2948
G01 X45.1855 Y50.1536
G01 X45.5545 Y50.1536
G01 X45.8711 Y50.2847
G01 X45.8771 Y50.2864
G01 X45.8828 Y50.2874
G01 X45.8889 Y50.2878
G01 X45.8950 Y50.2874
G01 X45.9019 Y50.2861
G01 X45.9076 Y50.2843
G01 X45.9130 Y50.2819
G01 X45.9182 Y50.2788
G01 X45.9223 Y50.2758
G01 X45.9261 Y50.2725
G01 X46.3969 Y49.8015
G01 X46.4033 Y49.7933
G01 X46.4073 Y49.7856
G01 X46.4100 Y49.7773
G01 X46.4113 Y49.7678
G01 X46.4114 Y40.2937
G01 X46.4107 Y40.2864
G01 X46.4091 Y40.2796
G01 X46.4065 Y40.2728
G01 X46.4031 Y40.2667
G01 X46.3995 Y40.2617
G01 X46.3945 Y40.2563
G01 X46.3889 Y40.2519
G01 X46.3825 Y40.2480
G01 X46.0647 Y40.1162
G01 X45.8038 Y39.8553
G01 X45.6626 Y39.5145
G01 X45.6626 Y39.1455
G01 X45.8038 Y38.8047
G01 X46.0647 Y38.5438
G01 X46.4055 Y38.4026
G01 X46.7745 Y38.4026
G01 X47.1153 Y38.5438
G01 X47.3762 Y38.8047
G01 X47.5174 Y39.1455
G01 X47.5174 Y39.5145
G01 X47.3762 Y39.8553
G01 X47.1153 Y40.1162
G01 X46.7975 Y40.2480
G01 X46.7921 Y40.2512
G01 X46.7866 Y40.2553
G01 X46.7824 Y40.2595
G01 X46.7781 Y40.2649
G01 X46.7748 Y40.2702
G01 X46.7722 Y40.2758
G01 X46.7703 Y40.2817
G01 X46.7690 Y40.2887
G01 X46.7686 Y40.2949
G01 X46.7686 Y49.9350
G01 X46.1785 Y50.5250
G01 X46.1754 Y50.5285
G01 X46.1720 Y50.5331
G01 X46.1688 Y50.5384
G01 X46.1664 Y50.5441
G01 X46.1646 Y50.5501
G01 X46.1636 Y50.5559
G01 X46.1632 Y50.5621
G01 X46.1636 Y50.5683
G01 X46.1646 Y50.5741
G01 X46.1663 Y50.5799
G01 X46.2136 Y50.6936
G01 X46.2189 Y50.7016
G01 X46.2246 Y50.7078
G01 X46.2323 Y50.7135
G01 X46.2399 Y50.7174
G01 X46.2446 Y50.7191
G01 X46.2502 Y50.7205
G01 X46.2599 Y50.7214
G01 X48.6043 Y50.7214
G01 X48.6128 Y50.7207
G01 X48.6219 Y50.7183
G01 X48.6296 Y50.7148
G01 X48.6366 Y50.7102
G01 X48.6414 Y50.7061
G01 X56.6177 Y42.7296
G01 X56.6239 Y42.7212
G01 X56.6278 Y42.7135
G01 X56.6304 Y42.7041
G01 X56.6314 Y42.6943
G01 X56.6314 Y20.9437
G01 X56.6307 Y20.9364
G01 X56.6291 Y20.9296
G01 X56.6265 Y20.9228
G01 X56.6231 Y20.9167
G01 X56.6195 Y20.9117
G01 X56.6145 Y20.9063
G01 X56.6089 Y20.9019
G01 X56.6025 Y20.8980
G01 X56.2847 Y20.7662
G01 X56.0238 Y20.5053
G01 X55.8826 Y20.1645
G01 X55.8826 Y19.7955
G01 X56.0238 Y19.4547
G01 X56.2847 Y19.1938
G01 X56.6255 Y19.0526
G01 X56.9945 Y19.0526
G01 X57.3353 Y19.1938
G01 X57.5962 Y19.4547
G01 X57.7374 Y19.7955
G01 X57.7374 Y20.1645
G01 X57.5962 Y20.5053
G01 X57.3353 Y20.7662
G01 X57.0175 Y20.8980
G01 X57.0121 Y20.9012
G01 X57.0057 Y20.9061
G01 X57.0009 Y20.9112
G01 X56.9967 Y20.9170
G01 X56.9937 Y20.9224
G01 X56.9910 Y20.9293
G01 X56.9893 Y20.9363
G01 X56.9886 Y20.9437
G01 X56.9886 Y42.8640
G01 X48.7740 Y51.0786
G01 X46.3499 Y51.0786
G01 X46.3426 Y51.0791
G01 X46.3346 Y51.0809
G01 X46.3278 Y51.0835
G01 X46.3217 Y51.0869
G01 X46.3167 Y51.0905
G01 X46.3113 Y51.0955
G01 X46.3069 Y51.1011
G01 X46.3030 Y51.1075
G01 X46.3006 Y51.1131
G01 X46.2986 Y51.1203
G01 X46.2976 Y51.1262
G01 X46.2974 Y51.1311
G01 X46.2974 Y51.2655
G01 X46.1562 Y51.6063
G01 X45.8953 Y51.8672
G01 X45.5545 Y52.0084
G01 X45.1855 Y52.0084
G01 X44.8447 Y51.8672
G01 X44.5838 Y51.6063
G01 X44.4520 Y51.2885
G01 X44.4488 Y51.2831
G01 X44.4439 Y51.2767
G01 X44.4388 Y51.2719
G01 X44.4330 Y51.2677
G01 X44.4265 Y51.2642
G01 X44.4207 Y51.2620
G01 X44.4137 Y51.2603
G01 X44.4076 Y51.2597
G01 X43.7949 Y51.2596
G01 X43.7888 Y51.2600
G01 X43.7820 Y51.2613
G01 X43.7762 Y51.2631
G01 X43.7707 Y51.2656
G01 X43.7636 Y51.2700
G01 X43.7572 Y51.2756
G01 X43.7511 Y51.2831
G01 X43.7469 Y51.2908
G01 X43.6162 Y51.6063
G01 X43.3553 Y51.8672
G01 X43.0145 Y52.0084
G01 X42.6455 Y52.0084
G01 X42.3047 Y51.8672
G01 X42.0438 Y51.6063
G01 X41.9126 Y51.2897
G01 X41.9076 Y51.2813
G01 X41.9014 Y51.2742
G01 X41.8941 Y51.2684
G01 X41.8854 Y51.2637
G01 X41.8759 Y51.2608
G01 X41.8700 Y51.2598
G01 X41.8651 Y51.2596
G01 X41.2549 Y51.2596
G01 X41.2464 Y51.2603
G01 X41.2408 Y51.2616
G01 X41.2351 Y51.2635
G01 X41.2296 Y51.2662
G01 X41.2236 Y51.2700
G01 X41.2189 Y51.2739
G01 X41.2147 Y51.2784
G01 X41.2111 Y51.2831
G01 X41.2080 Y51.2885
G01 X41.0762 Y51.6063
G01 X40.8153 Y51.8672
G01 X40.4745 Y52.0084
G01 X40.1055 Y52.0084
G01 X39.7647 Y51.8672
G01 X39.5038 Y51.6063
G01 X39.3720 Y51.2885
G01 X39.3688 Y51.2831
G01 X39.3639 Y51.2767
G01 X39.3588 Y51.2719
G01 X39.3530 Y51.2677
G01 X39.3476 Y51.2647
G01 X39.3407 Y51.2620
G01 X39.3337 Y51.2603
G01 X39.3276 Y51.2597
G01 X26.9070 Y51.2596
G01 X5.1214 Y29.4740
G01 X5.1214 Y17.3260
G01 X10.0260 Y12.4214
G01 X13.0043 Y12.4214
G01 X13.0140 Y12.4205
G01 X13.0230 Y12.4179
G01 X13.0307 Y12.4142
G01 X13.0386 Y12.4086
G01 X14.6491 Y10.7985
G01 X14.6547 Y10.7917
G01 X14.6595 Y10.7835
G01 X14.6627 Y10.7743
G01 X14.6643 Y10.7650
G01 X14.6640 Y10.7552
G01 X14.6621 Y10.7460
G01 X14.6585 Y10.7372
G01 X14.6534 Y10.7291
G01 X14.6477 Y10.7229
G01 X14.6401 Y10.7170
G01 X14.6319 Y10.7128
G01 X14.3747 Y10.6062
G01 X14.1138 Y10.3453
G01 X13.9726 Y10.0045
G01 X13.9726 Y9.6355
G01 X14.1138 Y9.2947
G01 X14.3747 Y9.0338
G01 X14.7155 Y8.8926
G00 Z2.0000
G00 X22.3355 Y8.8926
G01 F60.00
G01 Z-0.0500
G01 F120.00
G01 X22.7045 Y8.8926
G01 X23.0453 Y9.0338
G01 X23.3062 Y9.2947
G01 X23.4474 Y9.6355
G01 X23.4474 Y10.0045
G01 X23.3062 Y10.3453
G01 X23.0453 Y10.6062
G01 X22.7045 Y10.7474
G01 X22.3355 Y10.7474
G01 X21.9947 Y10.6062
G01 X21.7338 Y10.3453
G01 X21.5926 Y10.0045
G01 X21.5926 Y9.6355
G01 X21.7338 Y9.2947
G01 X21.9947 Y9.0338
G01 X22.3355 Y8.8926
G00 Z2.0000
G00 X23.3949 Y9.8225
G01 F60.00
G01 Z-0.0500
G01 F120.00
G01 X23.3908 Y9.9058
G01 X23.3782 Y9.9907
G01 X23.3573 Y10.0740
G01 X23.3284 Y10.1548
G01 X23.2917 Y10.2325
G01 X23.2475 Y10.3061
G01 X23.1964 Y10.3751
G01 X23.1387 Y10.4387
G01 X23.0751 Y10.4964
G01 X23.0061 Y10.5475
G01 X22.9325 Y10.5917
G01 X22.8548 Y10.6284
G01 X22.7740 Y10.6573
G01 X22.6907 Y10.6782
G01 X22.6058 Y10.6908
G01 X22.5200 Y10.6950
G01 X22.4342 Y10.6908
G01 X22.3493 Y10.6782
G01 X22.2660 Y10.6573
G01 X22.1852 Y10.6284
G01 X22.1075 Y10.5917
G01 X22.0339 Y10.5475
G01 X21.9649 Y10.4964
G01 X21.9013 Y10.4387
G01 X21.8436 Y10.3751
G01 X21.7925 Y10.3061
G01 X21.7483 Y10.2325
G01 X21.7116 Y10.1548
G01 X21.6827 Y10.0740
G01 X21.6618 Y9.9907
G01 X21.6492 Y9.9058
G01 X21.6450 Y9.8200
G01 X21.6492 Y9.7342
G01 X21.6618 Y9.6493
G01 X21.6827 Y9.5660
G01 X21.7116 Y9.4852
G01 X21.7483 Y9.4075
G01 X21.7925 Y9.3339
G01 X21.8436 Y9.2649
G01 X21.9013 Y9.2013
G01 X21.9649 Y9.1436
G01 X22.0339 Y9.0925
G01 X22.1075 Y9.0483
G01 X22.1852 Y9.0116
G01 X22.2660 Y8.9827
G01 X22.3493 Y8.9618
G01 X22.4342 Y8.9492
G01 X22.5200 Y8.9450
G01 X22.6058 Y8.9492
G01 X22.6907 Y8.9618
G01 X22.7740 Y8.9827
G01 X22.8548 Y9.0116
G01 X22.9325 Y9.0483
G01 X23.0061 Y9.0925
G01 X23.0751 Y9.1436
G01 X23.1387 Y9.2013
G01 X23.1964 Y9.2649
G01 X23.2475 Y9.3339
G01 X23.2917 Y9.4075
G01 X23.3284 Y9.4852
G01 X23.3573 Y9.5660
G01 X23.3782 Y9.6493
G01 X23.3908 Y9.7342
G01 X23.3949 Y9.8225
G00 Z2.0000
G00 X24.8755 Y8.8926
G01 F60.00
G01 Z-0.0500
G01 F120.00
G01 X25.2445 Y8.8926
G01 X25.5853 Y9.0338
G01 X25.8462 Y9.2947
G01 X25.9874 Y9.6355
G01 X25.9874 Y10.0045
G01 X25.8462 Y10.3453
G01 X25.5853 Y10.6062
G01 X25.2445 Y10.7474
G01 X24.8755 Y10.7474
G01 X24.5347 Y10.6062
G01 X24.2738 Y10.3453
G01 X24.1326 Y10.0045
G01 X24.1326 Y9.6355
G01 X24.2738 Y9.2947
G01 X24.5347 Y9.0338
G01 X24.8755 Y8.8926
G00 Z2.0000
G00 X25.9349 Y9.8225
G01 F60.00
G01 Z-0.0500
G01 F120.00
G01 X25.9308 Y9.9058
G01 X25.9182 Y9.9907
G01 X25.8973 Y10.0740
G01 X25.8684 Y10.1548
G01 X25.8317 Y10.2325
G01 X25.7875 Y10.3061
G01 X25.7364 Y10.3751
G01 X25.6787 Y10.4387
G01 X25.6151 Y10.4964
G01 X25.5461 Y10.5475
G01 X25.4725 Y10.5917
G01 X25.3948 Y10.6284
G01 X25.3140 Y10.6573
G01 X25.2307 Y10.6782
G01 X25.1458 Y10.6908
G01 X25.0600 Y10.6950
G01 X24.9742 Y10.6908
G01 X24.8893 Y10.6782
G01 X24.8060 Y10.6573
G01 X24.7252 Y10.6284
G01 X24.6475 Y10.5917
G01 X24.5739 Y10.5475
G01 X24.5049 Y10.4964
G01 X24.4413 Y10.4387
G01 X24.3836 Y10.3751
G01 X24.3325 Y10.3061
G01 X24.2883 Y10.2325
G01 X24.2516 Y10.1548
G01 X24.2227 Y10.0740
G01 X24.2018 Y9.9907
G01 X24.1892 Y9.9058
G01 X24.1850 Y9.8200
G01 X24.1892 Y9.7342
G01 X24.2018 Y9.6493
G01 X24.2227 Y9.5660
G01 X24.2516 Y9.4852
G01 X24.2883 Y9.4075
G01 X24.3325 Y9.3339
G01 X24.3836 Y9.2649
G01 X24.4413 Y9.2013
G01 X24.5049 Y9.1436
G01 X24.5739 Y9.0925
G01 X24.6475 Y9.0483
G01 X24.7252 Y9.0116
G01 X24.8060 Y8.9827
G01 X24.8893 Y8.9618
G01 X24.9742 Y8.9492
G01 X25.0600 Y8.9450
G01 X25.1458 Y8.9492
G01 X25.2307 Y8.9618
G01 X25.3140 Y8.9827
G01 X25.3948 Y9.0116
G01 X25.4725 Y9.0483
G01 X25.5461 Y9.0925
G01 X25.6151 Y9.1436
G01 X25.6787 Y9.2013
G01 X25.7364 Y9.2649
G01 X25.7875 Y9.3339
G01 X25.8317 Y9.4075
G01 X25.8684 Y9.4852
G01 X25.8973 Y9.5660
G01 X25.9182 Y9.6493
G01 X25.9308 Y9.7342
G01 X25.9349 Y9.8225
G00 Z2.0000
G00 X27.4155 Y8.8926
G01 F60.00
G01 Z-0.0500
G01 F120.00
G01 X27.7845 Y8.8926
G01 X28.1253 Y9.0338
G01 X28.3862 Y9.2947
G01 X28.5274 Y9.6355
G01 X28.5274 Y10.0045
G01 X28.3862 Y10.3453
G01 X28.1253 Y10.6062
G01 X27.7845 Y10.7474
G01 X27.4155 Y10.7474
G01 X27.0747 Y10.6062
G01 X26.8138 Y10.3453
G01 X26.6726 Y10.0045
G01 X26.6726 Y9.6355
G01 X26.8138 Y9.2947
G01 X27.0747 Y9.0338
G01 X27.4155 Y8.8926
G00 Z2.0000
G00 X28.4749 Y9.8225
G01 F60.00
G01 Z-0.0500
G01 F120.00
G01 X28.4708 Y9.9058
G01 X28.4582 Y9.9907
G01 X28.4373 Y10.0740
G01 X28.4084 Y10.1548
G01 X28.3717 Y10.2325
G01 X28.3275 Y10.3061
G01 X28.2764 Y10.3751
G01 X28.2187 Y10.4387
G01 X28.1551 Y10.4964
G01 X28.0861 Y10.5475
G01 X28.0125 Y10.5917
G01 X27.9348 Y10.6284
G01 X27.8540 Y10.6573
G01 X27.7707 Y10.6782
G01 X27.6858 Y10.6908
G01 X27.6000 Y10.6950
G01 X27.5142 Y10.6908
G01 X27.4293 Y10.6782
G01 X27.3460 Y10.6573
G01 X27.2652 Y10.6284
G01 X27.1875 Y10.5917
G01 X27.1139 Y10.5475
G01 X27.0449 Y10.4964
G01 X26.9813 Y10.4387
G01 X26.9236 Y10.3751
G01 X26.8725 Y10.3061
G01 X26.8283 Y10.2325
G01 X26.7916 Y10.1548
G01 X26.7627 Y10.0740
G01 X26.7418 Y9.9907
G01 X26.7292 Y9.9058
G01 X26.7250 Y9.8200
G01 X26.7292 Y9.7342
G01 X26.7418 Y9.6493
G01 X26.7627 Y9.5660
G01 X26.7916 Y9.4852
G01 X26.8283 Y9.4075
G01 X26.8725 Y9.3339
G01 X26.9236 Y9.2649
G01 X26.9813 Y9.2013
G01 X27.0449 Y9.1436
G01 X27.1139 Y9.0925
G01 X27.1875 Y9.0483
G01 X27.2652 Y9.0116
G01 X27.3460 Y8.9827
G01 X27.4293 Y8.9618
G01 X27.5142 Y8.9492
G01 X27.6000 Y8.9450
G01 X27.6858 Y8.9492
G01 X27.7707 Y8.9618
G01 X27.8540 Y8.9827
G01 X27.9348 Y9.0116
G01 X28.0125 Y9.0483
G01 X28.0861 Y9.0925
G01 X28.1551 Y9.1436
G01 X28.2187 Y9.2013
G01 X28.2764 Y9.2649
G01 X28.3275 Y9.3339
G01 X28.3717 Y9.4075
G01 X28.4084 Y9.4852
G01 X28.4373 Y9.5660
G01 X28.4582 Y9.6493
G01 X28.4708 Y9.7342
G01 X28.4749 Y9.8225
G00 Z2.0000
G00 X29.9555 Y8.8926
G01 F60.00
G01 Z-0.0500
G01 F120.00
G01 X30.3245 Y8.8926
G01 X30.6653 Y9.0338
G01 X30.9262 Y9.2947
G01 X31.0674 Y9.6355
G01 X31.0674 Y10.0045
G01 X30.9262 Y10.3453
G01 X30.6653 Y10.6062
G01 X30.3245 Y10.7474
G01 X29.9555 Y10.7474
G01 X29.6147 Y10.6062
G01 X29.3538 Y10.3453
G01 X29.2126 Y10.0045
G01 X29.2126 Y9.6355
G01 X29.3538 Y9.2947
G01 X29.6147 Y9.0338
G01 X29.9555 Y8.8926
G00 Z2.0000
G00 X31.0149 Y9.8225
G01 F60.00
G01 Z-0.0500
G01 F120.00
G01 X31.0108 Y9.9058
G01 X30.9982 Y9.9907
G01 X30.9773 Y10.0740
G01 X30.9484 Y10.1548
G01 X30.9117 Y10.2325
G01 X30.8675 Y10.3061
G01 X30.8164 Y10.3751
G01 X30.7587 Y10.4387
G01 X30.6951 Y10.4964
G01 X30.6261 Y10.5475
G01 X30.5525 Y10.5917
G01 X30.4748 Y10.6284
G01 X30.3940 Y10.6573
G01 X30.3107 Y10.6782
G01 X30.2258 Y10.6908
G01 X30.1400 Y10.6950
G01 X30.0542 Y10.6908
G01 X29.9693 Y10.6782
G01 X29.8860 Y10.6573
G01 X29.8052 Y10.6284
G01 X29.7275 Y10.5917
G01 X29.6539 Y10.5475
G01 X29.5849 Y10.4964
G01 X29.5213 Y10.4387
G01 X29.4636 Y10.3751
G01 X29.4125 Y10.3061
G01 X29.3683 Y10.2325
G01 X29.3316 Y10.1548
G01 X29.3027 Y10.0740
G01 X29.2818 Y9.9907
G01 X29.2692 Y9.9058
G01 X29.2650 Y9.8200
G01 X29.2692 Y9.7342
G01 X29.2818 Y9.6493
G01 X29.3027 Y9.5660
G01 X29.3316 Y9.4852
G01 X29.3683 Y9.4075
G01 X29.4125 Y9.3339
G01 X29.4636 Y9.2649
G01 X29.5213 Y9.2013
G01 X29.5849 Y9.1436
G01 X29.6539 Y9.0925
G01 X29.7275 Y9.0483
G01 X29.8052 Y9.0116
G01 X29.8860 Y8.9827
G01 X29.9693 Y8.9618
G01 X30.0542 Y8.9492
G01 X30.1400 Y8.9450
G01 X30.2258 Y8.9492
G01 X30.3107 Y8.9618
G01 X30.3940 Y8.9827
G01 X30.4748 Y9.0116
G01 X30.5525 Y9.0483
G01 X30.6261 Y9.0925
G01 X30.6951 Y9.1436
G01 X30.7587 Y9.2013
G01 X30.8164 Y9.2649
G01 X30.8675 Y9.3339
G01 X30.9117 Y9.4075
G01 X30.9484 Y9.4852
G01 X30.9773 Y9.5660
G01 X30.9982 Y9.6493
G01 X31.0108 Y9.7342
G01 X31.0149 Y9.8225
G00 Z2.0000
G00 X32.4955 Y8.8926
G01 F60.00
G01 Z-0.0500
G01 F120.00
G01 X32.8645 Y8.8926
G01 X33.2053 Y9.0338
G01 X33.4662 Y9.2947
G01 X33.6074 Y9.6355
G01 X33.6074 Y10.0045
G01 X33.4662 Y10.3453
G01 X33.2053 Y10.6062
G01 X32.8645 Y10.7474
G01 X32.4955 Y10.7474
G01 X32.1547 Y10.6062
G01 X31.8938 Y10.3453
G01 X31.7526 Y10.0045
G01 X31.7526 Y9.6355
G01 X31.8938 Y9.2947
G01 X32.1547 Y9.0338
G01 X32.4955 Y8.8926
G00 Z2.0000
G00 X33.5549 Y9.8225
G01 F60.00
G01 Z-0.0500
G01 F120.00
G01 X33.5508 Y9.9058
G01 X33.5382 Y9.9907
G01 X33.5173 Y10.0740
G01 X33.4884 Y10.1548
G01 X33.4517 Y10.2325
G01 X33.4075 Y10.3061
G01 X33.3564 Y10.3751
G01 X33.2987 Y10.4387
G01 X33.2351 Y10.4964
G01 X33.1661 Y10.5475
G01 X33.0925 Y10.5917
G01 X33.0148 Y10.6284
G01 X32.9340 Y10.6573
G01 X32.8507 Y10.6782
G01 X32.7658 Y10.6908
G01 X32.6800 Y10.6950
G01 X32.5942 Y10.6908
G01 X32.5093 Y10.6782
G01 X32.4260 Y10.6573
G01 X32.3452 Y10.6284
G01 X32.2675 Y10.5917
G01 X32.1939 Y10.5475
G01 X32.1249 Y10.4964
G01 X32.0613 Y10.4387
G01 X32.0036 Y10.3751
G01 X31.9525 Y10.3061
G01 X31.9083 Y10.2325
G01 X31.8716 Y10.1548
G01 X31.8427 Y10.0740
G01 X31.8218 Y9.9907
G01 X31.8092 Y9.9058
G01 X31.8050 Y9.8200
G01 X31.8092 Y9.7342
G01 X31.8218 Y9.6493
G01 X31.8427 Y9.5660
G01 X31.8716 Y9.4852
G01 X31.9083 Y9.4075
G01 X31.9525 Y9.3339
G01 X32.0036 Y9.2649
G01 X32.0613 Y9.2013
G01 X32.1249 Y9.1436
G01 X32.1939 Y9.0925
G01 X32.2675 Y9.0483
G01 X32.3452 Y9.0116
G01 X32.4260 Y8.9827
G01 X32.5093 Y8.9618
G01 X32.5942 Y8.9492
G01 X32.6800 Y8.9450
G01 X32.7658 Y8.9492
G01 X32.8507 Y8.9618
G01 X32.9340 Y8.9827
G01 X33.0148 Y9.0116
G01 X33.0925 Y9.0483
G01 X33.1661 Y9.0925
G01 X33.2351 Y9.1436
G01 X33.2987 Y9.2013
G01 X33.3564 Y9.2649
G01 X33.4075 Y9.3339
G01 X33.4517 Y9.4075
G01 X33.4884 Y9.4852
G01 X33.5173 Y9.5660
G01 X33.5382 Y9.6493
G01 X33.5508 Y9.7342
G01 X33.5549 Y9.8225
G00 Z2.0000
G00 X35.0355 Y8.8926
G01 F60.00
G01 Z-0.0500
G01 F120.00
G01 X35.4045 Y8.8926
G01 X35.7453 Y9.0338
G01 X36.0062 Y9.2947
G01 X36.1474 Y9.6355
G01 X36.1474 Y10.0045
G01 X36.0062 Y10.3453
G01 X35.7453 Y10.6062
G01 X35.4045 Y10.7474
G01 X35.0355 Y10.7474
G01 X34.6947 Y10.6062
G01 X34.4338 Y10.3453
G01 X34.2926 Y10.0045
G01 X34.2926 Y9.6355
G01 X34.4338 Y9.2947
G01 X34.6947 Y9.0338
G01 X35.0355 Y8.8926
G00 Z2.0000
G00 X36.0949 Y9.8225
G01 F60.00
G01 Z-0.0500
G01 F120.00
G01 X36.0908 Y9.9058
G01 X36.0782 Y9.9907
G01 X36.0573 Y10.0740
G01 X36.0284 Y10.1548
G01 X35.9917 Y10.2325
G01 X35.9475 Y10.3061
G01 X35.8964 Y10.3751
G01 X35.8387 Y10.4387
G01 X35.7751 Y10.4964
G01 X35.7061 Y10.5475
G01 X35.6325 Y10.5917
G01 X35.5548 Y10.6284
G01 X35.4740 Y10.6573
G01 X35.3907 Y10.6782
G01 X35.3058 Y10.6908
G01 X35.2200 Y10.6950
G01 X35.1342 Y10.6908
G01 X35.0493 Y10.6782
G01 X34.9660 Y10.6573
G01 X34.8852 Y10.6284
G01 X34.8075 Y10.5917
G01 X34.7339 Y10.5475
G01 X34.6649 Y10.4964
G01 X34.6013 Y10.4387
G01 X34.5436 Y10.3751
G01 X34.4925 Y10.3061
G01 X34.4483 Y10.2325
G01 X34.4116 Y10.1548
G01 X34.3827 Y10.0740
G01 X34.3618 Y9.9907
G01 X34.3492 Y9.9058
G01 X34.3450 Y9.8200
G01 X34.3492 Y9.7342
G01 X34.3618 Y9.6493
G01 X34.3827 Y9.5660
G01 X34.4116 Y9.4852
G01 X34.4483 Y9.4075
G01 X34.4925 Y9.3339
G01 X34.5436 Y9.2649
G01 X34.6013 Y9.2013
G01 X34.6649 Y9.1436
G01 X34.7339 Y9.0925
G01 X34.8075 Y9.0483
G01 X34.8852 Y9.0116
G01 X34.9660 Y8.9827
G01 X35.0493 Y8.9618
G01 X35.1342 Y8.9492
G01 X35.2200 Y8.9450
G01 X35.3058 Y8.9492
G01 X35.3907 Y8.9618
G01 X35.4740 Y8.9827
G01 X35.5548 Y9.0116
G01 X35.6325 Y9.0483
G01 X35.7061 Y9.0925
G01 X35.7751 Y9.1436
G01 X35.8387 Y9.2013
G01 X35.8964 Y9.2649
G01 X35.9475 Y9.3339
G01 X35.9917 Y9.4075
G01 X36.0284 Y9.4852
G01 X36.0573 Y9.5660
G01 X36.0782 Y9.6493
G01 X36.0908 Y9.7342
G01 X36.0949 Y9.8225
G00 Z2.0000
G00 X37.5755 Y8.8926
G01 F60.00
G01 Z-0.0500
G01 F120.00
G01 X37.9445 Y8.8926
G01 X38.2853 Y9.0338
G01 X38.5462 Y9.2947
G01 X38.6874 Y9.6355
G01 X38.6874 Y10.0045
G01 X38.5462 Y10.3453
G01 X38.2853 Y10.6062
G01 X37.9445 Y10.7474
G01 X37.5755 Y10.7474
G01 X37.2347 Y10.6062
G01 X36.9738 Y10.3453
G01 X36.8326 Y10.0045
G01 X36.8326 Y9.6355
G01 X36.9738 Y9.2947
G01 X37.2347 Y9.0338
G01 X37.5755 Y8.8926
G00 Z2.0000
G00 X38.6349 Y9.8225
G01 F60.00
G01 Z-0.0500
G01 F120.00
G01 X38.6308 Y9.9058
G01 X38.6182 Y9.9907
G01 X38.5973 Y10.0740
G01 X38.5684 Y10.1548
G01 X38.5317 Y10.2325
G01 X38.4875 Y10.3061
G01 X38.4364 Y10.3751
G01 X38.3787 Y10.4387
G01 X38.3151 Y10.4964
G01 X38.2461 Y10.5475
G01 X38.1725 Y10.5917
G01 X38.0948 Y10.6284
G01 X38.0140 Y10.6573
G01 X37.9307 Y10.6782
G01 X37.8458 Y10.6908
G01 X37.7600 Y10.6950
G01 X37.6742 Y10.6908
G01 X37.5893 Y10.6782
G01 X37.5060 Y10.6573
G01 X37.4252 Y10.6284
G01 X37.3475 Y10.5917
G01 X37.2739 Y10.5475
G01 X37.2049 Y10.4964
G01 X37.1413 Y10.4387
G01 X37.0836 Y10.3751
G01 X37.0325 Y10.3061
G01 X36.9883 Y10.2325
G01 X36.9516 Y10.1548
G01 X36.9227 Y10.0740
G01 X36.9018 Y9.9907
G01 X36.8892 Y9.9058
G01 X36.8850 Y9.8200
G01 X36.8892 Y9.7342
G01 X36.9018 Y9.6493
G01 X36.9227 Y9.5660
G01 X36.9516 Y9.4852
G01 X36.9883 Y9.4075
G01 X37.0325 Y9.3339
G01 X37.0836 Y9.2649
G01 X37.1413 Y9.2013
G01 X37.2049 Y9.1436
G01 X37.2739 Y9.0925
G01 X37.3475 Y9.0483
G01 X37.4252 Y9.0116
G01 X37.5060 Y8.9827
G01 X37.5893 Y8.9618
G01 X37.6742 Y8.9492
G01 X37.7600 Y8.9450
G01 X37.8458 Y8.9492
G01 X37.9307 Y8.9618
G01 X38.0140 Y8.9827
G01 X38.0948 Y9.0116
G01 X38.1725 Y9.0483
G01 X38.2461 Y9.0925
G01 X38.3151 Y9.1436
G01 X38.3787 Y9.2013
G01 X38.4364 Y9.2649
G01 X38.4875 Y9.3339
G01 X38.5317 Y9.4075
G01 X38.5684 Y9.4852
G01 X38.5973 Y9.5660
G01 X38.6182 Y9.6493
G01 X38.6308 Y9.7342
G01 X38.6349 Y9.8225
G00 Z2.0000
G00 X40.1155 Y8.8926
G01 F60.00
G01 Z-0.0500
G01 F120.00
G01 X40.4845 Y8.8926
G01 X40.8253 Y9.0338
G01 X41.0862 Y9.2947
G01 X41.2274 Y9.6355
G01 X41.2274 Y10.0045
G01 X41.0862 Y10.3453
G01 X40.8253 Y10.6062
G01 X40.4845 Y10.7474
G01 X40.1155 Y10.7474
G01 X39.7747 Y10.6062
G01 X39.5138 Y10.3453
G01 X39.3726 Y10.0045
G01 X39.3726 Y9.6355
G01 X39.5138 Y9.2947
G01 X39.7747 Y9.0338
G01 X40.1155 Y8.8926
G00 Z2.0000
G00 X41.1749 Y9.8225
G01 F60.00
G01 Z-0.0500
G01 F120.00
G01 X41.1708 Y9.9058
G01 X41.1582 Y9.9907
G01 X41.1373 Y10.0740
G01 X41.1084 Y10.1548
G01 X41.0717 Y10.2325
G01 X41.0275 Y10.3061
G01 X40.9764 Y10.3751
G01 X40.9187 Y10.4387
G01 X40.8551 Y10.4964
G01 X40.7861 Y10.5475
G01 X40.7125 Y10.5917
G01 X40.6348 Y10.6284
G01 X40.5540 Y10.6573
G01 X40.4707 Y10.6782
G01 X40.3858 Y10.6908
G01 X40.3000 Y10.6950
G01 X40.2142 Y10.6908
G01 X40.1293 Y10.6782
G01 X40.0460 Y10.6573
G01 X39.9652 Y10.6284
G01 X39.8875 Y10.5917
G01 X39.8139 Y10.5475
G01 X39.7449 Y10.4964
G01 X39.6813 Y10.4387
G01 X39.6236 Y10.3751
G01 X39.5725 Y10.3061
G01 X39.5283 Y10.2325
G01 X39.4916 Y10.1548
G01 X39.4627 Y10.0740
G01 X39.4418 Y9.9907
G01 X39.4292 Y9.9058
G01 X39.4250 Y9.8200
G01 X39.4292 Y9.7342
G01 X39.4418 Y9.6493
G01 X39.4627 Y9.5660
G01 X39.4916 Y9.4852
G01 X39.5283 Y9.4075
G01 X39.5725 Y9.3339
G01 X39.6236 Y9.2649
G01 X39.6813 Y9.2013
G01 X39.7449 Y9.1436
G01 X39.8139 Y9.0925
G01 X39.8875 Y9.0483
G01 X39.9652 Y9.0116
G01 X40.0460 Y8.9827
G01 X40.1293 Y8.9618
G01 X40.2142 Y8.9492
G01 X40.3000 Y8.9450
G01 X40.3858 Y8.9492
G01 X40.4707 Y8.9618
G01 X40.5540 Y8.9827
G01 X40.6348 Y9.0116
G01 X40.7125 Y9.0483
G01 X40.7861 Y9.0925
G01 X40.8551 Y9.1436
G01 X40.9187 Y9.2013
G01 X40.9764 Y9.2649
G01 X41.0275 Y9.3339
G01 X41.0717 Y9.4075
G01 X41.1084 Y9.4852
G01 X41.1373 Y9.5660
G01 X41.1582 Y9.6493
G01 X41.1708 Y9.7342
G01 X41.1749 Y9.8225
G00 Z2.0000
G00 X42.6555 Y8.8926
G01 F60.00
G01 Z-0.0500
G01 F120.00
G01 X43.0245 Y8.8926
G01 X43.3653 Y9.0338
G01 X43.6262 Y9.2947
G01 X43.7674 Y9.6355
G01 X43.7674 Y10.0045
G01 X43.6359 Y10.3223
G01 X43.6341 Y10.3292
G01 X43.6333 Y10.3364
G01 X43.6333 Y10.3425
G01 X43.6344 Y10.3496
G01 X43.6363 Y10.3565
G01 X43.6386 Y10.3620
G01 X43.6422 Y10.3682
G01 X43.6468 Y10.3742
G01 X51.7786 Y18.5061
G01 X51.7824 Y18.5094
G01 X51.7864 Y18.5124
G01 X51.7936 Y18.5165
G01 X51.8004 Y18.5191
G01 X51.8084 Y18.5209
G01 X51.8157 Y18.5214
G01 X58.4740 Y18.5214
G01 X59.0273 Y19.0748
G01 X59.0331 Y19.0797
G01 X59.0391 Y19.0835
G01 X59.0480 Y19.0874
G01 X59.0584 Y19.0897
G01 X59.0681 Y19.0900
G01 X59.0776 Y19.0884
G01 X59.0845 Y19.0861
G01 X59.1655 Y19.0526
G01 X59.5345 Y19.0526
G01 X59.8753 Y19.1938
G01 X60.1362 Y19.4547
G01 X60.2774 Y19.7955
G01 X60.2774 Y20.1645
G01 X60.1362 Y20.5053
G01 X59.8753 Y20.7662
G01 X59.5345 Y20.9074
G01 X59.1655 Y20.9074
G01 X58.8247 Y20.7662
G01 X58.5638 Y20.5053
G01 X58.4226 Y20.1645
G01 X58.4226 Y19.7955
G01 X58.5638 Y19.4547
G01 X58.6959 Y19.3227
G01 X58.7000 Y19.3179
G01 X58.7040 Y19.3120
G01 X58.7068 Y19.3066
G01 X58.7089 Y19.3009
G01 X58.7103 Y19.2952
G01 X58.7111 Y19.2892
G01 X58.7111 Y19.2831
G01 X58.7105 Y19.2770
G01 X58.7092 Y19.2713
G01 X58.7072 Y19.2656
G01 X58.7046 Y19.2602
G01 X58.7008 Y19.2542
G01 X58.6967 Y19.2493
G01 X58.3414 Y18.8939
G01 X58.3360 Y18.8893
G01 X58.3291 Y18.8848
G01 X58.3223 Y18.8818
G01 X58.3141 Y18.8796
G01 X58.3043 Y18.8786
G01 X51.6460 Y18.8786
G01 X43.3942 Y10.6268
G01 X43.3883 Y10.6222
G01 X43.3822 Y10.6186
G01 X43.3767 Y10.6163
G01 X43.3697 Y10.6144
G01 X43.3626 Y10.6133
G01 X43.3564 Y10.6133
G01 X43.3491 Y10.6142
G01 X43.3422 Y10.6159
G01 X43.0245 Y10.7474
G01 X42.6555 Y10.7474
G01 X42.3147 Y10.6062
G01 X42.0538 Y10.3453
G01 X41.9126 Y10.0045
G01 X41.9126 Y9.6355
G01 X42.0538 Y9.2947
G01 X42.3147 Y9.0338
G01 X42.6555 Y8.8926
G00 Z2.0000
G00 X41.5260 Y7.7214
G01 F60.00
G01 Z-0.0500
G01 F120.00
G01 X55.8740 Y7.7214
G01 X59.5286 Y11.3760
G01 X59.5288 Y16.4800
G01 X59.5300 Y16.4868
G01 X59.5321 Y16.4938
G01 X59.5346 Y16.4993
G01 X59.5383 Y16.5054
G01 X59.5421 Y16.5102
G01 X59.5464 Y16.5145
G01 X59.5521 Y16.5189
G01 X59.5575 Y16.5220
G01 X59.8753 Y16.6538
G01 X60.1362 Y16.9147
G01 X60.2774 Y17.2555
G01 X60.2774 Y17.6245
G01 X60.1362 Y17.9653
G01 X59.8753 Y18.2262
G01 X59.5345 Y18.3674
G01 X59.1655 Y18.3674
G01 X58.8247 Y18.2262
G01 X58.5638 Y17.9653
G01 X58.4226 Y17.6245
G01 X58.4226 Y17.2555
G01 X58.5638 Y16.9147
G01 X58.8247 Y16.6538
G01 X59.1425 Y16.5220
G01 X59.1479 Y16.5188
G01 X59.1534 Y16.5147
G01 X59.1576 Y16.5105
G01 X59.1619 Y16.5051
G01 X59.1652 Y16.4998
G01 X59.1678 Y16.4942
G01 X59.1697 Y16.4883
G01 X59.1710 Y16.4813
G01 X59.1714 Y16.4751
G01 X59.1714 Y11.5457
G01 X59.1710 Y11.5396
G01 X59.1702 Y11.5349
G01 X59.1687 Y11.5293
G01 X59.1670 Y11.5247
G01 X59.1648 Y11.5204
G01 X59.1617 Y11.5154
G01 X59.1561 Y11.5086
G01 X55.7414 Y8.0939
G01 X55.7360 Y8.0893
G01 X55.7291 Y8.0848
G01 X55.7235 Y8.0822
G01 X55.7175 Y8.0803
G01 X55.7105 Y8.0790
G01 X55.7043 Y8.0786
G01 X41.8311 Y8.0786
G01 X41.8250 Y8.0790
G01 X41.8182 Y8.0803
G01 X41.8124 Y8.0821
G01 X41.8069 Y8.0846
G01 X41.8008 Y8.0883
G01 X41.7951 Y8.0929
G01 X41.7901 Y8.0983
G01 X41.7860 Y8.1042
G01 X41.7832 Y8.1097
G01 X41.7806 Y8.1167
G01 X41.7791 Y8.1237
G01 X41.7786 Y8.1311
G01 X41.7786 Y13.9043
G01 X41.7795 Y13.9140
G01 X41.7821 Y13.9230
G01 X41.7846 Y13.9285
G01 X41.7876 Y13.9336
G01 X41.7906 Y13.9376
G01 X41.7939 Y13.9414
G01 X45.5586 Y17.7060
G01 X45.5588 Y24.1000
G01 X45.5600 Y24.1068
G01 X45.5621 Y24.1138
G01 X45.5646 Y24.1193
G01 X45.5683 Y24.1254
G01 X45.5721 Y24.1302
G01 X45.5764 Y24.1345
G01 X45.5821 Y24.1389
G01 X45.5875 Y24.1420
G01 X45.9053 Y24.2738
G01 X46.1662 Y24.5347
G01 X46.3074 Y24.8755
G01 X46.3074 Y25.2445
G01 X46.1662 Y25.5853
G01 X45.9053 Y25.8462
G01 X45.5645 Y25.9874
G01 X45.1955 Y25.9874
G01 X44.8547 Y25.8462
G01 X44.5938 Y25.5853
G01 X44.4526 Y25.2445
G01 X44.4526 Y24.8755
G01 X44.5938 Y24.5347
G01 X44.8547 Y24.2738
G01 X45.1725 Y24.1420
G01 X45.1779 Y24.1388
G01 X45.1843 Y24.1339
G01 X45.1884 Y24.1297
G01 X45.1926 Y24.1241
G01 X45.1958 Y24.1187
G01 X45.1982 Y24.1131
G01 X45.2000 Y24.1071
G01 X45.2012 Y24.1000
G01 X45.2014 Y17.8757
G01 X45.2007 Y17.8672
G01 X45.1987 Y17.8593
G01 X45.1960 Y17.8525
G01 X45.1917 Y17.8454
G01 X45.1861 Y17.8386
G01 X41.4214 Y14.0740
G01 X41.4214 Y7.8260
G01 X41.5260 Y7.7214
G00 Z2.0000
G00 X43.3623 Y10.5208
G01 F60.00
G01 Z-0.0500
G01 F120.00
G01 X43.3251 Y10.5482
G01 X43.2514 Y10.5922
G01 X43.1748 Y10.6284
G01 X43.0928 Y10.6577
G01 X43.0107 Y10.6782
G01 X42.9258 Y10.6908
G01 X42.8400 Y10.6950
G01 X42.7530 Y10.6907
G01 X42.6693 Y10.6782
G01 X42.5860 Y10.6573
G01 X42.5052 Y10.6284
G01 X42.4275 Y10.5917
G01 X42.3539 Y10.5475
G01 X42.2849 Y10.4964
G01 X42.2213 Y10.4387
G01 X42.1628 Y10.3741
G01 X42.1125 Y10.3061
G01 X42.0683 Y10.2325
G01 X42.0316 Y10.1548
G01 X42.0027 Y10.0740
G01 X41.9818 Y9.9907
G01 X41.9692 Y9.9058
G01 X41.9650 Y9.8200
G01 X41.9692 Y9.7342
G01 X41.9818 Y9.6493
G01 X42.0027 Y9.5660
G01 X42.0316 Y9.4852
G01 X42.0683 Y9.4075
G01 X42.1125 Y9.3339
G01 X42.1636 Y9.2649
G01 X42.2213 Y9.2013
G01 X42.2859 Y9.1428
G01 X42.3539 Y9.0925
G01 X42.4275 Y9.0483
G01 X42.5052 Y9.0116
G01 X42.5860 Y8.9827
G01 X42.6693 Y8.9618
G01 X42.7542 Y8.9492
G01 X42.8400 Y8.9450
G01 X42.9233 Y8.9490
G01 X43.0107 Y8.9618
G01 X43.0916 Y8.9820
G01 X43.1771 Y9.0126
G01 X43.2525 Y9.0483
G01 X43.3261 Y9.0925
G01 X43.3951 Y9.1436
G01 X43.4587 Y9.2013
G01 X43.5164 Y9.2649
G01 X43.5675 Y9.3339
G01 X43.6117 Y9.4075
G01 X43.6474 Y9.4829
G01 X43.6780 Y9.5684
G01 X43.6982 Y9.6493
G01 X43.7109 Y9.7355
G01 X43.7150 Y9.8200
G01 X43.7108 Y9.9058
G01 X43.6982 Y9.9907
G01 X43.6777 Y10.0728
G01 X43.6484 Y10.1548
G01 X43.6122 Y10.2314
G01 X43.5682 Y10.3051
G01 X43.5408 Y10.3423
G01 X51.7723 Y18.5738
G01 X58.4000 Y18.5738
G01 X58.4124 Y18.5744
G01 X58.4258 Y18.5764
G01 X58.4366 Y18.5792
G01 X58.4460 Y18.5825
G01 X58.4595 Y18.5887
G01 X58.4721 Y18.5965
G01 X58.4801 Y18.6024
G01 X58.4884 Y18.6099
G01 X59.0409 Y19.1623
G01 X59.0960 Y19.1427
G01 X59.1781 Y19.1221
G01 X59.2655 Y19.1091
G01 X59.3500 Y19.1050
G01 X59.4333 Y19.1090
G01 X59.5219 Y19.1221
G01 X59.6040 Y19.1427
G01 X59.6826 Y19.1707
G01 X59.7625 Y19.2083
G01 X59.8361 Y19.2525
G01 X59.9032 Y19.3021
G01 X59.9696 Y19.3622
G01 X60.0264 Y19.4249
G01 X60.0761 Y19.4919
G01 X60.1228 Y19.5697
G01 X60.1584 Y19.6452
G01 X60.1873 Y19.7260
G01 X60.2082 Y19.8093
G01 X60.2205 Y19.8918
G01 X60.2249 Y19.9825
G01 X60.2208 Y20.0658
G01 X60.2082 Y20.1507
G01 X60.1873 Y20.2340
G01 X60.1593 Y20.3126
G01 X60.1205 Y20.3946
G01 X60.0775 Y20.4661
G01 X60.0248 Y20.5370
G01 X59.9687 Y20.5987
G01 X59.9070 Y20.6548
G01 X59.8381 Y20.7061
G01 X59.7625 Y20.7517
G01 X59.6848 Y20.7884
G01 X59.6040 Y20.8173
G01 X59.5207 Y20.8382
G01 X59.4358 Y20.8508
G01 X59.3475 Y20.8549
G01 X59.2618 Y20.8505
G01 X59.1793 Y20.8382
G01 X59.0984 Y20.8180
G01 X59.0152 Y20.7884
G01 X58.9375 Y20.7517
G01 X58.8639 Y20.7075
G01 X58.7930 Y20.6548
G01 X58.7296 Y20.5969
G01 X58.6736 Y20.5351
G01 X58.6239 Y20.4681
G01 X58.5783 Y20.3925
G01 X58.5426 Y20.3171
G01 X58.5127 Y20.2340
G01 X58.4918 Y20.1507
G01 X58.4792 Y20.0658
G01 X58.4750 Y19.9788
G01 X58.4792 Y19.8942
G01 X58.4924 Y19.8069
G01 X58.5127 Y19.7260
G01 X58.5407 Y19.6474
G01 X58.5778 Y19.5686
G01 X58.6225 Y19.4939
G01 X58.6744 Y19.4240
G01 X58.7322 Y19.3604
G01 X58.7940 Y19.3044
G01 X58.8122 Y19.2907
G01 X58.3477 Y18.8262
G01 X51.7200 Y18.8262
G01 X51.7052 Y18.8253
G01 X51.6954 Y18.8238
G01 X51.6857 Y18.8215
G01 X51.6717 Y18.8166
G01 X51.6584 Y18.8101
G01 X51.6499 Y18.8050
G01 X51.6419 Y18.7991
G01 X51.6307 Y18.7893
G01 X43.3623 Y10.5208
G00 Z2.0000
G00 X45.1955 Y8.8926
G01 F60.00
G01 Z-0.0500
G01 F120.00
G01 X45.5645 Y8.8926
G01 X45.9053 Y9.0338
G01 X46.1662 Y9.2947
G01 X46.3074 Y9.6355
G01 X46.3074 Y10.0045
G01 X46.1759 Y10.3223
G01 X46.1744 Y10.3280
G01 X46.1734 Y10.3340
G01 X46.1732 Y10.3401
G01 X46.1738 Y10.3462
G01 X46.1752 Y10.3531
G01 X46.1771 Y10.3587
G01 X46.1797 Y10.3641
G01 X46.1829 Y10.3693
G01 X46.1885 Y10.3761
G01 X48.7186 Y12.9061
G01 X48.7254 Y12.9117
G01 X48.7336 Y12.9165
G01 X48.7393 Y12.9187
G01 X48.7449 Y12.9202
G01 X48.7508 Y12.9212
G01 X48.7557 Y12.9214
G01 X54.0740 Y12.9214
G01 X56.9886 Y15.8360
G01 X56.9886 Y16.4751
G01 X56.9890 Y16.4812
G01 X56.9903 Y16.4880
G01 X56.9921 Y16.4938
G01 X56.9946 Y16.4993
G01 X56.9990 Y16.5064
G01 X57.0046 Y16.5128
G01 X57.0121 Y16.5189
G01 X57.0198 Y16.5231
G01 X57.3353 Y16.6538
G01 X57.5962 Y16.9147
G01 X57.7374 Y17.2555
G01 X57.7374 Y17.6245
G01 X57.5962 Y17.9653
G01 X57.3353 Y18.2262
G01 X56.9945 Y18.3674
G01 X56.6255 Y18.3674
G01 X56.2847 Y18.2262
G01 X56.0238 Y17.9653
G01 X55.8826 Y17.6245
G01 X55.8826 Y17.2555
G01 X56.0238 Y16.9147
G01 X56.2847 Y16.6538
G01 X56.6002 Y16.5231
G01 X56.6069 Y16.5195
G01 X56.6143 Y16.5139
G01 X56.6199 Y16.5078
G01 X56.6246 Y16.5009
G01 X56.6278 Y16.4942
G01 X56.6297 Y16.4883
G01 X56.6310 Y16.4813
G01 X56.6314 Y16.4751
G01 X56.6314 Y16.0057
G01 X56.6312 Y16.0008
G01 X56.6302 Y15.9949
G01 X56.6287 Y15.9893
G01 X56.6270 Y15.9847
G01 X56.6248 Y15.9804
G01 X56.6217 Y15.9754
G01 X56.6161 Y15.9686
G01 X53.9414 Y13.2939
G01 X53.9351 Y13.2886
G01 X53.9280 Y13.2842
G01 X53.9211 Y13.2814
G01 X53.9129 Y13.2793
G01 X53.9043 Y13.2786
G01 X48.5860 Y13.2786
G01 X45.9361 Y10.6285
G01 X45.9303 Y10.6236
G01 X45.9243 Y10.6198
G01 X45.9189 Y10.6172
G01 X45.9132 Y10.6152
G01 X45.9063 Y10.6137
G01 X45.9001 Y10.6132
G01 X45.8940 Y10.6134
G01 X45.8881 Y10.6144
G01 X45.8822 Y10.6159
G01 X45.5645 Y10.7474
G01 X45.1955 Y10.7474
G01 X44.8547 Y10.6062
G01 X44.5938 Y10.3453
G01 X44.4526 Y10.0045
G01 X44.4526 Y9.6355
G01 X44.5938 Y9.2947
G01 X44.8547 Y9.0338
G01 X45.1955 Y8.8926
G00 Z2.0000
G00 X45.9023 Y10.5208
G01 F60.00
G01 Z-0.0500
G01 F120.00
G01 X45.8651 Y10.5482
G01 X45.7914 Y10.5922
G01 X45.7148 Y10.6284
G01 X45.6328 Y10.6577
G01 X45.5507 Y10.6782
G01 X45.4658 Y10.6908
G01 X45.3800 Y10.6950
G01 X45.2930 Y10.6907
G01 X45.2093 Y10.6782
G01 X45.1260 Y10.6573
G01 X45.0452 Y10.6284
G01 X44.9675 Y10.5917
G01 X44.8939 Y10.5475
G01 X44.8249 Y10.4964
G01 X44.7613 Y10.4387
G01 X44.7028 Y10.3741
G01 X44.6525 Y10.3061
G01 X44.6083 Y10.2325
G01 X44.5716 Y10.1548
G01 X44.5427 Y10.0740
G01 X44.5218 Y9.9907
G01 X44.5092 Y9.9058
G01 X44.5050 Y9.8200
G01 X44.5092 Y9.7342
G01 X44.5218 Y9.6493
G01 X44.5427 Y9.5660
G01 X44.5716 Y9.4852
G01 X44.6083 Y9.4075
G01 X44.6525 Y9.3339
G01 X44.7036 Y9.2649
G01 X44.7613 Y9.2013
G01 X44.8259 Y9.1428
G01 X44.8939 Y9.0925
G01 X44.9675 Y9.0483
G01 X45.0452 Y9.0116
G01 X45.1260 Y8.9827
G01 X45.2093 Y8.9618
G01 X45.2942 Y8.9492
G01 X45.3800 Y8.9450
G01 X45.4633 Y8.9490
G01 X45.5507 Y8.9618
G01 X45.6316 Y8.9820
G01 X45.7171 Y9.0126
G01 X45.7925 Y9.0483
G01 X45.8661 Y9.0925
G01 X45.9351 Y9.1436
G01 X45.9987 Y9.2013
G01 X46.0564 Y9.2649
G01 X46.1075 Y9.3339
G01 X46.1517 Y9.4075
G01 X46.1874 Y9.4829
G01 X46.2180 Y9.5684
G01 X46.2382 Y9.6493
G01 X46.2509 Y9.7355
G01 X46.2550 Y9.8200
G01 X46.2508 Y9.9058
G01 X46.2382 Y9.9907
G01 X46.2177 Y10.0728
G01 X46.1884 Y10.1548
G01 X46.1522 Y10.2314
G01 X46.1082 Y10.3051
G01 X46.0808 Y10.3423
G01 X48.7123 Y12.9738
G01 X54.0000 Y12.9738
G01 X54.0148 Y12.9747
G01 X54.0246 Y12.9762
G01 X54.0366 Y12.9792
G01 X54.0506 Y12.9844
G01 X54.0595 Y12.9887
G01 X54.0691 Y12.9944
G01 X54.0801 Y13.0024
G01 X54.0893 Y13.0107
G01 X56.8993 Y15.8207
G01 X56.9076 Y15.8299
G01 X56.9143 Y15.8389
G01 X56.9224 Y15.8527
G01 X56.9266 Y15.8617
G01 X56.9308 Y15.8734
G01 X56.9342 Y15.8878
G01 X56.9356 Y15.8976
G01 X56.9362 Y15.9088
G01 X56.9362 Y16.5752
G01 X56.9819 Y16.5821
G01 X57.0628 Y16.6023
G01 X57.1460 Y16.6321
G01 X57.2225 Y16.6683
G01 X57.2941 Y16.7112
G01 X57.3660 Y16.7644
G01 X57.4287 Y16.8213
G01 X57.4848 Y16.8830
G01 X57.5375 Y16.9539
G01 X57.5828 Y17.0297
G01 X57.6184 Y17.1052
G01 X57.6473 Y17.1860
G01 X57.6682 Y17.2693
G01 X57.6808 Y17.3542
G01 X57.6850 Y17.4400
G01 X57.6805 Y17.5282
G01 X57.6676 Y17.6131
G01 X57.6473 Y17.6940
G01 X57.6193 Y17.7726
G01 X57.5817 Y17.8525
G01 X57.5382 Y17.9251
G01 X57.4864 Y17.9951
G01 X57.4269 Y18.0604
G01 X57.3651 Y18.1164
G01 X57.2981 Y18.1661
G01 X57.2246 Y18.2105
G01 X57.1448 Y18.2484
G01 X57.0640 Y18.2773
G01 X56.9807 Y18.2982
G01 X56.8933 Y18.3110
G01 X56.8100 Y18.3150
G01 X56.7267 Y18.3110
G01 X56.6417 Y18.2986
G01 X56.5560 Y18.2773
G01 X56.4752 Y18.2484
G01 X56.3954 Y18.2105
G01 X56.3239 Y18.1675
G01 X56.2568 Y18.1179
G01 X56.1913 Y18.0587
G01 X56.1328 Y17.9941
G01 X56.0812 Y17.9241
G01 X56.0383 Y17.8525
G01 X56.0026 Y17.7771
G01 X55.9727 Y17.6940
G01 X55.9518 Y17.6107
G01 X55.9392 Y17.5258
G01 X55.9351 Y17.4375
G01 X55.9392 Y17.3542
G01 X55.9514 Y17.2717
G01 X55.9723 Y17.1872
G01 X56.0026 Y17.1029
G01 X56.0383 Y17.0275
G01 X56.0825 Y16.9539
G01 X56.1352 Y16.8830
G01 X56.1913 Y16.8213
G01 X56.2540 Y16.7644
G01 X56.3259 Y16.7112
G01 X56.3975 Y16.6683
G01 X56.4740 Y16.6321
G01 X56.5572 Y16.6023
G01 X56.6381 Y16.5821
G01 X56.6838 Y16.5752
G01 X56.6838 Y15.9623
G01 X53.9477 Y13.2262
G01 X48.6600 Y13.2262
G01 X48.6476 Y13.2256
G01 X48.6378 Y13.2242
G01 X48.6222 Y13.2204
G01 X48.6094 Y13.2156
G01 X48.6005 Y13.2113
G01 X48.5919 Y13.2063
G01 X48.5799 Y13.1976
G01 X48.5707 Y13.1893
G01 X45.9023 Y10.5208
G00 Z2.0000
G00 X33.8260 Y6.7214
G01 F60.00
G01 Z-0.0500
G01 F120.00
G01 X59.1740 Y6.7214
G01 X62.0686 Y9.6160
G01 X62.0688 Y16.4800
G01 X62.0700 Y16.4868
G01 X62.0721 Y16.4938
G01 X62.0746 Y16.4993
G01 X62.0783 Y16.5054
G01 X62.0821 Y16.5102
G01 X62.0864 Y16.5145
G01 X62.0921 Y16.5189
G01 X62.0975 Y16.5220
G01 X62.4153 Y16.6538
G01 X62.6762 Y16.9147
G01 X62.8174 Y17.2555
G01 X62.8174 Y17.6245
G01 X62.6762 Y17.9653
G01 X62.4153 Y18.2262
G01 X62.0745 Y18.3674
G01 X61.7055 Y18.3674
G01 X61.3647 Y18.2262
G01 X61.1038 Y17.9653
G01 X60.9626 Y17.6245
G01 X60.9626 Y17.2555
G01 X61.1038 Y16.9147
G01 X61.3647 Y16.6538
G01 X61.6825 Y16.5220
G01 X61.6879 Y16.5188
G01 X61.6943 Y16.5139
G01 X61.6984 Y16.5097
G01 X61.7026 Y16.5041
G01 X61.7058 Y16.4987
G01 X61.7082 Y16.4931
G01 X61.7100 Y16.4871
G01 X61.7112 Y16.4800
G01 X61.7114 Y9.7857
G01 X61.7107 Y9.7772
G01 X61.7087 Y9.7693
G01 X61.7060 Y9.7625
G01 X61.7017 Y9.7554
G01 X61.6961 Y9.7486
G01 X59.0414 Y7.0939
G01 X59.0369 Y7.0900
G01 X59.0323 Y7.0867
G01 X59.0280 Y7.0842
G01 X59.0223 Y7.0818
G01 X59.0129 Y7.0793
G01 X59.0043 Y7.0786
G01 X34.1311 Y7.0786
G01 X34.1250 Y7.0790
G01 X34.1182 Y7.0803
G01 X34.1101 Y7.0830
G01 X34.1019 Y7.0876
G01 X34.0960 Y7.0921
G01 X34.0901 Y7.0983
G01 X34.0854 Y7.1053
G01 X34.0818 Y7.1131
G01 X34.0793 Y7.1225
G01 X34.0786 Y7.1311
G01 X34.0786 Y12.2740
G01 X33.5740 Y12.7786
G01 X27.4557 Y12.7786
G01 X27.4472 Y12.7793
G01 X27.4381 Y12.7817
G01 X27.4304 Y12.7852
G01 X27.4234 Y12.7898
G01 X27.4186 Y12.7939
G01 X15.7069 Y24.5058
G01 X15.7020 Y24.5121
G01 X15.6988 Y24.5174
G01 X15.6960 Y24.5243
G01 X15.6944 Y24.5303
G01 X15.6933 Y24.5374
G01 X15.6933 Y24.5436
G01 X15.6942 Y24.5509
G01 X15.6959 Y24.5578
G01 X15.8274 Y24.8755
G01 X15.8274 Y25.2445
G01 X15.6862 Y25.5853
G01 X15.4253 Y25.8462
G01 X15.0845 Y25.9874
G01 X14.7155 Y25.9874
G01 X14.3747 Y25.8462
G01 X14.1138 Y25.5853
G01 X13.9796 Y25.2614
G01 X13.9758 Y25.2539
G01 X13.9716 Y25.2480
G01 X13.9683 Y25.2444
G01 X13.9637 Y25.2403
G01 X13.9588 Y25.2369
G01 X13.9534 Y25.2340
G01 X13.9489 Y25.2321
G01 X13.9429 Y25.2304
G01 X13.9372 Y25.2294
G01 X13.9323 Y25.2290
G01 X13.9262 Y25.2292
G01 X13.9203 Y25.2301
G01 X13.9144 Y25.2317
G01 X13.9098 Y25.2335
G01 X13.9043 Y25.2363
G01 X13.9002 Y25.2391
G01 X13.8958 Y25.2427
G01 X13.8916 Y25.2469
G01 X13.8860 Y25.2546
G01 X13.8822 Y25.2624
G01 X13.8796 Y25.2717
G01 X13.8786 Y25.2815
G01 X13.8786 Y28.2043
G01 X13.8790 Y28.2104
G01 X13.8809 Y28.2196
G01 X13.8840 Y28.2275
G01 X13.8883 Y28.2346
G01 X13.8939 Y28.2414
G01 X15.1586 Y29.5061
G01 X15.1654 Y29.5117
G01 X15.1736 Y29.5165
G01 X15.1828 Y29.5197
G01 X15.1921 Y29.5213
G01 X31.4043 Y29.5214
G01 X31.4104 Y29.5210
G01 X31.4196 Y29.5191
G01 X31.4275 Y29.5160
G01 X31.4346 Y29.5117
G01 X31.4414 Y29.5061
G01 X34.9266 Y26.0209
G01 X34.9305 Y26.0164
G01 X34.9338 Y26.0118
G01 X34.9379 Y26.0039
G01 X34.9408 Y25.9946
G01 X34.9419 Y25.9862
G01 X34.9414 Y25.9764
G01 X34.9392 Y25.9670
G01 X34.9358 Y25.9591
G01 X34.9305 Y25.9511
G01 X34.9240 Y25.9442
G01 X34.9173 Y25.9393
G01 X34.9095 Y25.9352
G01 X34.6947 Y25.8462
G01 X34.4338 Y25.5853
G01 X34.2926 Y25.2445
G01 X34.2926 Y24.8755
G01 X34.4338 Y24.5347
G01 X34.6947 Y24.2738
G01 X35.0355 Y24.1326
G01 X35.4045 Y24.1326
G01 X35.7453 Y24.2738
G01 X36.0062 Y24.5347
G01 X36.1474 Y24.8755
G01 X36.1474 Y25.2445
G01 X36.0062 Y25.5853
G01 X35.7453 Y25.8462
G01 X35.4310 Y25.9764
G01 X35.4231 Y25.9805
G01 X35.4149 Y25.9869
G01 X35.4101 Y25.9922
G01 X35.4054 Y25.9991
G01 X35.4022 Y26.0058
G01 X35.4003 Y26.0117
G01 X35.3991 Y26.0175
G01 X35.3987 Y26.0224
G01 X35.3986 Y26.0540
G01 X31.5740 Y29.8786
G01 X15.0260 Y29.8786
G01 X13.5214 Y28.3740
G01 X13.5214 Y22.3260
G01 X21.0061 Y14.8414
G01 X21.0114 Y14.8351
G01 X21.0158 Y14.8280
G01 X21.0182 Y14.8223
G01 X21.0200 Y14.8163
G01 X21.0210 Y14.8105
G01 X21.0214 Y14.8043
G01 X21.0214 Y7.9945
G01 X21.0202 Y7.9849
G01 X21.0187 Y7.9793
G01 X21.0170 Y7.9747
G01 X21.0148 Y7.9704
G01 X21.0117 Y7.9654
G01 X21.0061 Y7.9586
G01 X20.6405 Y7.5931
G01 X20.6344 Y7.5881
G01 X20.6280 Y7.5842
G01 X20.6211 Y7.5814
G01 X20.6141 Y7.5796
G01 X20.6043 Y7.5786
G01 X18.9957 Y7.5786
G01 X18.9872 Y7.5793
G01 X18.9793 Y7.5813
G01 X18.9715 Y7.5846
G01 X18.9644 Y7.5890
G01 X18.9586 Y7.5939
G01 X17.7051 Y8.8474
G01 X17.7005 Y8.8528
G01 X17.6966 Y8.8586
G01 X17.6939 Y8.8642
G01 X17.6918 Y8.8701
G01 X17.6902 Y8.8784
G01 X17.6899 Y8.8870
G01 X17.6909 Y8.8954
G01 X17.6933 Y8.9037
G01 X17.6971 Y8.9114
G01 X17.7027 Y8.9191
G01 X17.7086 Y8.9248
G01 X17.7155 Y8.9297
G01 X17.7222 Y8.9331
G01 X17.9653 Y9.0338
G01 X18.2262 Y9.2947
G01 X18.3674 Y9.6355
G01 X18.3674 Y10.0045
G01 X18.2262 Y10.3453
G01 X17.9653 Y10.6062
G01 X17.6245 Y10.7474
G01 X17.2555 Y10.7474
G01 X16.9147 Y10.6062
G01 X16.6538 Y10.3453
G01 X16.5126 Y10.0045
G01 X16.5126 Y9.6355
G01 X16.6441 Y9.3177
G01 X16.6459 Y9.3108
G01 X16.6467 Y9.3036
G01 X16.6466 Y9.2962
G01 X16.6454 Y9.2892
G01 X16.6437 Y9.2834
G01 X16.6408 Y9.2768
G01 X16.6371 Y9.2708
G01 X16.6323 Y9.2649
G01 X15.2614 Y7.8939
G01 X15.2579 Y7.8908
G01 X15.2533 Y7.8874
G01 X15.2469 Y7.8837
G01 X15.2399 Y7.8810
G01 X15.2317 Y7.8791
G01 X15.2243 Y7.8786
G01 X14.5757 Y7.8786
G01 X14.5708 Y7.8788
G01 X14.5649 Y7.8798
G01 X14.5581 Y7.8817
G01 X14.5515 Y7.8846
G01 X14.5444 Y7.8890
G01 X14.5386 Y7.8939
G01 X13.1685 Y9.2640
G01 X13.1646 Y9.2685
G01 X13.1607 Y9.2742
G01 X13.1583 Y9.2785
G01 X13.1560 Y9.2843
G01 X13.1544 Y9.2903
G01 X13.1534 Y9.2962
G01 X13.1532 Y9.3011
G01 X13.1536 Y9.3073
G01 X13.1546 Y9.3131
G01 X13.1563 Y9.3190
G01 X13.2874 Y9.6355
G01 X13.2874 Y10.0045
G01 X13.1462 Y10.3453
G01 X12.8853 Y10.6062
G01 X12.5710 Y10.7364
G01 X12.5631 Y10.7405
G01 X12.5557 Y10.7461
G01 X12.5509 Y10.7512
G01 X12.5460 Y10.7580
G01 X12.5427 Y10.7646
G01 X12.5403 Y10.7717
G01 X12.5391 Y10.7775
G01 X12.5387 Y10.7824
G01 X12.5386 Y10.8140
G01 X11.2740 Y12.0786
G01 X9.5957 Y12.0786
G01 X9.5872 Y12.0793
G01 X9.5781 Y12.0817
G01 X9.5704 Y12.0852
G01 X9.5634 Y12.0898
G01 X9.5586 Y12.0939
G01 X4.6939 Y16.9586
G01 X4.6883 Y16.9654
G01 X4.6852 Y16.9704
G01 X4.6830 Y16.9747
G01 X4.6813 Y16.9793
G01 X4.6798 Y16.9849
G01 X4.6788 Y16.9908
G01 X4.6786 Y16.9957
G01 X4.6786 Y30.3043
G01 X4.6795 Y30.3140
G01 X4.6821 Y30.3230
G01 X4.6846 Y30.3285
G01 X4.6876 Y30.3336
G01 X4.6906 Y30.3376
G01 X4.6939 Y30.3414
G01 X28.4786 Y54.1261
G01 X28.4854 Y54.1317
G01 X28.4925 Y54.1360
G01 X28.4981 Y54.1383
G01 X28.5040 Y54.1400
G01 X28.5096 Y54.1410
G01 X28.5157 Y54.1414
G01 X39.3287 Y54.1413
G01 X39.3359 Y54.1402
G01 X39.3427 Y54.1383
G01 X39.3483 Y54.1360
G01 X39.3543 Y54.1324
G01 X39.3592 Y54.1287
G01 X39.3645 Y54.1236
G01 X39.3689 Y54.1179
G01 X39.3720 Y54.1125
G01 X39.5038 Y53.7947
G01 X39.7647 Y53.5338
G01 X40.1055 Y53.3926
G01 X40.4745 Y53.3926
G01 X40.8153 Y53.5338
G01 X41.0762 Y53.7947
G01 X41.2069 Y54.1102
G01 X41.2105 Y54.1169
G01 X41.2161 Y54.1243
G01 X41.2222 Y54.1299
G01 X41.2302 Y54.1352
G01 X41.2358 Y54.1378
G01 X41.2417 Y54.1397
G01 X41.2487 Y54.1410
G01 X41.2549 Y54.1414
G01 X41.8675 Y54.1413
G01 X41.8748 Y54.1405
G01 X41.8815 Y54.1387
G01 X41.8883 Y54.1360
G01 X41.8943 Y54.1324
G01 X41.8992 Y54.1287
G01 X41.9045 Y54.1236
G01 X41.9089 Y54.1179
G01 X41.9120 Y54.1125
G01 X42.0438 Y53.7947
G01 X42.3047 Y53.5338
G01 X42.6455 Y53.3926
G01 X43.0145 Y53.3926
G01 X43.3553 Y53.5338
G01 X43.6162 Y53.7947
G01 X43.7469 Y54.1102
G01 X43.7505 Y54.1169
G01 X43.7561 Y54.1243
G01 X43.7622 Y54.1299
G01 X43.7702 Y54.1352
G01 X43.7758 Y54.1378
G01 X43.7817 Y54.1397
G01 X43.7887 Y54.1410
G01 X43.7949 Y54.1414
G01 X44.4075 Y54.1413
G01 X44.4148 Y54.1405
G01 X44.4215 Y54.1387
G01 X44.4283 Y54.1360
G01 X44.4343 Y54.1324
G01 X44.4392 Y54.1287
G01 X44.4445 Y54.1236
G01 X44.4489 Y54.1179
G01 X44.4520 Y54.1125
G01 X44.5838 Y53.7947
G01 X44.8447 Y53.5338
G01 X45.1855 Y53.3926
G01 X45.5545 Y53.3926
G01 X45.8953 Y53.5338
G01 X46.1562 Y53.7947
G01 X46.2880 Y54.1125
G01 X46.2912 Y54.1179
G01 X46.2953 Y54.1234
G01 X46.2995 Y54.1276
G01 X46.3049 Y54.1319
G01 X46.3102 Y54.1352
G01 X46.3158 Y54.1378
G01 X46.3217 Y54.1397
G01 X46.3287 Y54.1410
G01 X46.3349 Y54.1414
G01 X51.2843 Y54.1414
G01 X51.2940 Y54.1405
G01 X51.3019 Y54.1383
G01 X51.3085 Y54.1354
G01 X51.3156 Y54.1310
G01 X51.3214 Y54.1261
G01 X61.6961 Y43.7514
G01 X61.7000 Y43.7469
G01 X61.7039 Y43.7412
G01 X61.7068 Y43.7357
G01 X61.7090 Y43.7299
G01 X61.7109 Y43.7217
G01 X61.7114 Y43.7143
G01 X61.7114 Y20.9437
G01 X61.7107 Y20.9364
G01 X61.7091 Y20.9296
G01 X61.7065 Y20.9228
G01 X61.7031 Y20.9167
G01 X61.6995 Y20.9117
G01 X61.6945 Y20.9063
G01 X61.6889 Y20.9019
G01 X61.6825 Y20.8980
G01 X61.3647 Y20.7662
G01 X61.1038 Y20.5053
G01 X60.9626 Y20.1645
G01 X60.9626 Y19.7955
G01 X61.1038 Y19.4547
G01 X61.3647 Y19.1938
G01 X61.7055 Y19.0526
G01 X62.0745 Y19.0526
G01 X62.4153 Y19.1938
G01 X62.6762 Y19.4547
G01 X62.8174 Y19.7955
G01 X62.8174 Y20.1645
G01 X62.6762 Y20.5053
G01 X62.4153 Y20.7662
G01 X62.0975 Y20.8980
G01 X62.0921 Y20.9012
G01 X62.0857 Y20.9061
G01 X62.0809 Y20.9112
G01 X62.0767 Y20.9170
G01 X62.0732 Y20.9235
G01 X62.0710 Y20.9293
G01 X62.0693 Y20.9363
G01 X62.0686 Y20.9437
G01 X62.0686 Y43.8840
G01 X51.4540 Y54.4986
G01 X46.3349 Y54.4986
G01 X46.3288 Y54.4990
G01 X46.3220 Y54.5003
G01 X46.3162 Y54.5021
G01 X46.3107 Y54.5046
G01 X46.3046 Y54.5083
G01 X46.2998 Y54.5121
G01 X46.2955 Y54.5164
G01 X46.2911 Y54.5221
G01 X46.2880 Y54.5275
G01 X46.1562 Y54.8453
G01 X45.8953 Y55.1062
G01 X45.5545 Y55.2474
G01 X45.1855 Y55.2474
G01 X44.8447 Y55.1062
G01 X44.5838 Y54.8453
G01 X44.4520 Y54.5275
G01 X44.4488 Y54.5221
G01 X44.4439 Y54.5157
G01 X44.4388 Y54.5109
G01 X44.4330 Y54.5067
G01 X44.4265 Y54.5032
G01 X44.4207 Y54.5010
G01 X44.4137 Y54.4993
G01 X44.4076 Y54.4987
G01 X43.7949 Y54.4986
G01 X43.7888 Y54.4990
G01 X43.7820 Y54.5003
G01 X43.7762 Y54.5021
G01 X43.7707 Y54.5046
G01 X43.7636 Y54.5090
G01 X43.7572 Y54.5146
G01 X43.7511 Y54.5221
G01 X43.7469 Y54.5298
G01 X43.6162 Y54.8453
G01 X43.3553 Y55.1062
G01 X43.0145 Y55.2474
G01 X42.6455 Y55.2474
G01 X42.3047 Y55.1062
G01 X42.0438 Y54.8453
G01 X41.9126 Y54.5287
G01 X41.9076 Y54.5203
G01 X41.9014 Y54.5132
G01 X41.8941 Y54.5074
G01 X41.8854 Y54.5027
G01 X41.8759 Y54.4998
G01 X41.8700 Y54.4988
G01 X41.8651 Y54.4986
G01 X41.2549 Y54.4986
G01 X41.2464 Y54.4993
G01 X41.2408 Y54.5006
G01 X41.2351 Y54.5025
G01 X41.2296 Y54.5052
G01 X41.2236 Y54.5090
G01 X41.2189 Y54.5129
G01 X41.2147 Y54.5174
G01 X41.2111 Y54.5221
G01 X41.2080 Y54.5275
G01 X41.0762 Y54.8453
G01 X40.8153 Y55.1062
G01 X40.4745 Y55.2474
G01 X40.1055 Y55.2474
G01 X39.7647 Y55.1062
G01 X39.5038 Y54.8453
G01 X39.3720 Y54.5275
G01 X39.3688 Y54.5221
G01 X39.3639 Y54.5157
G01 X39.3597 Y54.5116
G01 X39.3541 Y54.5074
G01 X39.3487 Y54.5042
G01 X39.3419 Y54.5014
G01 X39.3359 Y54.4998
G01 X39.3288 Y54.4987
G01 X28.3460 Y54.4986
G01 X4.3214 Y30.4740
G01 X4.3214 Y16.8260
G01 X9.4260 Y11.7214
G01 X11.1043 Y11.7214
G01 X11.1128 Y11.7207
G01 X11.1219 Y11.7183
G01 X11.1275 Y11.7160
G01 X11.1325 Y11.7131
G01 X11.1366 Y11.7102
G01 X11.1414 Y11.7061
G01 X12.0674 Y10.7800
G01 X12.0738 Y10.7718
G01 X12.0763 Y10.7674
G01 X12.0784 Y10.7628
G01 X12.0802 Y10.7570
G01 X12.0813 Y10.7522
G01 X12.0819 Y10.7462
G01 X12.0819 Y10.7413
G01 X12.0814 Y10.7364
G01 X12.0803 Y10.7306
G01 X12.0769 Y10.7213
G01 X12.0746 Y10.7169
G01 X12.0712 Y10.7120
G01 X12.0674 Y10.7075
G01 X12.0640 Y10.7042
G01 X12.0573 Y10.6993
G01 X12.0495 Y10.6952
G01 X11.8347 Y10.6062
G01 X11.5738 Y10.3453
G01 X11.4326 Y10.0045
G01 X11.4326 Y9.6355
G01 X11.5738 Y9.2947
G01 X11.8347 Y9.0338
G01 X12.1755 Y8.8926
G01 X12.5445 Y8.8926
G01 X12.8611 Y9.0237
G01 X12.8671 Y9.0254
G01 X12.8728 Y9.0264
G01 X12.8789 Y9.0268
G01 X12.8838 Y9.0266
G01 X12.8896 Y9.0256
G01 X12.8954 Y9.0241
G01 X12.9009 Y9.0219
G01 X12.9061 Y9.0192
G01 X12.9113 Y9.0156
G01 X12.9161 Y9.0115
G01 X14.4060 Y7.5214
G01 X15.3940 Y7.5214
G01 X16.8840 Y9.0115
G01 X16.8875 Y9.0146
G01 X16.8921 Y9.0180
G01 X16.8997 Y9.0222
G01 X16.9091 Y9.0254
G01 X16.9186 Y9.0267
G01 X16.9236 Y9.0267
G01 X16.9297 Y9.0261
G01 X16.9355 Y9.0248
G01 X16.9412 Y9.0228
G01 X17.2290 Y8.9036
G01 X17.2369 Y8.8995
G01 X17.2451 Y8.8931
G01 X17.2512 Y8.8861
G01 X17.2558 Y8.8787
G01 X17.2590 Y8.8707
G01 X17.2609 Y8.8625
G01 X17.2614 Y8.8551
G01 X17.2614 Y8.7860
G01 X18.8260 Y7.2214
G01 X20.7740 Y7.2214
G01 X21.3786 Y7.8260
G01 X21.3786 Y14.9740
G01 X13.8939 Y22.4586
G01 X13.8890 Y22.4644
G01 X13.8846 Y22.4715
G01 X13.8813 Y22.4793
G01 X13.8793 Y22.4872
G01 X13.8786 Y22.4957
G01 X13.8786 Y24.8396
G01 X13.8798 Y24.8497
G01 X13.8814 Y24.8555
G01 X13.8832 Y24.8600
G01 X13.8860 Y24.8654
G01 X13.8887 Y24.8694
G01 X13.8923 Y24.8738
G01 X13.8965 Y24.8780
G01 X13.9011 Y24.8815
G01 X13.9053 Y24.8842
G01 X13.9109 Y24.8870
G01 X13.9156 Y24.8887
G01 X13.9214 Y24.8901
G01 X13.9262 Y24.8908
G01 X13.9311 Y24.8910
G01 X13.9370 Y24.8907
G01 X13.9442 Y24.8894
G01 X13.9500 Y24.8875
G01 X13.9555 Y24.8850
G01 X13.9617 Y24.8812
G01 X13.9665 Y24.8773
G01 X13.9709 Y24.8728
G01 X13.9746 Y24.8678
G01 X13.9781 Y24.8619
G01 X14.1138 Y24.5347
G01 X14.3747 Y24.2738
G01 X14.7155 Y24.1326
G01 X15.0845 Y24.1326
G01 X15.4023 Y24.2641
G01 X15.4092 Y24.2659
G01 X15.4164 Y24.2667
G01 X15.4238 Y24.2666
G01 X15.4308 Y24.2654
G01 X15.4376 Y24.2633
G01 X15.4430 Y24.2609
G01 X15.4493 Y24.2571
G01 X15.4551 Y24.2523
G01 X27.2860 Y12.4214
G01 X33.4043 Y12.4214
G01 X33.4140 Y12.4205
G01 X33.4230 Y12.4179
G01 X33.4317 Y12.4136
G01 X33.4395 Y12.4078
G01 X33.7069 Y12.1405
G01 X33.7126 Y12.1333
G01 X33.7168 Y12.1257
G01 X33.7197 Y12.1175
G01 X33.7213 Y12.1080
G01 X33.7214 Y6.8260
G01 X33.8260 Y6.7214
G00 Z2.0000
G00 X32.4955 Y24.1326
G01 F60.00
G01 Z-0.0500
G01 F120.00
G01 X32.8645 Y24.1326
G01 X33.2053 Y24.2738
G01 X33.4662 Y24.5347
G01 X33.6074 Y24.8755
G01 X33.6074 Y25.2445
G01 X33.4662 Y25.5853
G01 X33.2053 Y25.8462
G01 X32.8645 Y25.9874
G01 X32.4955 Y25.9874
G01 X32.1547 Y25.8462
G01 X31.8938 Y25.5853
G01 X31.7526 Y25.2445
G01 X31.7526 Y24.8755
G01 X31.8938 Y24.5347
G01 X32.1547 Y24.2738
G01 X32.4955 Y24.1326
G00 Z2.0000
G00 X33.5549 Y25.0625
G01 F60.00
G01 Z-0.0500
G01 F120.00
G01 X33.5508 Y25.1458
G01 X33.5382 Y25.2307
G01 X33.5173 Y25.3140
G01 X33.4884 Y25.3948
G01 X33.4517 Y25.4725
G01 X33.4075 Y25.5461
G01 X33.3564 Y25.6151
G01 X33.2987 Y25.6787
G01 X33.2351 Y25.7364
G01 X33.1661 Y25.7875
G01 X33.0925 Y25.8317
G01 X33.0148 Y25.8684
G01 X32.9340 Y25.8973
G01 X32.8507 Y25.9182
G01 X32.7658 Y25.9308
G01 X32.6800 Y25.9350
G01 X32.5942 Y25.9308
G01 X32.5093 Y25.9182
G01 X32.4260 Y25.8973
G01 X32.3452 Y25.8684
G01 X32.2675 Y25.8317
G01 X32.1939 Y25.7875
G01 X32.1249 Y25.7364
G01 X32.0613 Y25.6787
G01 X32.0036 Y25.6151
G01 X31.9525 Y25.5461
G01 X31.9083 Y25.4725
G01 X31.8716 Y25.3948
G01 X31.8427 Y25.3140
G01 X31.8218 Y25.2307
G01 X31.8092 Y25.1458
G01 X31.8050 Y25.0600
G01 X31.8092 Y24.9742
G01 X31.8218 Y24.8893
G01 X31.8427 Y24.8060
G01 X31.8716 Y24.7252
G01 X31.9083 Y24.6475
G01 X31.9525 Y24.5739
G01 X32.0036 Y24.5049
G01 X32.0613 Y24.4413
G01 X32.1249 Y24.3836
G01 X32.1939 Y24.3325
G01 X32.2675 Y24.2883
G01 X32.3452 Y24.2516
G01 X32.4260 Y24.2227
G01 X32.5093 Y24.2018
G01 X32.5942 Y24.1892
G01 X32.6800 Y24.1850
G01 X32.7658 Y24.1892
G01 X32.8507 Y24.2018
G01 X32.9340 Y24.2227
G01 X33.0148 Y24.2516
G01 X33.0925 Y24.2883
G01 X33.1661 Y24.3325
G01 X33.2351 Y24.3836
G01 X33.2987 Y24.4413
G01 X33.3564 Y24.5049
G01 X33.4075 Y24.5739
G01 X33.4517 Y24.6475
G01 X33.4884 Y24.7252
G01 X33.5173 Y24.8060
G01 X33.5382 Y24.8893
G01 X33.5508 Y24.9742
G01 X33.5549 Y25.0625
G00 Z2.0000
G00 X31.0149 Y25.0625
G01 F60.00
G01 Z-0.0500
G01 F120.00
G01 X31.0108 Y25.1458
G01 X30.9982 Y25.2307
G01 X30.9773 Y25.3140
G01 X30.9484 Y25.3948
G01 X30.9117 Y25.4725
G01 X30.8675 Y25.5461
G01 X30.8164 Y25.6151
G01 X30.7587 Y25.6787
G01 X30.6951 Y25.7364
G01 X30.6261 Y25.7875
G01 X30.5525 Y25.8317
G01 X30.4748 Y25.8684
G01 X30.3940 Y25.8973
G01 X30.3107 Y25.9182
G01 X30.2258 Y25.9308
G01 X30.1400 Y25.9350
G01 X30.0542 Y25.9308
G01 X29.9693 Y25.9182
G01 X29.8860 Y25.8973
G01 X29.8052 Y25.8684
G01 X29.7275 Y25.8317
G01 X29.6539 Y25.7875
G01 X29.5849 Y25.7364
G01 X29.5213 Y25.6787
G01 X29.4636 Y25.6151
G01 X29.4125 Y25.5461
G01 X29.3683 Y25.4725
G01 X29.3316 Y25.3948
G01 X29.3027 Y25.3140
G01 X29.2818 Y25.2307
G01 X29.2692 Y25.1458
G01 X29.2650 Y25.0600
G01 X29.2692 Y24.9742
G01 X29.2818 Y24.8893
G01 X29.3027 Y24.8060
G01 X29.3316 Y24.7252
G01 X29.3683 Y24.6475
G01 X29.4125 Y24.5739
G01 X29.4636 Y24.5049
G01 X29.5213 Y24.4413
G01 X29.5849 Y24.3836
G01 X29.6539 Y24.3325
G01 X29.7275 Y24.2883
G01 X29.8052 Y24.2516
G01 X29.8860 Y24.2227
G01 X29.9693 Y24.2018
G01 X30.0542 Y24.1892
G01 X30.1400 Y24.1850
G01 X30.2258 Y24.1892
G01 X30.3107 Y24.2018
G01 X30.3940 Y24.2227
G01 X30.4748 Y24.2516
G01 X30.5525 Y24.2883
G01 X30.6261 Y24.3325
G01 X30.6951 Y24.3836
G01 X30.7587 Y24.4413
G01 X30.8164 Y24.5049
G01 X30.8675 Y24.5739
G01 X30.9117 Y24.6475
G01 X30.9484 Y24.7252
G01 X30.9773 Y24.8060
G01 X30.9982 Y24.8893
G01 X31.0108 Y24.9742
G01 X31.0149 Y25.0625
G00 Z2.0000
G00 X29.9555 Y24.1326
G01 F60.00
G01 Z-0.0500
G01 F120.00
G01 X30.3245 Y24.1326
G01 X30.6653 Y24.2738
G01 X30.9262 Y24.5347
G01 X31.0674 Y24.8755
G01 X31.0674 Y25.2445
G01 X30.9262 Y25.5853
G01 X30.6653 Y25.8462
G01 X30.3245 Y25.9874
G01 X29.9555 Y25.9874
G01 X29.6147 Y25.8462
G01 X29.3538 Y25.5853
G01 X29.2126 Y25.2445
G01 X29.2126 Y24.8755
G01 X29.3538 Y24.5347
G01 X29.6147 Y24.2738
G01 X29.9555 Y24.1326
G00 Z2.0000
G00 X28.4749 Y25.0625
G01 F60.00
G01 Z-0.0500
G01 F120.00
G01 X28.4708 Y25.1458
G01 X28.4582 Y25.2307
G01 X28.4373 Y25.3140
G01 X28.4084 Y25.3948
G01 X28.3717 Y25.4725
G01 X28.3275 Y25.5461
G01 X28.2764 Y25.6151
G01 X28.2187 Y25.6787
G01 X28.1551 Y25.7364
G01 X28.0861 Y25.7875
G01 X28.0125 Y25.8317
G01 X27.9348 Y25.8684
G01 X27.8540 Y25.8973
G01 X27.7707 Y25.9182
G01 X27.6858 Y25.9308
G01 X27.6000 Y25.9350
G01 X27.5142 Y25.9308
G01 X27.4293 Y25.9182
G01 X27.3460 Y25.8973
G01 X27.2652 Y25.8684
G01 X27.1875 Y25.8317
G01 X27.1139 Y25.7875
G01 X27.0449 Y25.7364
G01 X26.9813 Y25.6787
G01 X26.9236 Y25.6151
G01 X26.8725 Y25.5461
G01 X26.8283 Y25.4725
G01 X26.7916 Y25.3948
G01 X26.7627 Y25.3140
G01 X26.7418 Y25.2307
G01 X26.7292 Y25.1458
G01 X26.7250 Y25.0600
G01 X26.7292 Y24.9742
G01 X26.7418 Y24.8893
G01 X26.7627 Y24.8060
G01 X26.7916 Y24.7252
G01 X26.8283 Y24.6475
G01 X26.8725 Y24.5739
G01 X26.9236 Y24.5049
G01 X26.9813 Y24.4413
G01 X27.0449 Y24.3836
G01 X27.1139 Y24.3325
G01 X27.1875 Y24.2883
G01 X27.2652 Y24.2516
G01 X27.3460 Y24.2227
G01 X27.4293 Y24.2018
G01 X27.5142 Y24.1892
G01 X27.6000 Y24.1850
G01 X27.6858 Y24.1892
G01 X27.7707 Y24.2018
G01 X27.8540 Y24.2227
G01 X27.9348 Y24.2516
G01 X28.0125 Y24.2883
G01 X28.0861 Y24.3325
G01 X28.1551 Y24.3836
G01 X28.2187 Y24.4413
G01 X28.2764 Y24.5049
G01 X28.3275 Y24.5739
G01 X28.3717 Y24.6475
G01 X28.4084 Y24.7252
G01 X28.4373 Y24.8060
G01 X28.4582 Y24.8893
G01 X28.4708 Y24.9742
G01 X28.4749 Y25.0625
G00 Z2.0000
G00 X27.4155 Y24.1326
G01 F60.00
G01 Z-0.0500
G01 F120.00
G01 X27.7845 Y24.1326
G01 X28.1253 Y24.2738
G01 X28.3862 Y24.5347
G01 X28.5274 Y24.8755
G01 X28.5274 Y25.2445
G01 X28.3862 Y25.5853
G01 X28.1253 Y25.8462
G01 X27.7845 Y25.9874
G01 X27.4155 Y25.9874
G01 X27.0747 Y25.8462
G01 X26.8138 Y25.5853
G01 X26.6726 Y25.2445
G01 X26.6726 Y24.8755
G01 X26.8138 Y24.5347
G01 X27.0747 Y24.2738
G01 X27.4155 Y24.1326
G00 Z2.0000
G00 X25.9349 Y25.0625
G01 F60.00
G01 Z-0.0500
G01 F120.00
G01 X25.9308 Y25.1458
G01 X25.9182 Y25.2307
G01 X25.8973 Y25.3140
G01 X25.8684 Y25.3948
G01 X25.8317 Y25.4725
G01 X25.7875 Y25.5461
G01 X25.7364 Y25.6151
G01 X25.6787 Y25.6787
G01 X25.6151 Y25.7364
G01 X25.5461 Y25.7875
G01 X25.4725 Y25.8317
G01 X25.3948 Y25.8684
G01 X25.3140 Y25.8973
G01 X25.2307 Y25.9182
G01 X25.1458 Y25.9308
G01 X25.0600 Y25.9350
G01 X24.9742 Y25.9308
G01 X24.8893 Y25.9182
G01 X24.8060 Y25.8973
G01 X24.7252 Y25.8684
G01 X24.6475 Y25.8317
G01 X24.5739 Y25.7875
G01 X24.5049 Y25.7364
G01 X24.4413 Y25.6787
G01 X24.3836 Y25.6151
G01 X24.3325 Y25.5461
G01 X24.2883 Y25.4725
G01 X24.2516 Y25.3948
G01 X24.2227 Y25.3140
G01 X24.2018 Y25.2307
G01 X24.1892 Y25.1458
G01 X24.1850 Y25.0600
G01 X24.1892 Y24.9742
G01 X24.2018 Y24.8893
G01 X24.2227 Y24.8060
G01 X24.2516 Y24.7252
G01 X24.2883 Y24.6475
G01 X24.3325 Y24.5739
G01 X24.3836 Y24.5049
G01 X24.4413 Y24.4413
G01 X24.5049 Y24.3836
G01 X24.5739 Y24.3325
G01 X24.6475 Y24.2883
G01 X24.7252 Y24.2516
G01 X24.8060 Y24.2227
G01 X24.8893 Y24.2018
G01 X24.9742 Y24.1892
G01 X25.0600 Y24.1850
G01 X25.1458 Y24.1892
G01 X25.2307 Y24.2018
G01 X25.3140 Y24.2227
G01 X25.3948 Y24.2516
G01 X25.4725 Y24.2883
G01 X25.5461 Y24.3325
G01 X25.6151 Y24.3836
G01 X25.6787 Y24.4413
G01 X25.7364 Y24.5049
G01 X25.7875 Y24.5739
G01 X25.8317 Y24.6475
G01 X25.8684 Y24.7252
G01 X25.8973 Y24.8060
G01 X25.9182 Y24.8893
G01 X25.9308 Y24.9742
G01 X25.9349 Y25.0625
G00 Z2.0000
G00 X24.8755 Y24.1326
G01 F60.00
G01 Z-0.0500
G01 F120.00
G01 X25.2445 Y24.1326
G01 X25.5853 Y24.2738
G01 X25.8462 Y24.5347
G01 X25.9874 Y24.8755
G01 X25.9874 Y25.2445
G01 X25.8462 Y25.5853
G01 X25.5853 Y25.8462
G01 X25.2445 Y25.9874
G01 X24.8755 Y25.9874
G01 X24.5347 Y25.8462
G01 X24.2738 Y25.5853
G01 X24.1326 Y25.2445
G01 X24.1326 Y24.8755
G01 X24.2738 Y24.5347
G01 X24.5347 Y24.2738
G01 X24.8755 Y24.1326
G00 Z2.0000
G00 X23.3949 Y25.0625
G01 F60.00
G01 Z-0.0500
G01 F120.00
G01 X23.3908 Y25.1458
G01 X23.3782 Y25.2307
G01 X23.3573 Y25.3140
G01 X23.3284 Y25.3948
G01 X23.2917 Y25.4725
G01 X23.2475 Y25.5461
G01 X23.1964 Y25.6151
G01 X23.1387 Y25.6787
G01 X23.0751 Y25.7364
G01 X23.0061 Y25.7875
G01 X22.9325 Y25.8317
G01 X22.8548 Y25.8684
G01 X22.7740 Y25.8973
G01 X22.6907 Y25.9182
G01 X22.6058 Y25.9308
G01 X22.5200 Y25.9350
G01 X22.4342 Y25.9308
G01 X22.3493 Y25.9182
G01 X22.2660 Y25.8973
G01 X22.1852 Y25.8684
G01 X22.1075 Y25.8317
G01 X22.0339 Y25.7875
G01 X21.9649 Y25.7364
G01 X21.9013 Y25.6787
G01 X21.8436 Y25.6151
G01 X21.7925 Y25.5461
G01 X21.7483 Y25.4725
G01 X21.7116 Y25.3948
G01 X21.6827 Y25.3140
G01 X21.6618 Y25.2307
G01 X21.6492 Y25.1458
G01 X21.6450 Y25.0600
G01 X21.6492 Y24.9742
G01 X21.6618 Y24.8893
G01 X21.6827 Y24.8060
G01 X21.7116 Y24.7252
G01 X21.7483 Y24.6475
G01 X21.7925 Y24.5739
G01 X21.8436 Y24.5049
G01 X21.9013 Y24.4413
G01 X21.9649 Y24.3836
G01 X22.0339 Y24.3325
G01 X22.1075 Y24.2883
G01 X22.1852 Y24.2516
G01 X22.2660 Y24.2227
G01 X22.3493 Y24.2018
G01 X22.4342 Y24.1892
G01 X22.5200 Y24.1850
G01 X22.6058 Y24.1892
G01 X22.6907 Y24.2018
G01 X22.7740 Y24.2227
G01 X22.8548 Y24.2516
G01 X22.9325 Y24.2883
G01 X23.0061 Y24.3325
G01 X23.0751 Y24.3836
G01 X23.1387 Y24.4413
G01 X23.1964 Y24.5049
G01 X23.2475 Y24.5739
G01 X23.2917 Y24.6475
G01 X23.3284 Y24.7252
G01 X23.3573 Y24.8060
G01 X23.3782 Y24.8893
G01 X23.3908 Y24.9742
G01 X23.3949 Y25.0625
G00 Z2.0000
G00 X22.3355 Y24.1326
G01 F60.00
G01 Z-0.0500
G01 F120.00
G01 X22.7045 Y24.1326
G01 X23.0453 Y24.2738
G01 X23.3062 Y24.5347
G01 X23.4474 Y24.8755
G01 X23.4474 Y25.2445
G01 X23.3062 Y25.5853
G01 X23.0453 Y25.8462
G01 X22.7045 Y25.9874
G01 X22.3355 Y25.9874
G01 X21.9947 Y25.8462
G01 X21.7338 Y25.5853
G01 X21.5926 Y25.2445
G01 X21.5926 Y24.8755
G01 X21.7338 Y24.5347
G01 X21.9947 Y24.2738
G01 X22.3355 Y24.1326
G00 Z2.0000
G00 X20.8549 Y25.0625
G01 F60.00
G01 Z-0.0500
G01 F120.00
G01 X20.8508 Y25.1458
G01 X20.8382 Y25.2307
G01 X20.8173 Y25.3140
G01 X20.7884 Y25.3948
G01 X20.7517 Y25.4725
G01 X20.7075 Y25.5461
G01 X20.6564 Y25.6151
G01 X20.5987 Y25.6787
G01 X20.5351 Y25.7364
G01 X20.4661 Y25.7875
G01 X20.3925 Y25.8317
G01 X20.3148 Y25.8684
G01 X20.2340 Y25.8973
G01 X20.1507 Y25.9182
G01 X20.0658 Y25.9308
G01 X19.9800 Y25.9350
G01 X19.8942 Y25.9308
G01 X19.8093 Y25.9182
G01 X19.7260 Y25.8973
G01 X19.6452 Y25.8684
G01 X19.5675 Y25.8317
G01 X19.4939 Y25.7875
G01 X19.4249 Y25.7364
G01 X19.3613 Y25.6787
G01 X19.3036 Y25.6151
G01 X19.2525 Y25.5461
G01 X19.2083 Y25.4725
G01 X19.1716 Y25.3948
G01 X19.1427 Y25.3140
G01 X19.1218 Y25.2307
G01 X19.1092 Y25.1458
G01 X19.1050 Y25.0600
G01 X19.1092 Y24.9742
G01 X19.1218 Y24.8893
G01 X19.1427 Y24.8060
G01 X19.1716 Y24.7252
G01 X19.2083 Y24.6475
G01 X19.2525 Y24.5739
G01 X19.3036 Y24.5049
G01 X19.3613 Y24.4413
G01 X19.4249 Y24.3836
G01 X19.4939 Y24.3325
G01 X19.5675 Y24.2883
G01 X19.6452 Y24.2516
G01 X19.7260 Y24.2227
G01 X19.8093 Y24.2018
G01 X19.8942 Y24.1892
G01 X19.9800 Y24.1850
G01 X20.0658 Y24.1892
G01 X20.1507 Y24.2018
G01 X20.2340 Y24.2227
G01 X20.3148 Y24.2516
G01 X20.3925 Y24.2883
G01 X20.4661 Y24.3325
G01 X20.5351 Y24.3836
G01 X20.5987 Y24.4413
G01 X20.6564 Y24.5049
G01 X20.7075 Y24.5739
G01 X20.7517 Y24.6475
G01 X20.7884 Y24.7252
G01 X20.8173 Y24.8060
G01 X20.8382 Y24.8893
G01 X20.8508 Y24.9742
G01 X20.8549 Y25.0625
G00 Z2.0000
G00 X19.7955 Y24.1326
G01 F60.00
G01 Z-0.0500
G01 F120.00
G01 X20.1645 Y24.1326
G01 X20.5053 Y24.2738
G01 X20.7662 Y24.5347
G01 X20.9074 Y24.8755
G01 X20.9074 Y25.2445
G01 X20.7662 Y25.5853
G01 X20.5053 Y25.8462
G01 X20.1645 Y25.9874
G01 X19.7955 Y25.9874
G01 X19.4547 Y25.8462
G01 X19.1938 Y25.5853
G01 X19.0526 Y25.2445
G01 X19.0526 Y24.8755
G01 X19.1938 Y24.5347
G01 X19.4547 Y24.2738
G01 X19.7955 Y24.1326
G00 Z2.0000
G00 X18.3149 Y25.0625
G01 F60.00
G01 Z-0.0500
G01 F120.00
G01 X18.3108 Y25.1458
G01 X18.2982 Y25.2307
G01 X18.2773 Y25.3140
G01 X18.2484 Y25.3948
G01 X18.2117 Y25.4725
G01 X18.1675 Y25.5461
G01 X18.1164 Y25.6151
G01 X18.0587 Y25.6787
G01 X17.9951 Y25.7364
G01 X17.9261 Y25.7875
G01 X17.8525 Y25.8317
G01 X17.7748 Y25.8684
G01 X17.6940 Y25.8973
G01 X17.6107 Y25.9182
G01 X17.5258 Y25.9308
G01 X17.4400 Y25.9350
G01 X17.3542 Y25.9308
G01 X17.2693 Y25.9182
G01 X17.1860 Y25.8973
G01 X17.1052 Y25.8684
G01 X17.0275 Y25.8317
G01 X16.9539 Y25.7875
G01 X16.8849 Y25.7364
G01 X16.8213 Y25.6787
G01 X16.7636 Y25.6151
G01 X16.7125 Y25.5461
G01 X16.6683 Y25.4725
G01 X16.6316 Y25.3948
G01 X16.6027 Y25.3140
G01 X16.5818 Y25.2307
G01 X16.5692 Y25.1458
G01 X16.5650 Y25.0600
G01 X16.5692 Y24.9742
G01 X16.5818 Y24.8893
G01 X16.6027 Y24.8060
G01 X16.6316 Y24.7252
G01 X16.6683 Y24.6475
G01 X16.7125 Y24.5739
G01 X16.7636 Y24.5049
G01 X16.8213 Y24.4413
G01 X16.8849 Y24.3836
G01 X16.9539 Y24.3325
G01 X17.0275 Y24.2883
G01 X17.1052 Y24.2516
G01 X17.1860 Y24.2227
G01 X17.2693 Y24.2018
G01 X17.3542 Y24.1892
G01 X17.4400 Y24.1850
G01 X17.5258 Y24.1892
G01 X17.6107 Y24.2018
G01 X17.6940 Y24.2227
G01 X17.7748 Y24.2516
G01 X17.8525 Y24.2883
G01 X17.9261 Y24.3325
G01 X17.9951 Y24.3836
G01 X18.0587 Y24.4413
