(G-CODE GENERATED BY FLATCAM v8.993 - www.flatcam.org - Version Date: 2020/06/05)

(Name: copper_top.gbr_0.1000_iso_cnc)
(Type: G-code from Geometry)
(Units: MM)

(Created on Thursday, 08 August 2024 at 22:14)

(This preprocessor is the default preprocessor used by FlatCAM.)
(It is made to work with MACH3 compatible motion controllers.)

(TOOL DIAMETER: 0.1 mm)
(Feedrate_XY: 120.0 mm/min)
(Feedrate_Z: 60.0 mm/min)
(Feedrate rapids 1500.0 mm/min)

(Z_Cut: -0.05 mm)
(Z_Move: 2.0 mm)
(Z Start: None mm)
(Z End: 15.0 mm)
(Steps per circle: 64)
(Preprocessor Geometry: default)

(X range:    0.9500 ...   69.0500  mm)
(Y range:    0.9500 ...   99.0500  mm)

(Spindle Speed: 1000 RPM)
G21
G90
G94



G01 F120.00
G00 Z2.0000

M03 S1000
G00 X1.0160 Y0.9660
G01 F60.00
G01 Z-0.0500
G01 F120.00
G01 X3.0160 Y0.9660
G01 X3.0258 Y0.9670
G01 X3.0351 Y0.9698
G01 X3.0438 Y0.9744
G01 X3.0487 Y0.9781
G01 X3.0522 Y0.9815
G01 X3.0576 Y0.9882
G01 X3.0622 Y0.9969
G01 X3.0650 Y1.0062
G01 X3.0660 Y1.0160
G01 X3.0660 Y3.0160
G01 X3.0650 Y3.0258
G01 X3.0622 Y3.0351
G01 X3.0576 Y3.0438
G01 X3.0547 Y3.0477
G01 X3.0505 Y3.0522
G01 X3.0427 Y3.0582
G01 X3.0340 Y3.0626
G01 X3.0258 Y3.0650
G01 X3.0160 Y3.0660
G01 X1.0160 Y3.0660
G01 X1.0062 Y3.0650
G01 X0.9969 Y3.0622
G01 X0.9882 Y3.0576
G01 X0.9843 Y3.0547
G01 X0.9798 Y3.0505
G01 X0.9738 Y3.0427
G01 X0.9698 Y3.0351
G01 X0.9670 Y3.0258
G01 X0.9660 Y3.0160
G01 X0.9660 Y1.0148
G01 X0.9672 Y1.0050
G01 X0.9703 Y0.9957
G01 X0.9751 Y0.9872
G01 X0.9806 Y0.9806
G01 X0.9882 Y0.9744
G01 X0.9969 Y0.9698
G01 X1.0062 Y0.9670
G01 X1.0160 Y0.9660
G00 Z2.0000
G00 X15.3000 Y4.8500
G01 F60.00
G01 Z-0.0500
G01 F120.00
G01 X17.3000 Y4.8500
G01 X17.3098 Y4.8510
G01 X17.3191 Y4.8538
G01 X17.3278 Y4.8584
G01 X17.3317 Y4.8613
G01 X17.3362 Y4.8655
G01 X17.3416 Y4.8722
G01 X17.3462 Y4.8809
G01 X17.3490 Y4.8902
G01 X17.3500 Y4.9000
G01 X17.3500 Y6.9000
G01 X17.3490 Y6.9098
G01 X17.3462 Y6.9191
G01 X17.3416 Y6.9278
G01 X17.3387 Y6.9317
G01 X17.3345 Y6.9362
G01 X17.3267 Y6.9422
G01 X17.3191 Y6.9462
G01 X17.3098 Y6.9490
G01 X17.3000 Y6.9500
G01 X15.3000 Y6.9500
G01 X15.2902 Y6.9490
G01 X15.2809 Y6.9462
G01 X15.2754 Y6.9435
G01 X15.2712 Y6.9409
G01 X15.2638 Y6.9345
G01 X15.2578 Y6.9267
G01 X15.2534 Y6.9180
G01 X15.2510 Y6.9098
G01 X15.2500 Y6.9000
G01 X15.2500 Y4.8988
G01 X15.2512 Y4.8890
G01 X15.2543 Y4.8797
G01 X15.2591 Y4.8712
G01 X15.2655 Y4.8638
G01 X15.2722 Y4.8584
G01 X15.2809 Y4.8538
G01 X15.2902 Y4.8510
G01 X15.3000 Y4.8500
G00 Z2.0000
G00 X19.8899 Y5.9025
G01 F60.00
G01 Z-0.0500
G01 F120.00
G01 X19.8849 Y6.0029
G01 X19.8698 Y6.1048
G01 X19.8448 Y6.2048
G01 X19.8101 Y6.3018
G01 X19.7660 Y6.3950
G01 X19.7130 Y6.4833
G01 X19.6517 Y6.5661
G01 X19.5825 Y6.6425
G01 X19.5061 Y6.7117
G01 X19.4233 Y6.7730
G01 X19.3350 Y6.8260
G01 X19.2418 Y6.8701
G01 X19.1448 Y6.9048
G01 X19.0448 Y6.9298
G01 X18.9429 Y6.9449
G01 X18.8400 Y6.9500
G01 X18.7371 Y6.9449
G01 X18.6352 Y6.9298
G01 X18.5352 Y6.9048
G01 X18.4382 Y6.8701
G01 X18.3450 Y6.8260
G01 X18.2567 Y6.7730
G01 X18.1739 Y6.7117
G01 X18.0975 Y6.6425
G01 X18.0283 Y6.5661
G01 X17.9670 Y6.4833
G01 X17.9140 Y6.3950
G01 X17.8699 Y6.3018
G01 X17.8352 Y6.2048
G01 X17.8102 Y6.1048
G01 X17.7951 Y6.0029
G01 X17.7900 Y5.9000
G01 X17.7951 Y5.7971
G01 X17.8102 Y5.6952
G01 X17.8352 Y5.5952
G01 X17.8699 Y5.4982
G01 X17.9140 Y5.4050
G01 X17.9670 Y5.3167
G01 X18.0283 Y5.2339
G01 X18.0975 Y5.1575
G01 X18.1739 Y5.0883
G01 X18.2567 Y5.0270
G01 X18.3450 Y4.9740
G01 X18.4382 Y4.9299
G01 X18.5352 Y4.8952
G01 X18.6352 Y4.8702
G01 X18.7371 Y4.8551
G01 X18.8400 Y4.8500
G01 X18.9429 Y4.8551
G01 X19.0448 Y4.8702
G01 X19.1448 Y4.8952
G01 X19.2418 Y4.9299
G01 X19.3350 Y4.9740
G01 X19.4233 Y5.0270
G01 X19.5061 Y5.0883
G01 X19.5825 Y5.1575
G01 X19.6517 Y5.2339
G01 X19.7130 Y5.3167
G01 X19.7660 Y5.4050
G01 X19.8101 Y5.4982
G01 X19.8448 Y5.5952
G01 X19.8698 Y5.6952
G01 X19.8849 Y5.7971
G01 X19.8899 Y5.9025
G00 Z2.0000
G00 X22.2307 Y6.5136
G01 F60.00
G01 Z-0.0500
G01 F120.00
G01 X22.1917 Y6.5661
G01 X22.1216 Y6.6433
G01 X22.0461 Y6.7117
G01 X21.9623 Y6.7737
G01 X21.8750 Y6.8260
G01 X21.7818 Y6.8701
G01 X21.6848 Y6.9048
G01 X21.5836 Y6.9300
G01 X21.4829 Y6.9449
G01 X21.3800 Y6.9500
G01 X21.2771 Y6.9449
G01 X21.1752 Y6.9298
G01 X21.0752 Y6.9048
G01 X20.9782 Y6.8701
G01 X20.8850 Y6.8260
G01 X20.7956 Y6.7723
G01 X20.7139 Y6.7117
G01 X20.6375 Y6.6425
G01 X20.5683 Y6.5661
G01 X20.5070 Y6.4833
G01 X20.4540 Y6.3950
G01 X20.4099 Y6.3018
G01 X20.3752 Y6.2048
G01 X20.3502 Y6.1048
G01 X20.3351 Y6.0029
G01 X20.3300 Y5.9000
G01 X20.3351 Y5.7971
G01 X20.3502 Y5.6952
G01 X20.3752 Y5.5952
G01 X20.4099 Y5.4982
G01 X20.4540 Y5.4050
G01 X20.5077 Y5.3156
G01 X20.5683 Y5.2339
G01 X20.6375 Y5.1575
G01 X20.7139 Y5.0883
G01 X20.7967 Y5.0270
G01 X20.8850 Y4.9740
G01 X20.9782 Y4.9299
G01 X21.0752 Y4.8952
G01 X21.1752 Y4.8702
G01 X21.2771 Y4.8551
G01 X21.3800 Y4.8500
G01 X21.4829 Y4.8551
G01 X21.5848 Y4.8702
G01 X21.6848 Y4.8952
G01 X21.7818 Y4.9299
G01 X21.8750 Y4.9740
G01 X21.9613 Y5.0256
G01 X22.0480 Y5.0899
G01 X22.1225 Y5.1575
G01 X22.1917 Y5.2339
G01 X22.2544 Y5.3187
G01 X22.3060 Y5.4050
G01 X22.3501 Y5.4982
G01 X22.3854 Y5.5976
G01 X22.4098 Y5.6952
G01 X22.4249 Y5.7971
G01 X22.4300 Y5.9000
G01 X22.4251 Y6.0005
G01 X22.4100 Y6.1036
G01 X22.4055 Y6.1225
G01 X23.3329 Y7.0499
G01 X24.9171 Y7.0499
G01 X25.5482 Y6.4188
G01 X25.5334 Y6.3939
G01 X25.4904 Y6.3029
G01 X25.4549 Y6.2036
G01 X25.4298 Y6.1024
G01 X25.4151 Y6.0029
G01 X25.4100 Y5.9012
G01 X25.4154 Y5.7946
G01 X25.4302 Y5.6952
G01 X25.4546 Y5.5976
G01 X25.4899 Y5.4982
G01 X25.5346 Y5.4040
G01 X25.5870 Y5.3167
G01 X25.6483 Y5.2339
G01 X25.7175 Y5.1575
G01 X25.7939 Y5.0883
G01 X25.8767 Y5.0270
G01 X25.9650 Y4.9740
G01 X26.0582 Y4.9299
G01 X26.1552 Y4.8952
G01 X26.2552 Y4.8702
G01 X26.3595 Y4.8549
G01 X26.4625 Y4.8501
G01 X26.5629 Y4.8551
G01 X26.6624 Y4.8698
G01 X26.7648 Y4.8952
G01 X26.8618 Y4.9299
G01 X26.9550 Y4.9740
G01 X27.0433 Y5.0270
G01 X27.1261 Y5.0883
G01 X27.2025 Y5.1575
G01 X27.2717 Y5.2339
G01 X27.3344 Y5.3187
G01 X27.3871 Y5.4072
G01 X27.4301 Y5.4982
G01 X27.4640 Y5.5929
G01 X27.4898 Y5.6952
G01 X27.5046 Y5.7946
G01 X27.5100 Y5.9000
G01 X27.5046 Y6.0054
G01 X27.4898 Y6.1048
G01 X27.4654 Y6.2024
G01 X27.4291 Y6.3041
G01 X27.3860 Y6.3950
G01 X27.3344 Y6.4813
G01 X27.2717 Y6.5661
G01 X27.2025 Y6.6425
G01 X27.1280 Y6.7101
G01 X27.0433 Y6.7730
G01 X26.9550 Y6.8260
G01 X26.8641 Y6.8691
G01 X26.7648 Y6.9048
G01 X26.6648 Y6.9298
G01 X26.5654 Y6.9446
G01 X26.4575 Y6.9499
G01 X26.3571 Y6.9449
G01 X26.2576 Y6.9302
G01 X26.1529 Y6.9040
G01 X26.0582 Y6.8701
G01 X25.9650 Y6.8260
G01 X25.8767 Y6.7730
G01 X25.8096 Y6.7234
G01 X25.1397 Y7.3932
G01 X25.1269 Y7.4047
G01 X25.1132 Y7.4149
G01 X25.0921 Y7.4276
G01 X25.0766 Y7.4348
G01 X25.0581 Y7.4415
G01 X25.0390 Y7.4462
G01 X25.0220 Y7.4488
G01 X25.0000 Y7.4501
G01 X23.2500 Y7.4501
G01 X23.2304 Y7.4491
G01 X23.2134 Y7.4467
G01 X23.1908 Y7.4411
G01 X23.1734 Y7.4348
G01 X23.1536 Y7.4252
G01 X23.1388 Y7.4164
G01 X23.1250 Y7.4062
G01 X23.1094 Y7.3923
G01 X22.2307 Y6.5136
G00 Z2.0000
G00 X24.6762 Y6.8100
G01 F60.00
G01 Z-0.0500
G01 F120.00
G01 X24.6834 Y6.7793
G01 X24.6864 Y6.7710
G01 X24.6900 Y6.7644
G01 X24.7092 Y6.7373
G01 X24.8949 Y6.5514
G01 X25.0739 Y6.1194
G01 X25.0782 Y6.1117
G01 X25.0982 Y6.0825
G01 X25.1034 Y6.0771
G01 X25.1083 Y6.0733
G01 X25.1358 Y6.0554
G01 X25.1424 Y6.0520
G01 X25.1471 Y6.0503
G01 X25.1531 Y6.0488
G01 X25.1841 Y6.0432
G01 X25.1912 Y6.0426
G01 X25.1959 Y6.0428
G01 X25.2018 Y6.0436
G01 X25.2338 Y6.0510
G01 X25.2409 Y6.0533
G01 X25.2496 Y6.0581
G01 X25.2782 Y6.0788
G01 X25.2836 Y6.0842
G01 X25.2875 Y6.0892
G01 X25.3032 Y6.1139
G01 X25.3061 Y6.1194
G01 X25.3911 Y6.3245
G01 X25.3937 Y6.3328
G01 X25.4000 Y6.3651
G01 X25.4007 Y6.3738
G01 X25.3999 Y6.3825
G01 X25.3933 Y6.4135
G01 X25.3909 Y6.4216
G01 X25.3877 Y6.4281
G01 X25.3669 Y6.4586
G01 X24.9127 Y6.9131
G01 X24.9060 Y6.9187
G01 X24.8797 Y6.9361
G01 X24.8744 Y6.9391
G01 X24.8688 Y6.9415
G01 X24.8641 Y6.9429
G01 X24.8307 Y6.9495
G01 X24.8247 Y6.9500
G01 X24.7998 Y6.9500
G01 X24.7923 Y6.9492
G01 X24.7589 Y6.9424
G01 X24.7518 Y6.9400
G01 X24.7440 Y6.9359
G01 X24.7169 Y6.9173
G01 X24.7104 Y6.9116
G01 X24.7049 Y6.9049
G01 X24.6860 Y6.8753
G01 X24.6830 Y6.8688
G01 X24.6810 Y6.8619
G01 X24.6754 Y6.8284
G01 X24.6749 Y6.8198
G01 X24.6762 Y6.8100
G00 Z2.0000
G00 X24.7323 Y5.2347
G01 F60.00
G01 Z-0.0500
G01 F120.00
G01 X25.6094 Y4.3577
G01 X25.6250 Y4.3438
G01 X25.6388 Y4.3336
G01 X25.6536 Y4.3248
G01 X25.6734 Y4.3152
G01 X25.6919 Y4.3085
G01 X25.7110 Y4.3038
G01 X25.7280 Y4.3012
G01 X25.7500 Y4.2999
G01 X27.7500 Y4.2999
G01 X27.7696 Y4.3009
G01 X27.7878 Y4.3035
G01 X27.8104 Y4.3093
G01 X27.8266 Y4.3152
G01 X27.8443 Y4.3235
G01 X27.8632 Y4.3351
G01 X27.8769 Y4.3453
G01 X27.8906 Y4.3577
G01 X28.5063 Y4.9733
G01 X28.5982 Y4.9299
G01 X28.6929 Y4.8960
G01 X28.7952 Y4.8702
G01 X28.8971 Y4.8551
G01 X28.9975 Y4.8501
G01 X29.1029 Y4.8551
G01 X29.2072 Y4.8707
G01 X29.3048 Y4.8952
G01 X29.4018 Y4.9299
G01 X29.4971 Y4.9752
G01 X29.5833 Y5.0270
G01 X29.6661 Y5.0883
G01 X29.7442 Y5.1593
G01 X29.8117 Y5.2339
G01 X29.8716 Y5.3146
G01 X29.9260 Y5.4050
G01 X29.9710 Y5.5005
G01 X30.0048 Y5.5952
G01 X30.0293 Y5.6928
G01 X30.0449 Y5.7971
G01 X30.0499 Y5.9025
G01 X30.0449 Y6.0029
G01 X30.0300 Y6.1036
G01 X30.0048 Y6.2048
G01 X29.9701 Y6.3018
G01 X29.9260 Y6.3950
G01 X29.8716 Y6.4854
G01 X29.8101 Y6.5680
G01 X29.7425 Y6.6425
G01 X29.6680 Y6.7101
G01 X29.5833 Y6.7730
G01 X29.4971 Y6.8248
G01 X29.4018 Y6.8701
G01 X29.3048 Y6.9048
G01 X29.2048 Y6.9298
G01 X29.1029 Y6.9449
G01 X29.0000 Y6.9500
G01 X28.8971 Y6.9449
G01 X28.7952 Y6.9298
G01 X28.6940 Y6.9044
G01 X28.5982 Y6.8701
G01 X28.5050 Y6.8260
G01 X28.4167 Y6.7730
G01 X28.3320 Y6.7101
G01 X28.2575 Y6.6425
G01 X28.1868 Y6.5642
G01 X28.1256 Y6.4813
G01 X28.0740 Y6.3950
G01 X28.0309 Y6.3041
G01 X27.9946 Y6.2024
G01 X27.9702 Y6.1048
G01 X27.9551 Y6.0029
G01 X27.9501 Y5.8975
G01 X27.9551 Y5.7971
G01 X27.9698 Y5.6976
G01 X27.9960 Y5.5929
G01 X28.0299 Y5.4982
G01 X28.0729 Y5.4072
G01 X28.1270 Y5.3167
G01 X28.1868 Y5.2358
G01 X28.1943 Y5.2272
G01 X27.6671 Y4.7001
G01 X25.8329 Y4.7001
G01 X24.9274 Y5.6055
G01 X24.9498 Y5.6952
G01 X24.9649 Y5.7971
G01 X24.9700 Y5.9000
G01 X24.9651 Y6.0005
G01 X24.9493 Y6.1072
G01 X24.9248 Y6.2048
G01 X24.8910 Y6.2995
G01 X24.8448 Y6.3971
G01 X24.7930 Y6.4833
G01 X24.7317 Y6.5661
G01 X24.6625 Y6.6425
G01 X24.5880 Y6.7101
G01 X24.5033 Y6.7730
G01 X24.4150 Y6.8260
G01 X24.3218 Y6.8701
G01 X24.2248 Y6.9048
G01 X24.1272 Y6.9293
G01 X24.0229 Y6.9449
G01 X23.9225 Y6.9499
G01 X23.8146 Y6.9446
G01 X23.7152 Y6.9298
G01 X23.6152 Y6.9048
G01 X23.5182 Y6.8701
G01 X23.4250 Y6.8260
G01 X23.3367 Y6.7730
G01 X23.2539 Y6.7117
G01 X23.1775 Y6.6425
G01 X23.1083 Y6.5661
G01 X23.0470 Y6.4833
G01 X22.9940 Y6.3950
G01 X22.9499 Y6.3018
G01 X22.9152 Y6.2048
G01 X22.8902 Y6.1048
G01 X22.8751 Y6.0029
G01 X22.8700 Y5.9000
G01 X22.8751 Y5.7971
G01 X22.8902 Y5.6952
G01 X22.9152 Y5.5952
G01 X22.9499 Y5.4982
G01 X22.9940 Y5.4050
G01 X23.0470 Y5.3167
G01 X23.1083 Y5.2339
G01 X23.1775 Y5.1575
G01 X23.2539 Y5.0883
G01 X23.3367 Y5.0270
G01 X23.4250 Y4.9740
G01 X23.5182 Y4.9299
G01 X23.6152 Y4.8952
G01 X23.7152 Y4.8702
G01 X23.8171 Y4.8551
G01 X23.9200 Y4.8500
G01 X24.0229 Y4.8551
G01 X24.1248 Y4.8702
G01 X24.2248 Y4.8952
G01 X24.3218 Y4.9299
G01 X24.4150 Y4.9740
G01 X24.5033 Y5.0270
G01 X24.5861 Y5.0883
G01 X24.6625 Y5.1575
G01 X24.7323 Y5.2347
G00 Z2.0000
G00 X27.1660 Y4.9143
G01 F60.00
G01 Z-0.0500
G01 F120.00
G01 X27.1727 Y4.8835
G01 X27.1756 Y4.8752
G01 X27.1798 Y4.8675
G01 X27.1996 Y4.8397
G01 X27.2056 Y4.8333
G01 X27.2127 Y4.8280
G01 X27.2406 Y4.8109
G01 X27.2475 Y4.8078
G01 X27.2535 Y4.8060
G01 X27.2835 Y4.8006
G01 X27.2897 Y4.8000
G01 X27.5735 Y4.8000
G01 X27.5822 Y4.8008
G01 X27.6179 Y4.8082
G01 X27.6248 Y4.8109
G01 X27.6302 Y4.8139
G01 X27.6563 Y4.8316
G01 X27.6618 Y4.8361
G01 X27.9832 Y5.1578
G01 X28.0043 Y5.1893
G01 X28.0077 Y5.1961
G01 X28.0102 Y5.2045
G01 X28.0162 Y5.2367
G01 X28.0168 Y5.2452
G01 X28.0160 Y5.2536
G01 X28.0088 Y5.2872
G01 X27.8461 Y5.6806
G01 X27.8426 Y5.6871
G01 X27.8243 Y5.7143
G01 X27.8198 Y5.7199
G01 X27.8145 Y5.7247
G01 X27.7841 Y5.7446
G01 X27.7752 Y5.7489
G01 X27.7681 Y5.7510
G01 X27.7359 Y5.7568
G01 X27.7312 Y5.7573
G01 X27.7253 Y5.7573
G01 X27.7182 Y5.7564
G01 X27.6874 Y5.7493
G01 X27.6826 Y5.7480
G01 X27.6769 Y5.7456
G01 X27.6704 Y5.7419
G01 X27.6438 Y5.7227
G01 X27.6390 Y5.7186
G01 X27.6348 Y5.7139
G01 X27.6174 Y5.6872
G01 X27.6139 Y5.6806
G01 X27.4349 Y5.2486
G01 X27.2017 Y5.0155
G01 X27.1984 Y5.0117
G01 X27.1780 Y4.9813
G01 X27.1750 Y4.9758
G01 X27.1728 Y4.9701
G01 X27.1713 Y4.9640
G01 X27.1651 Y4.9305
G01 X27.1649 Y4.9217
G01 X27.1660 Y4.9143
G00 Z2.0000
G00 X32.5899 Y5.9025
G01 F60.00
G01 Z-0.0500
G01 F120.00
G01 X32.5849 Y6.0029
G01 X32.5698 Y6.1048
G01 X32.5448 Y6.2048
G01 X32.5101 Y6.3018
G01 X32.4660 Y6.3950
G01 X32.4130 Y6.4833
G01 X32.3517 Y6.5661
G01 X32.2825 Y6.6425
G01 X32.2061 Y6.7117
G01 X32.1233 Y6.7730
G01 X32.0350 Y6.8260
G01 X31.9418 Y6.8701
G01 X31.8448 Y6.9048
G01 X31.7448 Y6.9298
G01 X31.6429 Y6.9449
G01 X31.5400 Y6.9500
G01 X31.4371 Y6.9449
G01 X31.3352 Y6.9298
G01 X31.2352 Y6.9048
G01 X31.1382 Y6.8701
G01 X31.0450 Y6.8260
G01 X30.9567 Y6.7730
G01 X30.8739 Y6.7117
G01 X30.7975 Y6.6425
G01 X30.7283 Y6.5661
G01 X30.6670 Y6.4833
G01 X30.6140 Y6.3950
G01 X30.5699 Y6.3018
G01 X30.5352 Y6.2048
G01 X30.5102 Y6.1048
G01 X30.4951 Y6.0029
G01 X30.4900 Y5.9000
G01 X30.4951 Y5.7971
G01 X30.5102 Y5.6952
G01 X30.5352 Y5.5952
G01 X30.5699 Y5.4982
G01 X30.6140 Y5.4050
G01 X30.6670 Y5.3167
G01 X30.7283 Y5.2339
G01 X30.7975 Y5.1575
G01 X30.8739 Y5.0883
G01 X30.9567 Y5.0270
G01 X31.0450 Y4.9740
G01 X31.1382 Y4.9299
G01 X31.2352 Y4.8952
G01 X31.3352 Y4.8702
G01 X31.4371 Y4.8551
G01 X31.5400 Y4.8500
G01 X31.6429 Y4.8551
G01 X31.7448 Y4.8702
G01 X31.8448 Y4.8952
G01 X31.9418 Y4.9299
G01 X32.0350 Y4.9740
G01 X32.1233 Y5.0270
G01 X32.2061 Y5.0883
G01 X32.2825 Y5.1575
G01 X32.3517 Y5.2339
G01 X32.4130 Y5.3167
G01 X32.4660 Y5.4050
G01 X32.5101 Y5.4982
G01 X32.5448 Y5.5952
G01 X32.5698 Y5.6952
G01 X32.5849 Y5.7971
G01 X32.5899 Y5.9025
G00 Z2.0000
G00 X37.6699 Y5.9025
G01 F60.00
G01 Z-0.0500
G01 F120.00
G01 X37.6649 Y6.0029
G01 X37.6498 Y6.1048
G01 X37.6248 Y6.2048
G01 X37.5901 Y6.3018
G01 X37.5460 Y6.3950
G01 X37.4930 Y6.4833
G01 X37.4317 Y6.5661
G01 X37.3625 Y6.6425
G01 X37.2861 Y6.7117
G01 X37.2033 Y6.7730
G01 X37.1150 Y6.8260
G01 X37.0218 Y6.8701
G01 X36.9248 Y6.9048
G01 X36.8248 Y6.9298
G01 X36.7229 Y6.9449
G01 X36.6200 Y6.9500
G01 X36.5171 Y6.9449
G01 X36.4152 Y6.9298
G01 X36.3152 Y6.9048
G01 X36.2182 Y6.8701
G01 X36.1250 Y6.8260
G01 X36.0367 Y6.7730
G01 X35.9539 Y6.7117
G01 X35.8775 Y6.6425
G01 X35.8083 Y6.5661
G01 X35.7470 Y6.4833
G01 X35.6940 Y6.3950
G01 X35.6499 Y6.3018
G01 X35.6152 Y6.2048
G01 X35.5902 Y6.1048
G01 X35.5751 Y6.0029
G01 X35.5700 Y5.9000
G01 X35.5751 Y5.7971
G01 X35.5902 Y5.6952
G01 X35.6152 Y5.5952
G01 X35.6499 Y5.4982
G01 X35.6940 Y5.4050
G01 X35.7470 Y5.3167
G01 X35.8083 Y5.2339
G01 X35.8775 Y5.1575
G01 X35.9539 Y5.0883
G01 X36.0367 Y5.0270
G01 X36.1250 Y4.9740
G01 X36.2182 Y4.9299
G01 X36.3152 Y4.8952
G01 X36.4152 Y4.8702
G01 X36.5171 Y4.8551
G01 X36.6200 Y4.8500
G01 X36.7229 Y4.8551
G01 X36.8248 Y4.8702
G01 X36.9248 Y4.8952
G01 X37.0218 Y4.9299
G01 X37.1150 Y4.9740
G01 X37.2033 Y5.0270
G01 X37.2861 Y5.0883
G01 X37.3625 Y5.1575
G01 X37.4317 Y5.2339
G01 X37.4930 Y5.3167
G01 X37.5460 Y5.4050
G01 X37.5901 Y5.4982
G01 X37.6248 Y5.5952
G01 X37.6498 Y5.6952
G01 X37.6649 Y5.7971
G01 X37.6699 Y5.9025
G00 Z2.0000
G00 X40.2099 Y5.9025
G01 F60.00
G01 Z-0.0500
G01 F120.00
G01 X40.2049 Y6.0029
G01 X40.1898 Y6.1048
G01 X40.1648 Y6.2048
G01 X40.1301 Y6.3018
G01 X40.0860 Y6.3950
G01 X40.0330 Y6.4833
G01 X39.9717 Y6.5661
G01 X39.9025 Y6.6425
G01 X39.8261 Y6.7117
G01 X39.7433 Y6.7730
G01 X39.6550 Y6.8260
G01 X39.5618 Y6.8701
G01 X39.4648 Y6.9048
G01 X39.3648 Y6.9298
G01 X39.2629 Y6.9449
G01 X39.1600 Y6.9500
G01 X39.0571 Y6.9449
G01 X38.9552 Y6.9298
G01 X38.8552 Y6.9048
G01 X38.7582 Y6.8701
G01 X38.6650 Y6.8260
G01 X38.5767 Y6.7730
G01 X38.4939 Y6.7117
G01 X38.4175 Y6.6425
G01 X38.3483 Y6.5661
G01 X38.2870 Y6.4833
G01 X38.2340 Y6.3950
G01 X38.1899 Y6.3018
G01 X38.1552 Y6.2048
G01 X38.1302 Y6.1048
G01 X38.1151 Y6.0029
G01 X38.1100 Y5.9000
G01 X38.1151 Y5.7971
G01 X38.1302 Y5.6952
G01 X38.1552 Y5.5952
G01 X38.1899 Y5.4982
G01 X38.2340 Y5.4050
G01 X38.2870 Y5.3167
G01 X38.3483 Y5.2339
G01 X38.4175 Y5.1575
G01 X38.4939 Y5.0883
G01 X38.5767 Y5.0270
G01 X38.6650 Y4.9740
G01 X38.7582 Y4.9299
G01 X38.8552 Y4.8952
G01 X38.9552 Y4.8702
G01 X39.0571 Y4.8551
G01 X39.1600 Y4.8500
G01 X39.2629 Y4.8551
G01 X39.3648 Y4.8702
G01 X39.4648 Y4.8952
G01 X39.5618 Y4.9299
G01 X39.6550 Y4.9740
G01 X39.7433 Y5.0270
G01 X39.8261 Y5.0883
G01 X39.9025 Y5.1575
G01 X39.9717 Y5.2339
G01 X40.0330 Y5.3167
G01 X40.0860 Y5.4050
G01 X40.1301 Y5.4982
G01 X40.1648 Y5.5952
G01 X40.1898 Y5.6952
G01 X40.2049 Y5.7971
G01 X40.2099 Y5.9025
G00 Z2.0000
G00 X42.7499 Y5.9025
G01 F60.00
G01 Z-0.0500
G01 F120.00
G01 X42.7449 Y6.0029
G01 X42.7298 Y6.1048
G01 X42.7048 Y6.2048
G01 X42.6701 Y6.3018
G01 X42.6260 Y6.3950
G01 X42.5730 Y6.4833
G01 X42.5117 Y6.5661
G01 X42.4425 Y6.6425
G01 X42.3661 Y6.7117
G01 X42.2833 Y6.7730
G01 X42.1950 Y6.8260
G01 X42.1018 Y6.8701
G01 X42.0048 Y6.9048
G01 X41.9048 Y6.9298
G01 X41.8029 Y6.9449
G01 X41.7000 Y6.9500
G01 X41.5971 Y6.9449
G01 X41.4952 Y6.9298
G01 X41.3952 Y6.9048
G01 X41.2982 Y6.8701
G01 X41.2050 Y6.8260
G01 X41.1167 Y6.7730
G01 X41.0339 Y6.7117
G01 X40.9575 Y6.6425
G01 X40.8883 Y6.5661
G01 X40.8270 Y6.4833
G01 X40.7740 Y6.3950
G01 X40.7299 Y6.3018
G01 X40.6952 Y6.2048
G01 X40.6702 Y6.1048
G01 X40.6551 Y6.0029
G01 X40.6500 Y5.9000
G01 X40.6551 Y5.7971
G01 X40.6702 Y5.6952
G01 X40.6952 Y5.5952
G01 X40.7299 Y5.4982
G01 X40.7740 Y5.4050
G01 X40.8270 Y5.3167
G01 X40.8883 Y5.2339
G01 X40.9575 Y5.1575
G01 X41.0339 Y5.0883
G01 X41.1167 Y5.0270
G01 X41.2050 Y4.9740
G01 X41.2982 Y4.9299
G01 X41.3952 Y4.8952
G01 X41.4952 Y4.8702
G01 X41.5971 Y4.8551
G01 X41.7000 Y4.8500
G01 X41.8029 Y4.8551
G01 X41.9048 Y4.8702
G01 X42.0048 Y4.8952
G01 X42.1018 Y4.9299
G01 X42.1950 Y4.9740
G01 X42.2833 Y5.0270
G01 X42.3661 Y5.0883
G01 X42.4425 Y5.1575
G01 X42.5117 Y5.2339
G01 X42.5730 Y5.3167
G01 X42.6260 Y5.4050
G01 X42.6701 Y5.4982
G01 X42.7048 Y5.5952
G01 X42.7298 Y5.6952
G01 X42.7449 Y5.7971
G01 X42.7499 Y5.9025
G00 Z2.0000
G00 X44.4501 Y6.9286
G01 F60.00
G01 Z-0.0500
G01 F120.00
G01 X44.4501 Y15.7778
G01 X44.4689 Y15.7827
G01 X44.5381 Y15.8076
G01 X44.6035 Y15.8386
G01 X44.6667 Y15.8764
G01 X44.7258 Y15.9202
G01 X44.7786 Y15.9680
G01 X44.8313 Y16.0261
G01 X44.8736 Y16.0833
G01 X44.9114 Y16.1465
G01 X44.9429 Y16.2130
G01 X44.9669 Y16.2800
G01 X44.9860 Y16.3561
G01 X44.9964 Y16.4265
G01 X45.0000 Y16.5012
G01 X44.9964 Y16.5735
G01 X44.9856 Y16.6463
G01 X44.9677 Y16.7177
G01 X44.9429 Y16.7870
G01 X44.9114 Y16.8535
G01 X44.8736 Y16.9167
G01 X44.8298 Y16.9758
G01 X44.7803 Y17.0303
G01 X44.7258 Y17.0798
G01 X44.6667 Y17.1236
G01 X44.6035 Y17.1614
G01 X44.5370 Y17.1929
G01 X44.4677 Y17.2177
G01 X44.3963 Y17.2356
G01 X44.3235 Y17.2464
G01 X44.2488 Y17.2500
G01 X44.1765 Y17.2464
G01 X44.1037 Y17.2356
G01 X44.0323 Y17.2177
G01 X43.9630 Y17.1929
G01 X43.8965 Y17.1614
G01 X43.8333 Y17.1236
G01 X43.7742 Y17.0798
G01 X43.7197 Y17.0303
G01 X43.6702 Y16.9758
G01 X43.6264 Y16.9167
G01 X43.5886 Y16.8535
G01 X43.5571 Y16.7870
G01 X43.5323 Y16.7177
G01 X43.5144 Y16.6463
G01 X43.5036 Y16.5735
G01 X43.5000 Y16.5012
G01 X43.5036 Y16.4265
G01 X43.5140 Y16.3561
G01 X43.5331 Y16.2800
G01 X43.5571 Y16.2130
G01 X43.5886 Y16.1465
G01 X43.6264 Y16.0833
G01 X43.6687 Y16.0261
G01 X43.7214 Y15.9680
G01 X43.7742 Y15.9202
G01 X43.8333 Y15.8764
G01 X43.8965 Y15.8386
G01 X43.9619 Y15.8076
G01 X44.0311 Y15.7827
G01 X44.0499 Y15.7778
G01 X44.0499 Y6.9321
G01 X44.0328 Y6.9293
G01 X43.9329 Y6.9040
G01 X43.8382 Y6.8701
G01 X43.7429 Y6.8248
G01 X43.6567 Y6.7730
G01 X43.5739 Y6.7117
G01 X43.4975 Y6.6425
G01 X43.4283 Y6.5661
G01 X43.3670 Y6.4833
G01 X43.3152 Y6.3971
G01 X43.2690 Y6.2995
G01 X43.2352 Y6.2048
G01 X43.2102 Y6.1048
G01 X43.1951 Y6.0029
G01 X43.1900 Y5.9012
G01 X43.1951 Y5.7971
G01 X43.2098 Y5.6976
G01 X43.2360 Y5.5929
G01 X43.2699 Y5.4982
G01 X43.3140 Y5.4050
G01 X43.3670 Y5.3167
G01 X43.4283 Y5.2339
G01 X43.4975 Y5.1575
G01 X43.5720 Y5.0899
G01 X43.6587 Y5.0256
G01 X43.7450 Y4.9740
G01 X43.8382 Y4.9299
G01 X43.9352 Y4.8952
G01 X44.0352 Y4.8702
G01 X44.1371 Y4.8551
G01 X44.2400 Y4.8500
G01 X44.3429 Y4.8551
G01 X44.4448 Y4.8702
G01 X44.5448 Y4.8952
G01 X44.6418 Y4.9299
G01 X44.7350 Y4.9740
G01 X44.8233 Y5.0270
G01 X44.9061 Y5.0883
G01 X44.9825 Y5.1575
G01 X45.0517 Y5.2339
G01 X45.1130 Y5.3167
G01 X45.1660 Y5.4050
G01 X45.2101 Y5.4982
G01 X45.2448 Y5.5952
G01 X45.2698 Y5.6952
G01 X45.2849 Y5.7971
G01 X45.2900 Y5.9000
G01 X45.2849 Y6.0029
G01 X45.2698 Y6.1048
G01 X45.2448 Y6.2048
G01 X45.2101 Y6.3018
G01 X45.1660 Y6.3950
G01 X45.1130 Y6.4833
G01 X45.0517 Y6.5661
G01 X44.9825 Y6.6425
G01 X44.9061 Y6.7117
G01 X44.8233 Y6.7730
G01 X44.7350 Y6.8260
G01 X44.6418 Y6.8701
G01 X44.5448 Y6.9048
G01 X44.4501 Y6.9286
G00 Z2.0000
G00 X47.6708 Y6.4538
G01 F60.00
G01 Z-0.0500
G01 F120.00
G01 X47.6523 Y6.4844
G01 X47.5924 Y6.5652
G01 X47.5233 Y6.6416
G01 X47.4461 Y6.7117
G01 X47.3644 Y6.7723
G01 X47.2750 Y6.8260
G01 X47.1818 Y6.8701
G01 X47.0848 Y6.9048
G01 X46.9860 Y6.9296
G01 X46.8829 Y6.9449
G01 X46.7800 Y6.9500
G01 X46.6771 Y6.9449
G01 X46.5752 Y6.9298
G01 X46.4752 Y6.9048
G01 X46.3782 Y6.8701
G01 X46.2850 Y6.8260
G01 X46.1977 Y6.7737
G01 X46.1139 Y6.7117
G01 X46.0375 Y6.6425
G01 X45.9683 Y6.5661
G01 X45.9070 Y6.4833
G01 X45.8540 Y6.3950
G01 X45.8099 Y6.3018
G01 X45.7752 Y6.2048
G01 X45.7502 Y6.1048
G01 X45.7351 Y6.0029
G01 X45.7300 Y5.9000
G01 X45.7351 Y5.7971
G01 X45.7502 Y5.6952
G01 X45.7752 Y5.5952
G01 X45.8099 Y5.4982
G01 X45.8540 Y5.4050
G01 X45.9063 Y5.3177
G01 X45.9683 Y5.2339
G01 X46.0375 Y5.1575
G01 X46.1139 Y5.0883
G01 X46.1967 Y5.0270
G01 X46.2850 Y4.9740
G01 X46.3782 Y4.9299
G01 X46.4752 Y4.8952
G01 X46.5752 Y4.8702
G01 X46.6771 Y4.8551
G01 X46.7800 Y4.8500
G01 X46.8829 Y4.8551
G01 X46.9848 Y4.8702
G01 X47.0848 Y4.8952
G01 X47.1818 Y4.9299
G01 X47.2750 Y4.9740
G01 X47.3613 Y5.0256
G01 X47.4480 Y5.0899
G01 X47.5225 Y5.1575
G01 X47.5917 Y5.2339
G01 X47.6544 Y5.3187
G01 X47.7060 Y5.4050
G01 X47.7496 Y5.4971
G01 X47.7854 Y5.5976
G01 X47.8098 Y5.6952
G01 X47.8248 Y5.7959
G01 X47.8300 Y5.9012
G01 X47.8250 Y6.0017
G01 X47.8199 Y6.0370
G01 X50.5829 Y8.7999
G01 X52.2500 Y8.7999
G01 X52.2696 Y8.8009
G01 X52.2890 Y8.8038
G01 X52.3081 Y8.8085
G01 X52.3254 Y8.8147
G01 X52.3443 Y8.8235
G01 X52.3612 Y8.8336
G01 X52.3769 Y8.8453
G01 X52.3915 Y8.8585
G01 X53.3915 Y9.8585
G01 X53.4047 Y9.8731
G01 X53.4149 Y9.8868
G01 X53.4270 Y9.9068
G01 X53.4357 Y9.9257
G01 X53.4415 Y9.9419
G01 X53.4457 Y9.9586
G01 X53.4491 Y9.9804
G01 X53.4501 Y10.0000
G01 X53.4501 Y17.0278
G01 X53.4689 Y17.0327
G01 X53.5381 Y17.0576
G01 X53.6035 Y17.0886
G01 X53.6656 Y17.1257
G01 X53.7277 Y17.1718
G01 X53.7803 Y17.2197
G01 X53.8305 Y17.2752
G01 X53.8736 Y17.3333
G01 X53.9102 Y17.3943
G01 X53.9438 Y17.4653
G01 X53.9677 Y17.5323
G01 X53.9856 Y17.6037
G01 X53.9964 Y17.6765
G01 X54.0000 Y17.7488
G01 X53.9961 Y17.8259
G01 X53.9856 Y17.8963
G01 X53.9684 Y17.9653
G01 X53.9429 Y18.0370
G01 X53.9102 Y18.1057
G01 X53.8736 Y18.1667
G01 X53.8313 Y18.2239
G01 X53.7803 Y18.2803
G01 X53.7258 Y18.3298
G01 X53.6687 Y18.3722
G01 X53.6025 Y18.4120
G01 X53.5347 Y18.4438
G01 X53.4677 Y18.4677
G01 X53.3987 Y18.4851
G01 X53.3235 Y18.4964
G01 X53.2500 Y18.5000
G01 X53.1741 Y18.4961
G01 X53.1037 Y18.4856
G01 X53.0347 Y18.4684
G01 X52.9630 Y18.4429
G01 X52.8965 Y18.4114
G01 X52.8333 Y18.3736
G01 X52.7723 Y18.3282
G01 X52.7197 Y18.2803
G01 X52.6718 Y18.2277
G01 X52.6264 Y18.1667
G01 X52.5875 Y18.1014
G01 X52.5571 Y18.0370
G01 X52.5331 Y17.9700
G01 X52.5144 Y17.8963
G01 X52.5035 Y17.8223
G01 X52.5000 Y17.7500
G01 X52.5036 Y17.6765
G01 X52.5144 Y17.6037
G01 X52.5316 Y17.5347
G01 X52.5581 Y17.4607
G01 X52.5886 Y17.3965
G01 X52.6271 Y17.3323
G01 X52.6702 Y17.2742
G01 X52.7197 Y17.2197
G01 X52.7742 Y17.1702
G01 X52.8323 Y17.1271
G01 X52.8965 Y17.0886
G01 X52.9619 Y17.0576
G01 X53.0311 Y17.0327
G01 X53.0499 Y17.0278
G01 X53.0499 Y10.0829
G01 X52.1671 Y9.2001
G01 X50.4988 Y9.2001
G01 X50.4804 Y9.1991
G01 X50.4634 Y9.1967
G01 X50.4419 Y9.1915
G01 X50.4212 Y9.1839
G01 X50.4057 Y9.1765
G01 X50.3888 Y9.1664
G01 X50.3731 Y9.1547
G01 X50.3585 Y9.1415
G01 X47.6708 Y6.4538
G00 Z2.0000
G00 X49.1539 Y7.1641
G01 F60.00
G01 Z-0.0500
G01 F120.00
G01 X49.1608 Y7.1333
G01 X49.1636 Y7.1252
G01 X49.1677 Y7.1176
G01 X49.1867 Y7.0908
G01 X49.1917 Y7.0850
G01 X49.1985 Y7.0794
G01 X49.2264 Y7.0621
G01 X49.2330 Y7.0587
G01 X49.2377 Y7.0570
G01 X49.2426 Y7.0557
G01 X49.2714 Y7.0506
G01 X49.2776 Y7.0500
G01 X49.5488 Y7.0500
G01 X49.9714 Y6.8749
G01 X50.1227 Y6.7237
G01 X50.1295 Y6.7183
G01 X50.1557 Y6.7008
G01 X50.1609 Y6.6980
G01 X50.1664 Y6.6957
G01 X50.1722 Y6.6942
G01 X50.2045 Y6.6882
G01 X50.2132 Y6.6876
G01 X50.2218 Y6.6885
G01 X50.2526 Y6.6953
G01 X50.2584 Y6.6969
G01 X50.2640 Y6.6992
G01 X50.2692 Y6.7022
G01 X50.2932 Y6.7187
G01 X50.3003 Y6.7245
G01 X52.0611 Y8.4854
G01 X52.0659 Y8.4912
G01 X52.0834 Y8.5175
G01 X52.0875 Y8.5252
G01 X52.0893 Y8.5299
G01 X52.0906 Y8.5347
G01 X52.0966 Y8.5669
G01 X52.0973 Y8.5764
G01 X52.0963 Y8.5847
G01 X52.0892 Y8.6167
G01 X52.0878 Y8.6214
G01 X52.0854 Y8.6271
G01 X52.0816 Y8.6334
G01 X52.0625 Y8.6603
G01 X52.0565 Y8.6667
G01 X52.0505 Y8.6713
G01 X52.0226 Y8.6885
G01 X52.0146 Y8.6922
G01 X52.0062 Y8.6945
G01 X51.9799 Y8.6992
G01 X51.9736 Y8.6999
G01 X50.6765 Y8.7000
G01 X50.6678 Y8.6992
G01 X50.6357 Y8.6928
G01 X50.6298 Y8.6910
G01 X50.6241 Y8.6886
G01 X50.6188 Y8.6854
G01 X50.5947 Y8.6691
G01 X50.5873 Y8.6631
G01 X49.1889 Y7.2646
G01 X49.1841 Y7.2588
G01 X49.1660 Y7.2314
G01 X49.1635 Y7.2270
G01 X49.1611 Y7.2213
G01 X49.1592 Y7.2140
G01 X49.1530 Y7.1807
G01 X49.1528 Y7.1724
G01 X49.1539 Y7.1641
G00 Z2.0000
G00 X50.1958 Y6.4788
G01 F60.00
G01 Z-0.0500
G01 F120.00
G01 X50.1916 Y6.4854
G01 X50.1317 Y6.5661
G01 X50.0625 Y6.6425
G01 X49.9861 Y6.7117
G01 X49.9033 Y6.7730
G01 X49.8150 Y6.8260
G01 X49.7218 Y6.8701
G01 X49.6248 Y6.9048
G01 X49.5248 Y6.9298
G01 X49.4229 Y6.9449
G01 X49.3200 Y6.9500
G01 X49.2171 Y6.9449
G01 X49.1152 Y6.9298
G01 X49.0152 Y6.9048
G01 X48.9182 Y6.8701
G01 X48.8250 Y6.8260
G01 X48.7367 Y6.7730
G01 X48.6539 Y6.7117
G01 X48.5775 Y6.6425
G01 X48.5083 Y6.5661
G01 X48.4470 Y6.4833
G01 X48.3940 Y6.3950
G01 X48.3499 Y6.3018
G01 X48.3152 Y6.2048
G01 X48.2902 Y6.1048
G01 X48.2751 Y6.0029
G01 X48.2700 Y5.9000
G01 X48.2751 Y5.7971
G01 X48.2902 Y5.6952
G01 X48.3152 Y5.5952
G01 X48.3499 Y5.4982
G01 X48.3940 Y5.4050
G01 X48.4470 Y5.3167
G01 X48.5083 Y5.2339
G01 X48.5775 Y5.1575
G01 X48.6539 Y5.0883
G01 X48.7387 Y5.0256
G01 X48.8250 Y4.9740
G01 X48.9159 Y4.9309
G01 X49.0129 Y4.8960
G01 X49.1152 Y4.8702
G01 X49.2146 Y4.8554
G01 X49.3200 Y4.8500
G01 X49.4229 Y4.8551
G01 X49.5248 Y4.8702
G01 X49.6248 Y4.8952
G01 X49.7218 Y4.9299
G01 X49.8150 Y4.9740
G01 X49.9033 Y5.0270
G01 X49.9871 Y5.0891
G01 X50.0642 Y5.1593
G01 X50.1317 Y5.2339
G01 X50.1916 Y5.3146
G01 X50.2460 Y5.4050
G01 X50.2905 Y5.4993
G01 X50.3254 Y5.5976
G01 X50.3498 Y5.6952
G01 X50.3648 Y5.7959
G01 X50.3700 Y5.9012
G01 X50.3649 Y6.0029
G01 X50.3548 Y6.0718
G01 X56.0829 Y11.7999
G01 X58.5000 Y11.7999
G01 X58.5196 Y11.8009
G01 X58.5366 Y11.8033
G01 X58.5592 Y11.8089
G01 X58.5788 Y11.8161
G01 X58.5943 Y11.8235
G01 X58.6091 Y11.8323
G01 X58.6269 Y11.8453
G01 X58.6406 Y11.8577
G01 X59.6415 Y12.8585
G01 X59.6562 Y12.8750
G01 X59.6664 Y12.8888
G01 X59.6765 Y12.9057
G01 X59.6848 Y12.9234
G01 X59.6907 Y12.9396
G01 X59.6965 Y12.9622
G01 X59.6991 Y12.9804
G01 X59.7001 Y13.0000
G01 X59.7001 Y20.5000
G01 X59.6991 Y20.5196
G01 X59.6962 Y20.5390
G01 X59.6915 Y20.5581
G01 X59.6848 Y20.5766
G01 X59.6765 Y20.5943
G01 X59.6664 Y20.6112
G01 X59.6547 Y20.6269
G01 X59.6415 Y20.6415
G01 X54.4021 Y25.8808
G01 X54.4120 Y25.8975
G01 X54.4424 Y25.9619
G01 X54.4677 Y26.0323
G01 X54.4856 Y26.1037
G01 X54.4966 Y26.1789
G01 X54.4999 Y26.2525
G01 X54.4964 Y26.3235
G01 X54.4860 Y26.3939
G01 X54.4677 Y26.4677
G01 X54.4419 Y26.5393
G01 X54.4114 Y26.6035
G01 X54.3749 Y26.6646
G01 X54.3313 Y26.7239
G01 X54.2803 Y26.7803
G01 X54.2258 Y26.8298
G01 X54.1646 Y26.8749
G01 X54.1035 Y26.9114
G01 X54.0393 Y26.9419
G01 X53.9677 Y26.9677
G01 X53.8951 Y26.9858
G01 X53.8235 Y26.9964
G01 X53.7525 Y26.9999
G01 X53.6765 Y26.9964
G01 X53.6037 Y26.9856
G01 X53.5347 Y26.9684
G01 X53.4607 Y26.9419
G01 X53.3965 Y26.9114
G01 X53.3354 Y26.8749
G01 X53.2723 Y26.8282
G01 X53.2197 Y26.7803
G01 X53.1702 Y26.7258
G01 X53.1264 Y26.6667
G01 X53.0898 Y26.6057
G01 X53.0562 Y26.5347
G01 X53.0323 Y26.4677
G01 X53.0144 Y26.3963
G01 X53.0034 Y26.3211
G01 X53.0000 Y26.2500
G01 X53.0036 Y26.1765
G01 X53.0149 Y26.1013
G01 X53.0323 Y26.0323
G01 X53.0571 Y25.9630
G01 X53.0886 Y25.8965
G01 X53.1251 Y25.8354
G01 X53.1702 Y25.7742
G01 X53.2197 Y25.7197
G01 X53.2742 Y25.6702
G01 X53.3333 Y25.6264
G01 X53.3943 Y25.5898
G01 X53.4653 Y25.5562
G01 X53.5323 Y25.5323
G01 X53.6049 Y25.5142
G01 X53.6765 Y25.5036
G01 X53.7500 Y25.5000
G01 X53.8235 Y25.5036
G01 X53.8951 Y25.5142
G01 X53.9677 Y25.5323
G01 X54.0359 Y25.5566
G01 X54.1025 Y25.5880
G01 X54.1192 Y25.5979
G01 X59.2999 Y20.4171
G01 X59.2999 Y13.0829
G01 X58.4171 Y12.2001
G01 X55.9988 Y12.2001
G01 X55.9804 Y12.1991
G01 X55.9634 Y12.1967
G01 X55.9419 Y12.1915
G01 X55.9234 Y12.1848
G01 X55.9079 Y12.1776
G01 X55.8868 Y12.1649
G01 X55.8731 Y12.1547
G01 X55.8585 Y12.1415
G01 X50.1958 Y6.4788
G00 Z2.0000
G00 X51.6539 Y7.1641
G01 F60.00
G01 Z-0.0500
G01 F120.00
G01 X51.6608 Y7.1333
G01 X51.6636 Y7.1252
G01 X51.6677 Y7.1176
G01 X51.6875 Y7.0897
G01 X51.6926 Y7.0842
G01 X51.6995 Y7.0787
G01 X51.7274 Y7.0615
G01 X51.7354 Y7.0578
G01 X51.7438 Y7.0555
G01 X51.7714 Y7.0506
G01 X51.7776 Y7.0500
G01 X52.0888 Y7.0500
G01 X52.5114 Y6.8749
G01 X52.6436 Y6.7428
G01 X52.6484 Y6.7390
G01 X52.6747 Y6.7215
G01 X52.6831 Y6.7170
G01 X52.6922 Y6.7142
G01 X52.7245 Y6.7082
G01 X52.7319 Y6.7076
G01 X52.7406 Y6.7083
G01 X52.7738 Y6.7155
G01 X52.7818 Y6.7182
G01 X52.7892 Y6.7222
G01 X52.8153 Y6.7402
G01 X52.8203 Y6.7445
G01 X57.5611 Y11.4854
G01 X57.5659 Y11.4912
G01 X57.5834 Y11.5175
G01 X57.5859 Y11.5218
G01 X57.5880 Y11.5264
G01 X57.5897 Y11.5311
G01 X57.5908 Y11.5360
G01 X57.5966 Y11.5669
G01 X57.5973 Y11.5741
G01 X57.5970 Y11.5800
G01 X57.5963 Y11.5847
G01 X57.5892 Y11.6167
G01 X57.5874 Y11.6226
G01 X57.5854 Y11.6271
G01 X57.5823 Y11.6324
G01 X57.5633 Y11.6592
G01 X57.5583 Y11.6650
G01 X57.5515 Y11.6706
G01 X57.5236 Y11.6879
G01 X57.5181 Y11.6908
G01 X57.5123 Y11.6930
G01 X57.5074 Y11.6943
G01 X57.4786 Y11.6994
G01 X57.4711 Y11.7000
G01 X56.1753 Y11.7000
G01 X56.1666 Y11.6990
G01 X56.1357 Y11.6928
G01 X56.1286 Y11.6906
G01 X56.1198 Y11.6861
G01 X56.0927 Y11.6677
G01 X56.0873 Y11.6631
G01 X51.6897 Y7.2655
G01 X51.6841 Y7.2588
G01 X51.6666 Y7.2325
G01 X51.6635 Y7.2270
G01 X51.6611 Y7.2213
G01 X51.6592 Y7.2140
G01 X51.6530 Y7.1807
G01 X51.6528 Y7.1724
G01 X51.6539 Y7.1641
G00 Z2.0000
G00 X54.1539 Y7.1641
G01 F60.00
G01 Z-0.0500
G01 F120.00
G01 X54.1608 Y7.1333
G01 X54.1636 Y7.1252
G01 X54.1677 Y7.1176
G01 X54.1875 Y7.0897
G01 X54.1935 Y7.0833
G01 X54.1995 Y7.0787
G01 X54.2274 Y7.0615
G01 X54.2330 Y7.0587
G01 X54.2377 Y7.0570
G01 X54.2438 Y7.0555
G01 X54.2701 Y7.0508
G01 X54.2776 Y7.0500
G01 X54.6288 Y7.0500
G01 X55.0514 Y6.8749
G01 X55.3749 Y6.5514
G01 X55.3775 Y6.5452
G01 X55.3799 Y6.5408
G01 X55.3990 Y6.5125
G01 X55.4047 Y6.5058
G01 X55.4114 Y6.5003
G01 X55.4389 Y6.4824
G01 X55.4479 Y6.4780
G01 X55.4551 Y6.4760
G01 X55.4861 Y6.4705
G01 X55.4961 Y6.4697
G01 X55.5059 Y6.4709
G01 X55.5367 Y6.4779
G01 X55.5435 Y6.4802
G01 X55.5520 Y6.4846
G01 X55.5795 Y6.5040
G01 X60.7131 Y11.6373
G01 X60.7164 Y11.6411
G01 X60.7367 Y11.6713
G01 X60.7407 Y11.6789
G01 X60.7435 Y11.6883
G01 X60.7493 Y11.7181
G01 X60.7500 Y11.7253
G01 X60.7500 Y12.7711
G01 X60.7490 Y12.7810
G01 X60.7427 Y12.8119
G01 X60.7405 Y12.8191
G01 X60.7384 Y12.8237
G01 X60.7359 Y12.8281
G01 X60.7150 Y12.8581
G01 X60.7097 Y12.8634
G01 X60.7048 Y12.8672
G01 X60.6772 Y12.8849
G01 X60.6705 Y12.8883
G01 X60.6609 Y12.8912
G01 X60.6286 Y12.8967
G01 X60.6223 Y12.8972
G01 X60.6160 Y12.8969
G01 X60.6111 Y12.8961
G01 X60.5791 Y12.8885
G01 X60.5732 Y12.8866
G01 X60.5644 Y12.8819
G01 X60.5414 Y12.8659
G01 X60.5364 Y12.8620
G01 X58.8743 Y11.2000
G01 X58.1740 Y11.1999
G01 X58.1678 Y11.1992
G01 X58.1369 Y11.1930
G01 X58.1275 Y11.1901
G01 X58.1198 Y11.1861
G01 X58.0947 Y11.1691
G01 X58.0900 Y11.1655
G01 X54.1897 Y7.2655
G01 X54.1841 Y7.2588
G01 X54.1666 Y7.2325
G01 X54.1635 Y7.2270
G01 X54.1611 Y7.2213
G01 X54.1592 Y7.2140
G01 X54.1530 Y7.1807
G01 X54.1528 Y7.1724
G01 X54.1539 Y7.1641
G00 Z2.0000
G00 X55.4060 Y6.2001
G01 F60.00
G01 Z-0.0500
G01 F120.00
G01 X55.4040 Y6.2071
G01 X55.3701 Y6.3018
G01 X55.3260 Y6.3950
G01 X55.2730 Y6.4833
G01 X55.2117 Y6.5661
G01 X55.1425 Y6.6425
G01 X55.0661 Y6.7117
G01 X54.9833 Y6.7730
G01 X54.8950 Y6.8260
G01 X54.8018 Y6.8701
G01 X54.7048 Y6.9048
G01 X54.6048 Y6.9298
G01 X54.5029 Y6.9449
G01 X54.4000 Y6.9500
G01 X54.2971 Y6.9449
G01 X54.1952 Y6.9298
G01 X54.0952 Y6.9048
G01 X53.9982 Y6.8701
G01 X53.9050 Y6.8260
G01 X53.8167 Y6.7730
G01 X53.7339 Y6.7117
G01 X53.6575 Y6.6425
G01 X53.5883 Y6.5661
G01 X53.5270 Y6.4833
G01 X53.4740 Y6.3950
G01 X53.4299 Y6.3018
G01 X53.3952 Y6.2048
G01 X53.3702 Y6.1048
G01 X53.3551 Y6.0029
G01 X53.3500 Y5.9000
G01 X53.3551 Y5.7971
G01 X53.3702 Y5.6952
G01 X53.3952 Y5.5952
G01 X53.4299 Y5.4982
G01 X53.4740 Y5.4050
G01 X53.5270 Y5.3167
G01 X53.5899 Y5.2320
G01 X53.6575 Y5.1575
G01 X53.7320 Y5.0899
G01 X53.8146 Y5.0284
G01 X53.9050 Y4.9740
G01 X53.9982 Y4.9299
G01 X54.0952 Y4.8952
G01 X54.1976 Y4.8698
G01 X54.2995 Y4.8549
G01 X54.4000 Y4.8500
G01 X54.5005 Y4.8549
G01 X54.6048 Y4.8702
G01 X54.7048 Y4.8952
G01 X54.8018 Y4.9299
G01 X54.8971 Y4.9752
G01 X54.9833 Y5.0270
G01 X55.0642 Y5.0868
G01 X55.1407 Y5.1558
G01 X55.2117 Y5.2339
G01 X55.2730 Y5.3167
G01 X55.3271 Y5.4072
G01 X55.3701 Y5.4982
G01 X55.4040 Y5.5929
G01 X55.4298 Y5.6952
G01 X55.4446 Y5.7946
G01 X55.4451 Y5.7999
G01 X55.5000 Y5.7999
G01 X55.5184 Y5.8008
G01 X55.5390 Y5.8038
G01 X55.5581 Y5.8085
G01 X55.5766 Y5.8152
G01 X55.5964 Y5.8248
G01 X55.6112 Y5.8336
G01 X55.6250 Y5.8438
G01 X55.6406 Y5.8577
G01 X61.0489 Y11.2660
G01 X62.9000 Y11.2660
G01 X62.9085 Y11.2667
G01 X62.9168 Y11.2689
G01 X62.9246 Y11.2725
G01 X62.9317 Y11.2773
G01 X62.9362 Y11.2815
G01 X62.9394 Y11.2852
G01 X62.9429 Y11.2903
G01 X62.9452 Y11.2946
G01 X62.9475 Y11.3003
G01 X62.9488 Y11.3050
G01 X62.9498 Y11.3111
G01 X62.9500 Y11.3160
G01 X62.9500 Y13.3160
G01 X62.9490 Y13.3258
G01 X62.9462 Y13.3351
G01 X62.9416 Y13.3438
G01 X62.9362 Y13.3505
G01 X62.9288 Y13.3569
G01 X62.9236 Y13.3601
G01 X62.9191 Y13.3622
G01 X62.9098 Y13.3650
G01 X62.9000 Y13.3660
G01 X60.9000 Y13.3660
G01 X60.8915 Y13.3653
G01 X60.8820 Y13.3626
G01 X60.8733 Y13.3582
G01 X60.8655 Y13.3522
G01 X60.8591 Y13.3448
G01 X60.8543 Y13.3363
G01 X60.8512 Y13.3270
G01 X60.8502 Y13.3209
G01 X60.8500 Y13.3160
G01 X60.8500 Y11.6329
G01 X55.4171 Y6.2001
G01 X55.4060 Y6.2001
G00 Z2.0000
G00 X60.8055 Y14.0601
G01 F60.00
G01 Z-0.0500
G01 F120.00
G01 X60.8006 Y14.0325
G01 X60.8000 Y14.0250
G01 X60.8000 Y13.5922
G01 X60.8004 Y13.5860
G01 X60.8079 Y13.5489
G01 X60.8110 Y13.5407
G01 X60.8148 Y13.5342
G01 X60.8327 Y13.5081
G01 X60.8384 Y13.5016
G01 X60.8451 Y13.4961
G01 X60.8737 Y13.4778
G01 X60.8803 Y13.4746
G01 X60.8872 Y13.4724
G01 X60.9184 Y13.4666
G01 X60.9249 Y13.4660
G01 X61.6199 Y13.4661
G01 X61.6261 Y13.4670
G01 X61.6583 Y13.4736
G01 X61.6666 Y13.4765
G01 X61.6732 Y13.4801
G01 X61.7003 Y13.4987
G01 X61.7068 Y13.5044
G01 X61.7123 Y13.5111
G01 X61.7307 Y13.5398
G01 X61.7334 Y13.5454
G01 X61.7358 Y13.5526
G01 X61.7417 Y13.5862
G01 X61.7424 Y13.5949
G01 X61.7421 Y13.6000
G01 X61.7413 Y13.6049
G01 X61.7337 Y13.6369
G01 X61.7322 Y13.6416
G01 X61.7297 Y13.6473
G01 X61.7265 Y13.6526
G01 X61.7071 Y13.6791
G01 X61.7030 Y13.6838
G01 X61.6983 Y13.6880
G01 X61.6722 Y13.7048
G01 X61.6657 Y13.7083
G01 X61.2486 Y13.8811
G01 X61.0146 Y14.1151
G01 X61.0087 Y14.1199
G01 X60.9792 Y14.1393
G01 X60.9724 Y14.1424
G01 X60.9653 Y14.1445
G01 X60.9330 Y14.1506
G01 X60.9255 Y14.1512
G01 X60.9205 Y14.1510
G01 X60.9143 Y14.1500
G01 X60.8835 Y14.1433
G01 X60.8752 Y14.1404
G01 X60.8675 Y14.1362
G01 X60.8417 Y14.1179
G01 X60.8368 Y14.1139
G01 X60.8324 Y14.1094
G01 X60.8280 Y14.1033
G01 X60.8109 Y14.0754
G01 X60.8073 Y14.0674
G01 X60.8055 Y14.0601
G00 Z2.0000
G00 X62.0589 Y13.5792
G01 F60.00
G01 Z-0.0500
G01 F120.00
G01 X62.0660 Y13.5484
G01 X62.0694 Y13.5391
G01 X62.0731 Y13.5326
G01 X62.0915 Y13.5070
G01 X62.0973 Y13.5003
G01 X62.1010 Y13.4970
G01 X62.1051 Y13.4941
G01 X62.1332 Y13.4771
G01 X62.1387 Y13.4744
G01 X62.1482 Y13.4715
G01 X62.1776 Y13.4664
G01 X62.1838 Y13.4660
G01 X62.9621 Y13.4660
G01 X63.0500 Y13.3781
G01 X63.0500 Y12.5998
G01 X63.0508 Y12.5911
G01 X63.0573 Y12.5590
G01 X63.0600 Y12.5506
G01 X63.0622 Y12.5460
G01 X63.0648 Y12.5418
G01 X63.0842 Y12.5138
G01 X63.0884 Y12.5092
G01 X63.0941 Y12.5044
G01 X63.1227 Y12.4860
G01 X63.1271 Y12.4836
G01 X63.1318 Y12.4816
G01 X63.1403 Y12.4794
G01 X63.1714 Y12.4741
G01 X63.1789 Y12.4736
G01 X63.1840 Y12.4739
G01 X63.1889 Y12.4747
G01 X63.2209 Y12.4823
G01 X63.2290 Y12.4852
G01 X63.2356 Y12.4888
G01 X63.2631 Y12.5089
G01 X63.2687 Y12.5139
G01 X63.2742 Y12.5207
G01 X63.2901 Y12.5459
G01 X63.2928 Y12.5515
G01 X63.4651 Y12.9674
G01 X63.7886 Y13.2909
G01 X64.2194 Y13.4694
G01 X64.2251 Y13.4722
G01 X64.2545 Y13.4919
G01 X64.2612 Y13.4976
G01 X64.2667 Y13.5043
G01 X64.2846 Y13.5318
G01 X64.2880 Y13.5384
G01 X64.2907 Y13.5467
G01 X64.2968 Y13.5801
G01 X64.2974 Y13.5884
G01 X64.2964 Y13.5978
G01 X64.2890 Y13.6298
G01 X64.2862 Y13.6380
G01 X64.2826 Y13.6445
G01 X64.2627 Y13.6722
G01 X64.2577 Y13.6779
G01 X64.2508 Y13.6835
G01 X64.2250 Y13.6999
G01 X64.2194 Y13.7026
G01 X63.7886 Y13.8811
G01 X63.4651 Y14.2046
G01 X63.2866 Y14.6354
G01 X63.2833 Y14.6421
G01 X63.2643 Y14.6703
G01 X63.2590 Y14.6767
G01 X63.2517 Y14.6828
G01 X63.2241 Y14.7006
G01 X63.2175 Y14.7040
G01 X63.2093 Y14.7067
G01 X63.1759 Y14.7128
G01 X63.1676 Y14.7134
G01 X63.1582 Y14.7124
G01 X63.1262 Y14.7050
G01 X63.1180 Y14.7022
G01 X63.1115 Y14.6986
G01 X63.0838 Y14.6787
G01 X63.0781 Y14.6737
G01 X63.0725 Y14.6668
G01 X63.0561 Y14.6410
G01 X63.0534 Y14.6354
G01 X62.8749 Y14.2046
G01 X62.5514 Y13.8811
G01 X62.1355 Y13.7088
G01 X62.1288 Y13.7054
G01 X62.1005 Y13.6865
G01 X62.0939 Y13.6808
G01 X62.0883 Y13.6740
G01 X62.0691 Y13.6443
G01 X62.0660 Y13.6374
G01 X62.0642 Y13.6314
G01 X62.0582 Y13.5979
G01 X62.0576 Y13.5892
G01 X62.0580 Y13.5841
G01 X62.0589 Y13.5792
G00 Z2.0000
G00 X62.9499 Y14.8585
G01 F60.00
G01 Z-0.0500
G01 F120.00
G01 X62.9449 Y14.9589
G01 X62.9298 Y15.0608
G01 X62.9048 Y15.1608
G01 X62.8701 Y15.2578
G01 X62.8260 Y15.3510
G01 X62.7730 Y15.4393
G01 X62.7117 Y15.5221
G01 X62.6425 Y15.5985
G01 X62.5661 Y15.6677
G01 X62.4833 Y15.7290
G01 X62.3950 Y15.7820
G01 X62.3018 Y15.8261
G01 X62.2048 Y15.8608
G01 X62.1048 Y15.8858
G01 X62.0029 Y15.9009
G01 X61.9000 Y15.9060
G01 X61.7971 Y15.9009
G01 X61.6952 Y15.8858
G01 X61.5952 Y15.8608
G01 X61.4982 Y15.8261
G01 X61.4050 Y15.7820
G01 X61.3167 Y15.7290
G01 X61.2339 Y15.6677
G01 X61.1575 Y15.5985
G01 X61.0883 Y15.5221
G01 X61.0270 Y15.4393
G01 X60.9740 Y15.3510
G01 X60.9299 Y15.2578
G01 X60.8952 Y15.1608
G01 X60.8702 Y15.0608
G01 X60.8551 Y14.9589
G01 X60.8500 Y14.8560
G01 X60.8551 Y14.7531
G01 X60.8702 Y14.6512
G01 X60.8952 Y14.5512
G01 X60.9299 Y14.4542
G01 X60.9740 Y14.3610
G01 X61.0270 Y14.2727
G01 X61.0883 Y14.1899
G01 X61.1575 Y14.1135
G01 X61.2339 Y14.0443
G01 X61.3167 Y13.9830
G01 X61.4050 Y13.9300
G01 X61.4982 Y13.8859
G01 X61.5952 Y13.8512
G01 X61.6952 Y13.8262
G01 X61.7971 Y13.8111
G01 X61.9000 Y13.8060
G01 X62.0029 Y13.8111
G01 X62.1048 Y13.8262
G01 X62.2048 Y13.8512
G01 X62.3018 Y13.8859
G01 X62.3950 Y13.9300
G01 X62.4833 Y13.9830
G01 X62.5661 Y14.0443
G01 X62.6425 Y14.1135
G01 X62.7117 Y14.1899
G01 X62.7730 Y14.2727
G01 X62.8260 Y14.3610
G01 X62.8701 Y14.4542
G01 X62.9048 Y14.5512
G01 X62.9298 Y14.6512
G01 X62.9449 Y14.7531
G01 X62.9499 Y14.8585
G00 Z2.0000
G00 X62.6122 Y15.8100
G01 F60.00
G01 Z-0.0500
G01 F120.00
G01 X62.6194 Y15.7793
G01 X62.6224 Y15.7710
G01 X62.6260 Y15.7644
G01 X62.6452 Y15.7373
G01 X62.8749 Y15.5074
G01 X63.0539 Y15.0754
G01 X63.0582 Y15.0677
G01 X63.0782 Y15.0385
G01 X63.0834 Y15.0331
G01 X63.0883 Y15.0293
G01 X63.1158 Y15.0114
G01 X63.1224 Y15.0080
G01 X63.1283 Y15.0059
G01 X63.1331 Y15.0048
G01 X63.1641 Y14.9992
G01 X63.1712 Y14.9986
G01 X63.1771 Y14.9989
G01 X63.1818 Y14.9996
G01 X63.2138 Y15.0070
G01 X63.2209 Y15.0093
G01 X63.2296 Y15.0141
G01 X63.2582 Y15.0348
G01 X63.2628 Y15.0392
G01 X63.2675 Y15.0452
G01 X63.2832 Y15.0699
G01 X63.2861 Y15.0754
G01 X63.3898 Y15.3258
G01 X63.3921 Y15.3329
G01 X63.3987 Y15.3662
G01 X63.3994 Y15.3749
G01 X63.3986 Y15.3836
G01 X63.3921 Y15.4145
G01 X63.3897 Y15.4227
G01 X63.3865 Y15.4294
G01 X63.3656 Y15.4598
G01 X62.9118 Y15.9139
G01 X62.9049 Y15.9194
G01 X62.8787 Y15.9367
G01 X62.8733 Y15.9397
G01 X62.8688 Y15.9415
G01 X62.8629 Y15.9432
G01 X62.8331 Y15.9491
G01 X62.8271 Y15.9499
G01 X62.7370 Y15.9500
G01 X62.7283 Y15.9492
G01 X62.6974 Y15.9430
G01 X62.6913 Y15.9414
G01 X62.6855 Y15.9390
G01 X62.6800 Y15.9359
G01 X62.6540 Y15.9180
G01 X62.6473 Y15.9125
G01 X62.6409 Y15.9049
G01 X62.6226 Y15.8763
G01 X62.6195 Y15.8699
G01 X62.6173 Y15.8631
G01 X62.6116 Y15.8296
G01 X62.6109 Y15.8198
G01 X62.6122 Y15.8100
G00 Z2.0000
G00 X64.5839 Y13.5730
G01 F60.00
G01 Z-0.0500
G01 F120.00
G01 X64.5916 Y13.5398
G01 X64.5949 Y13.5318
G01 X64.5988 Y13.5254
G01 X64.6173 Y13.4998
G01 X64.6223 Y13.4941
G01 X64.6292 Y13.4885
G01 X64.6550 Y13.4721
G01 X64.6606 Y13.4694
G01 X65.0914 Y13.2909
G01 X65.4149 Y12.9674
G01 X65.5934 Y12.5366
G01 X65.5962 Y12.5309
G01 X65.6159 Y12.5015
G01 X65.6216 Y12.4948
G01 X65.6283 Y12.4893
G01 X65.6558 Y12.4714
G01 X65.6636 Y12.4675
G01 X65.6707 Y12.4653
G01 X65.7041 Y12.4592
G01 X65.7124 Y12.4586
G01 X65.7218 Y12.4596
G01 X65.7538 Y12.4670
G01 X65.7609 Y12.4693
G01 X65.7685 Y12.4734
G01 X65.7962 Y12.4933
G01 X65.8019 Y12.4983
G01 X65.8075 Y12.5052
G01 X65.8239 Y12.5310
G01 X65.8266 Y12.5366
G01 X66.0051 Y12.9674
G01 X66.3286 Y13.2909
G01 X66.7594 Y13.4694
G01 X66.7651 Y13.4722
G01 X66.7945 Y13.4919
G01 X66.8012 Y13.4976
G01 X66.8067 Y13.5043
G01 X66.8246 Y13.5318
G01 X66.8280 Y13.5384
G01 X66.8307 Y13.5467
G01 X66.8368 Y13.5801
G01 X66.8374 Y13.5884
G01 X66.8364 Y13.5978
G01 X66.8290 Y13.6298
G01 X66.8267 Y13.6369
G01 X66.8226 Y13.6445
G01 X66.8027 Y13.6722
G01 X66.7977 Y13.6779
G01 X66.7908 Y13.6835
G01 X66.7650 Y13.6999
G01 X66.7594 Y13.7026
G01 X66.3286 Y13.8811
G01 X66.0051 Y14.2046
G01 X65.8266 Y14.6354
G01 X65.8233 Y14.6421
G01 X65.8043 Y14.6703
G01 X65.7990 Y14.6767
G01 X65.7917 Y14.6828
G01 X65.7641 Y14.7006
G01 X65.7575 Y14.7040
G01 X65.7493 Y14.7067
G01 X65.7159 Y14.7128
G01 X65.7076 Y14.7134
G01 X65.6982 Y14.7124
G01 X65.6662 Y14.7050
G01 X65.6591 Y14.7027
G01 X65.6515 Y14.6986
G01 X65.6238 Y14.6787
G01 X65.6181 Y14.6737
G01 X65.6125 Y14.6668
G01 X65.5961 Y14.6410
G01 X65.5934 Y14.6354
G01 X65.4149 Y14.2046
G01 X65.0914 Y13.8811
G01 X64.6606 Y13.7026
G01 X64.6539 Y13.6993
G01 X64.6257 Y13.6803
G01 X64.6184 Y13.6741
G01 X64.6132 Y13.6677
G01 X64.5941 Y13.6380
G01 X64.5915 Y13.6324
G01 X64.5893 Y13.6253
G01 X64.5832 Y13.5919
G01 X64.5826 Y13.5824
G01 X64.5839 Y13.5730
G00 Z2.0000
G00 X65.4664 Y11.7502
G01 F60.00
G01 Z-0.0500
G01 F120.00
G01 X65.4730 Y11.7193
G01 X65.4761 Y11.7101
G01 X65.4803 Y11.7027
G01 X65.4971 Y11.6782
G01 X65.5015 Y11.6728
G01 X66.0873 Y11.0869
G01 X66.0940 Y11.0813
G01 X66.1224 Y11.0626
G01 X66.1289 Y11.0593
G01 X66.1359 Y11.0571
G01 X66.1669 Y11.0509
G01 X66.1741 Y11.0501
G01 X66.3969 Y11.0500
G01 X66.4043 Y11.0506
G01 X66.4402 Y11.0579
G01 X66.4473 Y11.0605
G01 X66.4549 Y11.0648
G01 X66.4810 Y11.0827
G01 X66.4875 Y11.0884
G01 X66.4930 Y11.0952
G01 X66.5107 Y11.1228
G01 X66.5145 Y11.1307
G01 X66.5172 Y11.1403
G01 X66.5228 Y11.1739
G01 X66.5229 Y11.1815
G01 X66.5222 Y11.1877
G01 X66.5143 Y11.2209
G01 X66.5114 Y11.2290
G01 X66.5071 Y11.2366
G01 X66.4885 Y11.2621
G01 X66.4845 Y11.2669
G01 X66.4799 Y11.2712
G01 X66.4759 Y11.2742
G01 X66.4528 Y11.2888
G01 X66.4474 Y11.2918
G01 X66.3286 Y11.3411
G01 X66.0051 Y11.6646
G01 X65.8256 Y12.0977
G01 X65.8226 Y12.1031
G01 X65.8050 Y12.1293
G01 X65.7990 Y12.1367
G01 X65.7917 Y12.1428
G01 X65.7641 Y12.1606
G01 X65.7575 Y12.1640
G01 X65.7505 Y12.1664
G01 X65.7171 Y12.1726
G01 X65.7076 Y12.1734
G01 X65.6982 Y12.1724
G01 X65.6662 Y12.1650
G01 X65.6603 Y12.1631
G01 X65.6558 Y12.1611
G01 X65.6494 Y12.1572
G01 X65.6228 Y12.1380
G01 X65.6172 Y12.1328
G01 X65.6132 Y12.1279
G01 X65.5968 Y12.1021
G01 X65.5939 Y12.0966
G01 X65.4744 Y11.8084
G01 X65.4723 Y11.8012
G01 X65.4658 Y11.7677
G01 X65.4653 Y11.7589
G01 X65.4664 Y11.7502
G00 Z2.0000
G00 X67.1239 Y13.5730
G01 F60.00
G01 Z-0.0500
G01 F120.00
G01 X67.1316 Y13.5398
G01 X67.1349 Y13.5318
G01 X67.1388 Y13.5254
G01 X67.1573 Y13.4998
G01 X67.1623 Y13.4941
G01 X67.1692 Y13.4885
G01 X67.1950 Y13.4721
G01 X67.2006 Y13.4694
G01 X67.6314 Y13.2909
G01 X67.9549 Y12.9674
G01 X67.9582 Y12.9595
G01 X67.9606 Y12.9551
G01 X67.9797 Y12.9268
G01 X67.9853 Y12.9203
G01 X67.9930 Y12.9140
G01 X68.0195 Y12.8968
G01 X68.0274 Y12.8928
G01 X68.0358 Y12.8903
G01 X68.0693 Y12.8844
G01 X68.0781 Y12.8841
G01 X68.0868 Y12.8853
G01 X68.1188 Y12.8927
G01 X68.1247 Y12.8947
G01 X68.1313 Y12.8982
G01 X68.1620 Y12.9202
G01 X68.1674 Y12.9255
G01 X68.1719 Y12.9315
G01 X68.1889 Y12.9596
G01 X68.1925 Y12.9674
G01 X68.1948 Y12.9758
G01 X68.1993 Y13.0016
G01 X68.1999 Y13.0077
G01 X68.2000 Y14.1618
G01 X68.1992 Y14.1705
G01 X68.1927 Y14.2026
G01 X68.1905 Y14.2098
G01 X68.1866 Y14.2177
G01 X68.1673 Y14.2459
G01 X68.1607 Y14.2533
G01 X68.1549 Y14.2579
G01 X68.1273 Y14.2756
G01 X68.1229 Y14.2780
G01 X68.1170 Y14.2804
G01 X68.1109 Y14.2820
G01 X68.0786 Y14.2875
G01 X68.0736 Y14.2880
G01 X68.0685 Y14.2879
G01 X68.0611 Y14.2869
G01 X68.0291 Y14.2793
G01 X68.0220 Y14.2769
G01 X68.0165 Y14.2741
G01 X67.9878 Y14.2533
G01 X67.9813 Y14.2476
G01 X67.9759 Y14.2409
G01 X67.9606 Y14.2168
G01 X67.9582 Y14.2124
G01 X67.9549 Y14.2046
G01 X67.6314 Y13.8811
G01 X67.2006 Y13.7026
G01 X67.1939 Y13.6993
G01 X67.1657 Y13.6803
G01 X67.1584 Y13.6741
G01 X67.1532 Y13.6677
G01 X67.1341 Y13.6380
G01 X67.1315 Y13.6324
G01 X67.1293 Y13.6253
G01 X67.1232 Y13.5919
G01 X67.1226 Y13.5824
G01 X67.1239 Y13.5730
G00 Z2.0000
G00 X68.0299 Y12.3185
G01 F60.00
G01 Z-0.0500
G01 F120.00
G01 X68.0249 Y12.4189
G01 X68.0098 Y12.5208
G01 X67.9848 Y12.6208
G01 X67.9501 Y12.7178
G01 X67.9060 Y12.8110
G01 X67.8530 Y12.8993
G01 X67.7917 Y12.9821
G01 X67.7225 Y13.0585
G01 X67.6461 Y13.1277
G01 X67.5633 Y13.1890
G01 X67.4750 Y13.2420
G01 X67.3818 Y13.2861
G01 X67.2848 Y13.3208
G01 X67.1848 Y13.3458
G01 X67.0829 Y13.3609
G01 X66.9800 Y13.3660
G01 X66.8771 Y13.3609
G01 X66.7752 Y13.3458
G01 X66.6752 Y13.3208
G01 X66.5782 Y13.2861
G01 X66.4850 Y13.2420
G01 X66.3967 Y13.1890
G01 X66.3139 Y13.1277
G01 X66.2375 Y13.0585
G01 X66.1683 Y12.9821
G01 X66.1070 Y12.8993
G01 X66.0540 Y12.8110
G01 X66.0099 Y12.7178
G01 X65.9752 Y12.6208
G01 X65.9502 Y12.5208
G01 X65.9351 Y12.4189
G01 X65.9300 Y12.3160
G01 X65.9351 Y12.2131
G01 X65.9502 Y12.1112
G01 X65.9752 Y12.0112
G01 X66.0099 Y11.9142
G01 X66.0540 Y11.8210
G01 X66.1070 Y11.7327
G01 X66.1683 Y11.6499
G01 X66.2375 Y11.5735
G01 X66.3139 Y11.5043
G01 X66.3967 Y11.4430
G01 X66.4850 Y11.3900
G01 X66.5782 Y11.3459
G01 X66.6752 Y11.3112
G01 X66.7752 Y11.2862
G01 X66.8771 Y11.2711
G01 X66.9800 Y11.2660
G01 X67.0829 Y11.2711
G01 X67.1848 Y11.2862
G01 X67.2848 Y11.3112
G01 X67.3818 Y11.3459
G01 X67.4750 Y11.3900
G01 X67.5633 Y11.4430
G01 X67.6461 Y11.5043
G01 X67.7225 Y11.5735
G01 X67.7917 Y11.6499
G01 X67.8530 Y11.7327
G01 X67.9060 Y11.8210
G01 X67.9501 Y11.9142
G01 X67.9848 Y12.0112
G01 X68.0098 Y12.1112
G01 X68.0249 Y12.2131
G01 X68.0299 Y12.3185
G00 Z2.0000
G00 X66.9840 Y0.9660
G01 F60.00
G01 Z-0.0500
G01 F120.00
G01 X68.9840 Y0.9660
G01 X68.9938 Y0.9670
G01 X68.9985 Y0.9682
G01 X69.0043 Y0.9703
G01 X69.0128 Y0.9751
G01 X69.0202 Y0.9815
G01 X69.0262 Y0.9893
G01 X69.0306 Y0.9980
G01 X69.0333 Y1.0075
G01 X69.0340 Y1.0160
G01 X69.0340 Y3.0160
G01 X69.0330 Y3.0258
G01 X69.0318 Y3.0305
G01 X69.0297 Y3.0363
G01 X69.0249 Y3.0448
G01 X69.0185 Y3.0522
G01 X69.0107 Y3.0582
G01 X69.0020 Y3.0626
G01 X68.9925 Y3.0653
G01 X68.9840 Y3.0660
G01 X66.9840 Y3.0660
G01 X66.9742 Y3.0650
G01 X66.9683 Y3.0635
G01 X66.9637 Y3.0617
G01 X66.9552 Y3.0569
G01 X66.9478 Y3.0505
G01 X66.9418 Y3.0427
G01 X66.9374 Y3.0340
G01 X66.9350 Y3.0258
G01 X66.9340 Y3.0160
G01 X66.9340 Y1.0148
G01 X66.9352 Y1.0050
G01 X66.9383 Y0.9957
G01 X66.9431 Y0.9872
G01 X66.9495 Y0.9798
G01 X66.9562 Y0.9744
G01 X66.9649 Y0.9698
G01 X66.9742 Y0.9670
G01 X66.9840 Y0.9660
G00 Z2.0000
G00 X53.5562 Y16.9072
G01 F60.00
G01 Z-0.0500
G01 F120.00
G01 X53.5507 Y16.8780
G01 X53.5500 Y16.8699
G01 X53.5500 Y10.2777
G01 X53.5508 Y10.2702
G01 X53.5570 Y10.2393
G01 X53.5582 Y10.2344
G01 X53.5600 Y10.2297
G01 X53.5622 Y10.2251
G01 X53.5648 Y10.2209
G01 X53.5827 Y10.1948
G01 X53.5884 Y10.1883
G01 X53.5952 Y10.1828
G01 X53.6218 Y10.1658
G01 X53.6307 Y10.1613
G01 X53.6403 Y10.1586
G01 X53.6714 Y10.1533
G01 X53.6789 Y10.1528
G01 X53.6852 Y10.1532
G01 X53.6901 Y10.1542
G01 X53.7209 Y10.1615
G01 X53.7279 Y10.1639
G01 X53.7366 Y10.1688
G01 X53.7597 Y10.1848
G01 X53.7655 Y10.1897
G01 X55.8757 Y12.3000
G01 X57.6969 Y12.3001
G01 X57.7031 Y12.3010
G01 X57.7341 Y12.3072
G01 X57.7390 Y12.3086
G01 X57.7437 Y12.3105
G01 X57.7503 Y12.3141
G01 X57.7763 Y12.3320
G01 X57.7839 Y12.3384
G01 X57.7894 Y12.3452
G01 X57.8064 Y12.3718
G01 X57.8109 Y12.3807
G01 X57.8136 Y12.3903
G01 X57.8189 Y12.4214
G01 X57.8194 Y12.4289
G01 X57.8191 Y12.4340
G01 X57.8183 Y12.4389
G01 X57.8107 Y12.4709
G01 X57.8088 Y12.4768
G01 X57.8041 Y12.4856
G01 X57.7850 Y12.5127
G01 X57.5294 Y12.7685
G01 X57.4000 Y13.0809
G01 X57.4000 Y13.4191
G01 X57.4438 Y13.5250
G01 X57.4455 Y13.5310
G01 X57.4516 Y13.5620
G01 X57.4525 Y13.5695
G01 X57.4524 Y13.5745
G01 X57.4517 Y13.5808
G01 X57.4448 Y13.6128
G01 X57.4431 Y13.6186
G01 X57.4412 Y13.6230
G01 X57.4383 Y13.6283
G01 X57.4202 Y13.6548
G01 X57.4156 Y13.6602
G01 X54.2000 Y16.8757
G01 X54.1998 Y17.1982
G01 X54.1928 Y17.2341
G01 X54.1900 Y17.2425
G01 X54.1878 Y17.2470
G01 X54.1852 Y17.2513
G01 X54.1673 Y17.2774
G01 X54.1633 Y17.2822
G01 X54.1597 Y17.2856
G01 X54.1548 Y17.2894
G01 X54.1272 Y17.3071
G01 X54.1216 Y17.3100
G01 X54.1170 Y17.3118
G01 X54.1109 Y17.3134
G01 X54.0786 Y17.3189
G01 X54.0698 Y17.3194
G01 X54.0611 Y17.3183
G01 X54.0279 Y17.3104
G01 X54.0209 Y17.3078
G01 X54.0154 Y17.3048
G01 X53.9903 Y17.2874
G01 X53.9855 Y17.2833
G01 X53.7315 Y17.0294
G01 X53.6256 Y16.9855
G01 X53.6201 Y16.9825
G01 X53.5929 Y16.9642
G01 X53.5872 Y16.9594
G01 X53.5822 Y16.9537
G01 X53.5634 Y16.9252
G01 X53.5589 Y16.9165
G01 X53.5562 Y16.9072
G00 Z2.0000
G00 X53.4000 Y20.3500
G01 F60.00
G01 Z-0.0500
G01 F120.00
G01 X54.2999 Y20.3500
G01 X54.2999 Y17.0000
G01 X54.3012 Y16.9780
G01 X54.3038 Y16.9610
G01 X54.3085 Y16.9419
G01 X54.3152 Y16.9234
G01 X54.3224 Y16.9079
G01 X54.3336 Y16.8888
G01 X54.3453 Y16.8731
G01 X54.3585 Y16.8585
G01 X57.5979 Y13.6192
G01 X57.5880 Y13.6025
G01 X57.5566 Y13.5359
G01 X57.5323 Y13.4677
G01 X57.5147 Y13.3975
G01 X57.5034 Y13.3211
G01 X57.5000 Y13.2500
G01 X57.5037 Y13.1753
G01 X57.5144 Y13.1037
G01 X57.5323 Y13.0323
G01 X57.5571 Y12.9630
G01 X57.5875 Y12.8986
G01 X57.6278 Y12.8313
G01 X57.6702 Y12.7742
G01 X57.7197 Y12.7197
G01 X57.7742 Y12.6702
G01 X57.8313 Y12.6278
G01 X57.8986 Y12.5875
G01 X57.9630 Y12.5571
G01 X58.0323 Y12.5323
G01 X58.1037 Y12.5144
G01 X58.1765 Y12.5036
G01 X58.2500 Y12.5000
G01 X58.3211 Y12.5034
G01 X58.3987 Y12.5149
G01 X58.4677 Y12.5323
G01 X58.5370 Y12.5571
G01 X58.6035 Y12.5886
G01 X58.6667 Y12.6264
G01 X58.7258 Y12.6702
G01 X58.7803 Y12.7197
G01 X58.8298 Y12.7742
G01 X58.8749 Y12.8354
G01 X58.9125 Y12.8986
G01 X58.9429 Y12.9630
G01 X58.9669 Y13.0300
G01 X58.9856 Y13.1037
G01 X58.9961 Y13.1741
G01 X59.0000 Y13.2500
G01 X58.9964 Y13.3235
G01 X58.9856 Y13.3963
G01 X58.9677 Y13.4677
G01 X58.9429 Y13.5370
G01 X58.9114 Y13.6035
G01 X58.8736 Y13.6667
G01 X58.8282 Y13.7277
G01 X58.7803 Y13.7803
G01 X58.7258 Y13.8298
G01 X58.6667 Y13.8736
G01 X58.6057 Y13.9102
G01 X58.5347 Y13.9438
G01 X58.4677 Y13.9677
G01 X58.3951 Y13.9858
G01 X58.3235 Y13.9964
G01 X58.2500 Y14.0000
G01 X58.1765 Y13.9964
G01 X58.1049 Y13.9858
G01 X58.0323 Y13.9677
G01 X57.9641 Y13.9434
G01 X57.8975 Y13.9120
G01 X57.8808 Y13.9021
G01 X54.7001 Y17.0829
G01 X54.7001 Y20.3500
G01 X55.4025 Y20.3501
G01 X55.4098 Y20.3510
G01 X55.4168 Y20.3529
G01 X55.4236 Y20.3559
G01 X55.4298 Y20.3598
G01 X55.4354 Y20.3646
G01 X55.4402 Y20.3702
G01 X55.4441 Y20.3764
G01 X55.4471 Y20.3832
G01 X55.4493 Y20.3915
G01 X55.4500 Y20.4000
G01 X55.4500 Y22.4000
G01 X55.4490 Y22.4098
G01 X55.4478 Y22.4145
G01 X55.4457 Y22.4203
G01 X55.4409 Y22.4288
G01 X55.4345 Y22.4362
G01 X55.4278 Y22.4416
G01 X55.4191 Y22.4462
G01 X55.4098 Y22.4490
G01 X55.4000 Y22.4500
G01 X53.4000 Y22.4500
G01 X53.3902 Y22.4490
G01 X53.3809 Y22.4462
G01 X53.3754 Y22.4435
G01 X53.3712 Y22.4409
G01 X53.3638 Y22.4345
G01 X53.3578 Y22.4267
G01 X53.3534 Y22.4180
G01 X53.3510 Y22.4098
G01 X53.3500 Y22.4000
G01 X53.3500 Y20.3988
G01 X53.3512 Y20.3890
G01 X53.3543 Y20.3797
G01 X53.3591 Y20.3712
G01 X53.3655 Y20.3638
G01 X53.3733 Y20.3578
G01 X53.3809 Y20.3538
G01 X53.3902 Y20.3510
G01 X53.4000 Y20.3500
G00 Z2.0000
G00 X52.1659 Y23.8604
G01 F60.00
G01 Z-0.0500
G01 F120.00
G01 X52.1606 Y23.8316
G01 X52.1600 Y23.8238
G01 X52.1600 Y22.6048
G01 X52.1610 Y22.5949
G01 X52.1673 Y22.5640
G01 X52.1695 Y22.5568
G01 X52.1722 Y22.5510
G01 X52.1748 Y22.5468
G01 X52.1927 Y22.5208
G01 X52.1973 Y22.5153
G01 X52.2047 Y22.5090
G01 X52.2336 Y22.4902
G01 X52.5114 Y22.3749
G01 X52.8349 Y22.0514
G01 X53.0088 Y21.6320
G01 X53.0120 Y21.6266
G01 X53.0297 Y21.6004
G01 X53.0353 Y21.5939
G01 X53.0430 Y21.5876
G01 X53.0695 Y21.5704
G01 X53.0762 Y21.5669
G01 X53.0809 Y21.5652
G01 X53.0870 Y21.5637
G01 X53.1181 Y21.5582
G01 X53.1268 Y21.5576
G01 X53.1319 Y21.5580
G01 X53.1368 Y21.5589
G01 X53.1676 Y21.5660
G01 X53.1758 Y21.5688
G01 X53.1834 Y21.5731
G01 X53.2090 Y21.5915
G01 X53.2129 Y21.5946
G01 X53.2174 Y21.5991
G01 X53.2219 Y21.6051
G01 X53.2389 Y21.6332
G01 X53.2416 Y21.6387
G01 X53.2437 Y21.6446
G01 X53.2495 Y21.6764
G01 X53.2500 Y21.6838
G01 X53.2500 Y22.4621
G01 X53.3379 Y22.5500
G01 X55.4621 Y22.5500
G01 X55.5500 Y22.4621
G01 X55.5500 Y20.3379
G01 X55.4621 Y20.2500
G01 X54.9250 Y20.2500
G01 X54.9175 Y20.2492
G01 X54.8829 Y20.2421
G01 X54.8747 Y20.2390
G01 X54.8682 Y20.2352
G01 X54.8412 Y20.2165
G01 X54.8356 Y20.2116
G01 X54.8316 Y20.2069
G01 X54.8124 Y20.1773
G01 X54.8086 Y20.1697
G01 X54.8062 Y20.1616
G01 X54.8004 Y20.1303
G01 X54.8000 Y20.1238
G01 X54.8000 Y17.1765
G01 X54.8010 Y17.1666
G01 X54.8072 Y17.1357
G01 X54.8099 Y17.1275
G01 X54.8146 Y17.1188
G01 X54.8316 Y17.0937
G01 X54.8369 Y17.0873
G01 X57.8398 Y14.0844
G01 X57.8446 Y14.0803
G01 X57.8740 Y14.0607
G01 X57.8829 Y14.0563
G01 X57.8900 Y14.0542
G01 X57.9211 Y14.0484
G01 X57.9271 Y14.0476
G01 X57.9320 Y14.0475
G01 X57.9405 Y14.0485
G01 X57.9695 Y14.0546
G01 X57.9751 Y14.0563
G01 X58.0809 Y14.1000
G01 X58.4191 Y14.1000
G01 X58.7315 Y13.9706
G01 X58.9854 Y13.7167
G01 X58.9912 Y13.7119
G01 X59.0208 Y13.6925
G01 X59.0276 Y13.6893
G01 X59.0349 Y13.6872
G01 X59.0672 Y13.6812
G01 X59.0758 Y13.6806
G01 X59.0845 Y13.6815
G01 X59.1177 Y13.6889
G01 X59.1248 Y13.6914
G01 X59.1324 Y13.6955
G01 X59.1592 Y13.7145
G01 X59.1658 Y13.7204
G01 X59.1713 Y13.7273
G01 X59.1879 Y13.7542
G01 X59.1913 Y13.7608
G01 X59.1940 Y13.7692
G01 X59.1994 Y13.7993
G01 X59.2000 Y13.8068
G01 X59.2000 Y20.3235
G01 X59.1990 Y20.3334
G01 X59.1928 Y20.3643
G01 X59.1906 Y20.3714
G01 X59.1861 Y20.3802
G01 X59.1691 Y20.4053
G01 X59.1631 Y20.4127
G01 X54.1602 Y25.4156
G01 X54.1534 Y25.4212
G01 X54.1270 Y25.4386
G01 X54.1217 Y25.4417
G01 X54.1171 Y25.4437
G01 X54.1112 Y25.4455
G01 X54.0777 Y25.4519
G01 X54.0680 Y25.4525
G01 X54.0595 Y25.4515
G01 X54.0305 Y25.4454
G01 X54.0249 Y25.4437
G01 X53.9191 Y25.4000
G01 X53.5809 Y25.4000
G01 X53.2685 Y25.5294
G01 X53.1637 Y25.6342
G01 X53.1588 Y25.6381
G01 X53.1325 Y25.6556
G01 X53.1281 Y25.6581
G01 X53.1235 Y25.6603
G01 X53.1151 Y25.6628
G01 X53.0816 Y25.6690
G01 X53.0729 Y25.6694
G01 X53.0655 Y25.6685
G01 X53.0335 Y25.6615
G01 X53.0252 Y25.6586
G01 X53.0176 Y25.6545
G01 X52.9888 Y25.6340
G01 X52.9842 Y25.6296
G01 X52.9794 Y25.6237
G01 X52.9621 Y25.5958
G01 X52.9587 Y25.5892
G01 X52.9570 Y25.5845
G01 X52.9557 Y25.5796
G01 X52.9506 Y25.5507
G01 X52.9500 Y25.5445
G01 X52.9500 Y24.0379
G01 X52.8621 Y23.9500
G01 X52.2862 Y23.9500
G01 X52.2800 Y23.9496
G01 X52.2454 Y23.9427
G01 X52.2370 Y23.9400
G01 X52.2292 Y23.9359
G01 X52.2012 Y23.9165
G01 X52.1956 Y23.9116
G01 X52.1916 Y23.9069
G01 X52.1730 Y23.8783
G01 X52.1686 Y23.8697
G01 X52.1659 Y23.8604
G00 Z2.0000
G00 X51.9589 Y26.3632
G01 F60.00
G01 Z-0.0500
G01 F120.00
G01 X51.9660 Y26.3324
G01 X51.9694 Y26.3231
G01 X51.9731 Y26.3166
G01 X51.9915 Y26.2910
G01 X51.9973 Y26.2843
G01 X52.0010 Y26.2810
G01 X52.0051 Y26.2781
G01 X52.0332 Y26.2611
G01 X52.0387 Y26.2584
G01 X52.0482 Y26.2555
G01 X52.0776 Y26.2504
G01 X52.0838 Y26.2500
G01 X52.7750 Y26.2500
G01 X52.7825 Y26.2508
G01 X52.8146 Y26.2573
G01 X52.8207 Y26.2590
G01 X52.8264 Y26.2616
G01 X52.8318 Y26.2648
G01 X52.8579 Y26.2827
G01 X52.8644 Y26.2884
G01 X52.8706 Y26.2962
G01 X52.8876 Y26.3227
G01 X52.8909 Y26.3292
G01 X52.8938 Y26.3384
G01 X52.8997 Y26.3710
G01 X52.9000 Y26.4191
G01 X53.0294 Y26.7315
G01 X53.2685 Y26.9706
G01 X53.5809 Y27.1000
G01 X53.6711 Y27.1000
G01 X53.6798 Y27.1008
G01 X53.7119 Y27.1073
G01 X53.7203 Y27.1100
G01 X53.7281 Y27.1141
G01 X53.7552 Y27.1327
G01 X53.7609 Y27.1376
G01 X53.7658 Y27.1432
G01 X53.7842 Y27.1718
G01 X53.7883 Y27.1795
G01 X53.7912 Y27.1891
G01 X53.7967 Y27.2214
G01 X53.7972 Y27.2264
G01 X53.7971 Y27.2315
G01 X53.7961 Y27.2389
G01 X53.7888 Y27.2696
G01 X53.7870 Y27.2756
G01 X53.7851 Y27.2802
G01 X53.7819 Y27.2856
G01 X53.7659 Y27.3086
G01 X53.7603 Y27.3155
G01 X53.1627 Y27.9128
G01 X53.1578 Y27.9166
G01 X53.1325 Y27.9334
G01 X53.1248 Y27.9375
G01 X53.1201 Y27.9393
G01 X53.1153 Y27.9406
G01 X53.0831 Y27.9466
G01 X53.0736 Y27.9473
G01 X53.0653 Y27.9463
G01 X53.0333 Y27.9392
G01 X53.0274 Y27.9374
G01 X53.0229 Y27.9354
G01 X53.0166 Y27.9316
G01 X52.9897 Y27.9125
G01 X52.9842 Y27.9074
G01 X52.9794 Y27.9015
G01 X52.9615 Y27.8726
G01 X52.9582 Y27.8658
G01 X52.9557 Y27.8574
G01 X52.9504 Y27.8274
G01 X52.9500 Y27.8211
G01 X52.9500 Y27.4112
G01 X52.7749 Y26.9886
G01 X52.4514 Y26.6651
G01 X52.0355 Y26.4928
G01 X52.0288 Y26.4894
G01 X52.0005 Y26.4705
G01 X51.9939 Y26.4648
G01 X51.9883 Y26.4580
G01 X51.9691 Y26.4283
G01 X51.9660 Y26.4214
G01 X51.9642 Y26.4154
G01 X51.9582 Y26.3819
G01 X51.9576 Y26.3732
G01 X51.9580 Y26.3681
G01 X51.9589 Y26.3632
G00 Z2.0000
G00 X50.7500 Y25.9671
G01 F60.00
G01 Z-0.0500
G01 F120.00
G01 X50.7500 Y24.1000
G01 X50.7504 Y24.0939
G01 X50.7512 Y24.0890
G01 X50.7529 Y24.0832
G01 X50.7548 Y24.0786
G01 X50.7584 Y24.0722
G01 X50.7630 Y24.0664
G01 X50.7683 Y24.0613
G01 X50.7733 Y24.0578
G01 X50.7797 Y24.0543
G01 X50.7855 Y24.0522
G01 X50.7927 Y24.0505
G01 X50.7988 Y24.0500
G01 X51.6599 Y24.0500
G01 X51.6599 Y22.4306
G01 X51.6528 Y22.4293
G01 X51.5552 Y22.4048
G01 X51.4582 Y22.3701
G01 X51.3650 Y22.3260
G01 X51.2767 Y22.2730
G01 X51.1939 Y22.2117
G01 X51.1175 Y22.1425
G01 X51.0483 Y22.0661
G01 X50.9870 Y21.9833
G01 X50.9340 Y21.8950
G01 X50.8899 Y21.8018
G01 X50.8552 Y21.7048
G01 X50.8302 Y21.6048
G01 X50.8151 Y21.5029
G01 X50.8100 Y21.4000
G01 X50.8151 Y21.2971
G01 X50.8304 Y21.1940
G01 X50.8552 Y21.0952
G01 X50.8899 Y20.9982
G01 X50.9340 Y20.9050
G01 X50.9870 Y20.8167
G01 X51.0483 Y20.7339
G01 X51.1175 Y20.6575
G01 X51.1939 Y20.5883
G01 X51.2767 Y20.5270
G01 X51.3650 Y20.4740
G01 X51.4582 Y20.4299
G01 X51.5552 Y20.3952
G01 X51.6552 Y20.3702
G01 X51.7571 Y20.3551
G01 X51.8600 Y20.3500
G01 X51.9629 Y20.3551
G01 X52.0660 Y20.3704
G01 X52.1648 Y20.3952
G01 X52.2595 Y20.4290
G01 X52.3550 Y20.4740
G01 X52.4433 Y20.5270
G01 X52.5242 Y20.5868
G01 X52.6042 Y20.6593
G01 X52.6717 Y20.7339
G01 X52.7316 Y20.8146
G01 X52.7871 Y20.9072
G01 X52.8301 Y20.9982
G01 X52.8648 Y21.0952
G01 X52.8898 Y21.1952
G01 X52.9046 Y21.2946
G01 X52.9100 Y21.4000
G01 X52.9049 Y21.5029
G01 X52.8898 Y21.6048
G01 X52.8648 Y21.7048
G01 X52.8301 Y21.8018
G01 X52.7860 Y21.8950
G01 X52.7330 Y21.9833
G01 X52.6732 Y22.0642
G01 X52.6025 Y22.1425
G01 X52.5261 Y22.2117
G01 X52.4433 Y22.2730
G01 X52.3571 Y22.3248
G01 X52.2618 Y22.3701
G01 X52.1671 Y22.4040
G01 X52.0672 Y22.4293
G01 X52.0601 Y22.4306
G01 X52.0601 Y24.0500
G01 X52.8025 Y24.0501
G01 X52.8110 Y24.0512
G01 X52.8180 Y24.0534
G01 X52.8257 Y24.0571
G01 X52.8317 Y24.0613
G01 X52.8379 Y24.0673
G01 X52.8429 Y24.0743
G01 X52.8462 Y24.0809
G01 X52.8488 Y24.0890
G01 X52.8498 Y24.0951
G01 X52.8500 Y24.1000
G01 X52.8500 Y26.1000
G01 X52.8496 Y26.1061
G01 X52.8485 Y26.1121
G01 X52.8462 Y26.1191
G01 X52.8422 Y26.1267
G01 X52.8370 Y26.1336
G01 X52.8308 Y26.1394
G01 X52.8236 Y26.1441
G01 X52.8168 Y26.1471
G01 X52.8098 Y26.1490
G01 X52.8012 Y26.1500
G01 X51.1329 Y26.1500
G01 X50.4501 Y26.8329
G01 X50.4501 Y48.4171
G01 X55.8915 Y53.8585
G01 X55.9062 Y53.8750
G01 X55.9164 Y53.8888
G01 X55.9265 Y53.9057
G01 X55.9357 Y53.9257
G01 X55.9415 Y53.9419
G01 X55.9460 Y53.9598
G01 X55.9491 Y53.9804
G01 X55.9501 Y54.0000
G01 X55.9501 Y74.2500
G01 X55.9491 Y74.2696
G01 X55.9462 Y74.2890
G01 X55.9415 Y74.3081
G01 X55.9348 Y74.3266
G01 X55.9265 Y74.3443
G01 X55.9164 Y74.3612
G01 X55.9047 Y74.3769
G01 X55.8915 Y74.3915
G01 X51.9501 Y78.3329
G01 X51.9501 Y90.6875
G01 X51.9820 Y90.6956
G01 X52.0789 Y90.7304
G01 X52.1710 Y90.7740
G01 X52.2583 Y90.8263
G01 X52.3421 Y90.8883
G01 X52.4167 Y90.9558
G01 X52.4884 Y91.0348
G01 X52.5490 Y91.1167
G01 X52.6020 Y91.2050
G01 X52.6461 Y91.2982
G01 X52.6800 Y91.3929
G01 X52.7062 Y91.4976
G01 X52.7209 Y91.5971
G01 X52.7260 Y91.7000
G01 X52.7209 Y91.8029
G01 X52.7062 Y91.9024
G01 X52.6800 Y92.0071
G01 X52.6461 Y92.1018
G01 X52.6020 Y92.1950
G01 X52.5490 Y92.2833
G01 X52.4884 Y92.3652
G01 X52.4185 Y92.4425
G01 X52.3440 Y92.5101
G01 X52.2583 Y92.5737
G01 X52.1710 Y92.6260
G01 X52.0789 Y92.6696
G01 X51.9820 Y92.7044
G01 X51.9501 Y92.7125
G01 X51.9501 Y93.8915
G01 X51.9671 Y93.8960
G01 X52.0641 Y93.9309
G01 X52.1550 Y93.9740
G01 X52.2433 Y94.0270
G01 X52.3261 Y94.0883
G01 X52.4007 Y94.1558
G01 X52.4732 Y94.2358
G01 X52.5330 Y94.3167
G01 X52.5860 Y94.4050
G01 X52.6301 Y94.4982
G01 X52.6640 Y94.5929
G01 X52.6902 Y94.6976
G01 X52.7049 Y94.7971
G01 X52.7100 Y94.9012
G01 X52.7049 Y95.0029
G01 X52.6898 Y95.1048
G01 X52.6648 Y95.2048
G01 X52.6301 Y95.3018
G01 X52.5860 Y95.3950
G01 X52.5330 Y95.4833
G01 X52.4717 Y95.5661
G01 X52.4025 Y95.6425
G01 X52.3261 Y95.7117
G01 X52.2433 Y95.7730
G01 X52.1550 Y95.8260
G01 X52.0618 Y95.8701
G01 X51.9648 Y95.9048
G01 X51.8648 Y95.9298
G01 X51.7629 Y95.9449
G01 X51.6612 Y95.9500
G01 X51.5571 Y95.9449
G01 X51.4552 Y95.9298
G01 X51.3552 Y95.9048
G01 X51.2582 Y95.8701
G01 X51.1650 Y95.8260
G01 X51.0767 Y95.7730
G01 X50.9939 Y95.7117
G01 X50.9175 Y95.6425
G01 X50.8483 Y95.5661
G01 X50.7870 Y95.4833
G01 X50.7340 Y95.3950
G01 X50.6899 Y95.3018
G01 X50.6552 Y95.2048
G01 X50.6302 Y95.1048
G01 X50.6151 Y95.0029
G01 X50.6100 Y94.9000
G01 X50.6151 Y94.7971
G01 X50.6302 Y94.6952
G01 X50.6552 Y94.5952
G01 X50.6890 Y94.5005
G01 X50.7352 Y94.4029
G01 X50.7870 Y94.3167
G01 X50.8499 Y94.2320
G01 X50.9175 Y94.1575
G01 X50.9939 Y94.0883
G01 X51.0767 Y94.0270
G01 X51.1650 Y93.9740
G01 X51.2582 Y93.9299
G01 X51.3552 Y93.8952
G01 X51.4552 Y93.8702
G01 X51.5499 Y93.8561
G01 X51.5499 Y92.7416
G01 X51.4712 Y92.7298
G01 X51.3712 Y92.7048
G01 X51.2742 Y92.6701
G01 X51.1810 Y92.6260
G01 X51.0927 Y92.5730
G01 X51.0099 Y92.5117
G01 X50.9335 Y92.4425
G01 X50.8659 Y92.3680
G01 X50.8016 Y92.2813
G01 X50.7500 Y92.1950
G01 X50.7050 Y92.0995
G01 X50.6712 Y92.0048
G01 X50.6462 Y91.9048
G01 X50.6311 Y91.8029
G01 X50.6260 Y91.7000
G01 X50.6311 Y91.5971
G01 X50.6462 Y91.4952
G01 X50.6712 Y91.3952
G01 X50.7050 Y91.3005
G01 X50.7512 Y91.2029
G01 X50.8030 Y91.1167
G01 X50.8659 Y91.0320
G01 X50.9335 Y90.9575
G01 X51.0099 Y90.8883
G01 X51.0927 Y90.8270
G01 X51.1810 Y90.7740
G01 X51.2742 Y90.7299
G01 X51.3712 Y90.6952
G01 X51.4712 Y90.6702
G01 X51.5499 Y90.6584
G01 X51.5499 Y78.2500
G01 X51.5509 Y78.2304
G01 X51.5535 Y78.2122
G01 X51.5593 Y78.1896
G01 X51.5652 Y78.1734
G01 X51.5735 Y78.1557
G01 X51.5836 Y78.1388
G01 X51.5938 Y78.1250
G01 X51.6085 Y78.1085
G01 X55.5499 Y74.1671
G01 X55.5499 Y54.0829
G01 X50.1085 Y48.6415
G01 X50.0938 Y48.6250
G01 X50.0836 Y48.6112
G01 X50.0735 Y48.5943
G01 X50.0652 Y48.5766
G01 X50.0593 Y48.5604
G01 X50.0535 Y48.5378
G01 X50.0509 Y48.5196
G01 X50.0499 Y48.5000
G01 X50.0499 Y26.7488
G01 X50.0509 Y26.7304
G01 X50.0538 Y26.7110
G01 X50.0585 Y26.6919
G01 X50.0643 Y26.6757
G01 X50.0748 Y26.6536
G01 X50.0836 Y26.6388
G01 X50.0969 Y26.6212
G01 X50.1085 Y26.6085
G01 X50.7500 Y25.9671
G00 Z2.0000
G00 X50.5552 Y27.0526
G01 F60.00
G01 Z-0.0500
G01 F120.00
G01 X50.5505 Y27.0256
G01 X50.5500 Y27.0194
G01 X50.5500 Y26.9265
G01 X50.5504 Y26.9203
G01 X50.5572 Y26.8857
G01 X50.5599 Y26.8775
G01 X50.5639 Y26.8698
G01 X50.5823 Y26.8427
G01 X50.5869 Y26.8373
G01 X51.1373 Y26.2869
G01 X51.1440 Y26.2813
G01 X51.1713 Y26.2633
G01 X51.1801 Y26.2589
G01 X51.1883 Y26.2565
G01 X51.2169 Y26.2509
G01 X51.2229 Y26.2501
G01 X51.5174 Y26.2500
G01 X51.5249 Y26.2508
G01 X51.5558 Y26.2570
G01 X51.5607 Y26.2582
G01 X51.5666 Y26.2605
G01 X51.5732 Y26.2641
G01 X51.6012 Y26.2835
G01 X51.6068 Y26.2884
G01 X51.6116 Y26.2941
G01 X51.6300 Y26.3227
G01 X51.6324 Y26.3271
G01 X51.6344 Y26.3318
G01 X51.6364 Y26.3391
G01 X51.6417 Y26.3702
G01 X51.6424 Y26.3764
G01 X51.6423 Y26.3815
G01 X51.6413 Y26.3889
G01 X51.6340 Y26.4196
G01 X51.6308 Y26.4290
G01 X51.6258 Y26.4376
G01 X51.6071 Y26.4631
G01 X51.6021 Y26.4687
G01 X51.5943 Y26.4748
G01 X51.5711 Y26.4895
G01 X51.5657 Y26.4923
G01 X51.1486 Y26.6651
G01 X50.8251 Y26.9886
G01 X50.7907 Y27.0711
G01 X50.7697 Y27.1025
G01 X50.7648 Y27.1081
G01 X50.7590 Y27.1130
G01 X50.7304 Y27.1317
G01 X50.7226 Y27.1356
G01 X50.7142 Y27.1381
G01 X50.6832 Y27.1436
G01 X50.6757 Y27.1444
G01 X50.6670 Y27.1439
G01 X50.6301 Y27.1355
G01 X50.6231 Y27.1327
G01 X50.6165 Y27.1289
G01 X50.5899 Y27.1097
G01 X50.5834 Y27.1038
G01 X50.5781 Y27.0969
G01 X50.5605 Y27.0678
G01 X50.5571 Y27.0598
G01 X50.5552 Y27.0526
G00 Z2.0000
G00 X52.8499 Y27.6425
G01 F60.00
G01 Z-0.0500
G01 F120.00
G01 X52.8449 Y27.7429
G01 X52.8298 Y27.8448
G01 X52.8048 Y27.9448
G01 X52.7701 Y28.0418
G01 X52.7260 Y28.1350
G01 X52.6730 Y28.2233
G01 X52.6117 Y28.3061
G01 X52.5425 Y28.3825
G01 X52.4661 Y28.4517
G01 X52.3833 Y28.5130
G01 X52.2950 Y28.5660
G01 X52.2018 Y28.6101
G01 X52.1048 Y28.6448
G01 X52.0048 Y28.6698
G01 X51.9029 Y28.6849
G01 X51.8000 Y28.6900
G01 X51.6971 Y28.6849
G01 X51.5952 Y28.6698
G01 X51.4952 Y28.6448
G01 X51.3982 Y28.6101
G01 X51.3050 Y28.5660
G01 X51.2167 Y28.5130
G01 X51.1339 Y28.4517
G01 X51.0575 Y28.3825
G01 X50.9883 Y28.3061
G01 X50.9270 Y28.2233
G01 X50.8740 Y28.1350
G01 X50.8299 Y28.0418
G01 X50.7952 Y27.9448
G01 X50.7702 Y27.8448
G01 X50.7551 Y27.7429
G01 X50.7500 Y27.6400
G01 X50.7551 Y27.5371
G01 X50.7702 Y27.4352
G01 X50.7952 Y27.3352
G01 X50.8299 Y27.2382
G01 X50.8740 Y27.1450
G01 X50.9270 Y27.0567
G01 X50.9883 Y26.9739
G01 X51.0575 Y26.8975
G01 X51.1339 Y26.8283
G01 X51.2167 Y26.7670
G01 X51.3050 Y26.7140
G01 X51.3982 Y26.6699
G01 X51.4952 Y26.6352
G01 X51.5952 Y26.6102
G01 X51.6971 Y26.5951
G01 X51.8000 Y26.5900
G01 X51.9029 Y26.5951
G01 X52.0048 Y26.6102
G01 X52.1048 Y26.6352
G01 X52.2018 Y26.6699
G01 X52.2950 Y26.7140
G01 X52.3833 Y26.7670
G01 X52.4661 Y26.8283
G01 X52.5425 Y26.8975
G01 X52.6117 Y26.9739
G01 X52.6730 Y27.0567
G01 X52.7260 Y27.1450
G01 X52.7701 Y27.2382
G01 X52.8048 Y27.3352
G01 X52.8298 Y27.4352
G01 X52.8449 Y27.5371
G01 X52.8499 Y27.6425
G00 Z2.0000
G00 X54.5486 Y25.9180
G01 F60.00
G01 Z-0.0500
G01 F120.00
G01 X54.5552 Y25.8872
G01 X54.5583 Y25.8781
G01 X54.5617 Y25.8717
G01 X54.5784 Y25.8471
G01 X54.5844 Y25.8398
G01 X59.8000 Y20.6243
G01 X59.8000 Y13.2777
G01 X59.8008 Y13.2702
G01 X59.8073 Y13.2381
G01 X59.8086 Y13.2332
G01 X59.8110 Y13.2274
G01 X59.8148 Y13.2209
G01 X59.8335 Y13.1938
G01 X59.8394 Y13.1874
G01 X59.8463 Y13.1821
G01 X59.8728 Y13.1651
G01 X59.8807 Y13.1613
G01 X59.8891 Y13.1588
G01 X59.9214 Y13.1533
G01 X59.9302 Y13.1528
G01 X59.9377 Y13.1536
G01 X59.9709 Y13.1615
G01 X59.9779 Y13.1639
G01 X59.9866 Y13.1688
G01 X60.0097 Y13.1848
G01 X60.0145 Y13.1889
G01 X60.1656 Y13.3401
G01 X60.1694 Y13.3451
G01 X60.1867 Y13.3713
G01 X60.1907 Y13.3789
G01 X60.1932 Y13.3871
G01 X60.1998 Y13.4217
G01 X60.2000 Y15.6243
G01 X60.9139 Y16.3382
G01 X60.9194 Y16.3451
G01 X60.9367 Y16.3713
G01 X60.9402 Y16.3778
G01 X60.9432 Y16.3871
G01 X60.9495 Y16.4193
G01 X60.9500 Y16.4265
G01 X60.9500 Y20.0735
G01 X60.9490 Y20.0834
G01 X60.9428 Y20.1143
G01 X60.9401 Y20.1225
G01 X60.9354 Y20.1312
G01 X60.9184 Y20.1563
G01 X60.9131 Y20.1627
G01 X54.8155 Y26.2603
G01 X54.8098 Y26.2651
G01 X54.7814 Y26.2840
G01 X54.7770 Y26.2865
G01 X54.7725 Y26.2885
G01 X54.7653 Y26.2906
G01 X54.7331 Y26.2966
G01 X54.7283 Y26.2972
G01 X54.7224 Y26.2972
G01 X54.7153 Y26.2963
G01 X54.6845 Y26.2895
G01 X54.6798 Y26.2882
G01 X54.6740 Y26.2859
G01 X54.6676 Y26.2823
G01 X54.6408 Y26.2633
G01 X54.6350 Y26.2583
G01 X54.6309 Y26.2536
G01 X54.6109 Y26.2215
G01 X54.6082 Y26.2158
G01 X54.6063 Y26.2099
G01 X54.6008 Y26.1799
G01 X54.6001 Y26.1736
G01 X54.6000 Y26.0809
G01 X54.5558 Y25.9738
G01 X54.5542 Y25.9678
G01 X54.5478 Y25.9342
G01 X54.5476 Y25.9255
G01 X54.5486 Y25.9180
G00 Z2.0000
G00 X60.2042 Y21.7599
G01 F60.00
G01 Z-0.0500
G01 F120.00
G01 X60.2115 Y21.7291
G01 X60.2144 Y21.7209
G01 X60.2188 Y21.7134
G01 X60.2348 Y21.6903
G01 X60.2389 Y21.6855
G01 X61.5500 Y20.3743
G01 X61.5500 Y16.6762
G01 X61.5510 Y16.6663
G01 X61.5573 Y16.6354
G01 X61.5595 Y16.6282
G01 X61.5616 Y16.6236
G01 X61.5641 Y16.6192
G01 X61.5850 Y16.5892
G01 X61.5893 Y16.5847
G01 X61.5951 Y16.5801
G01 X61.6227 Y16.5624
G01 X61.6292 Y16.5591
G01 X61.6384 Y16.5562
G01 X61.6684 Y16.5506
G01 X61.6749 Y16.5500
G01 X63.1243 Y16.5500
G01 X63.7685 Y15.9057
G01 X63.7744 Y15.9009
G01 X63.8029 Y15.8822
G01 X63.8107 Y15.8784
G01 X63.8191 Y15.8761
G01 X63.8501 Y15.8702
G01 X63.8598 Y15.8696
G01 X63.8682 Y15.8706
G01 X63.8962 Y15.8764
G01 X63.9019 Y15.8780
G01 X64.2112 Y16.0060
G01 X64.6688 Y16.0060
G01 X65.0914 Y15.8309
G01 X65.4149 Y15.5074
G01 X65.5939 Y15.0754
G01 X65.5982 Y15.0677
G01 X65.6152 Y15.0425
G01 X65.6190 Y15.0376
G01 X65.6234 Y15.0331
G01 X65.6283 Y15.0293
G01 X65.6558 Y15.0114
G01 X65.6624 Y15.0080
G01 X65.6683 Y15.0059
G01 X65.6731 Y15.0048
G01 X65.7041 Y14.9992
G01 X65.7112 Y14.9986
G01 X65.7159 Y14.9988
G01 X65.7218 Y14.9996
G01 X65.7538 Y15.0070
G01 X65.7609 Y15.0093
G01 X65.7696 Y15.0141
G01 X65.7982 Y15.0348
G01 X65.8028 Y15.0392
G01 X65.8075 Y15.0452
G01 X65.8232 Y15.0699
G01 X65.8261 Y15.0754
G01 X66.0051 Y15.5074
G01 X66.3286 Y15.8309
G01 X66.3756 Y15.8505
G01 X66.3810 Y15.8537
G01 X66.4082 Y15.8721
G01 X66.4137 Y15.8770
G01 X66.4185 Y15.8827
G01 X66.4384 Y15.9133
G01 X66.4415 Y15.9200
G01 X66.4433 Y15.9258
G01 X66.4491 Y15.9562
G01 X66.4499 Y15.9620
G01 X66.4498 Y16.0785
G01 X66.4428 Y16.1143
G01 X66.4401 Y16.1225
G01 X66.4361 Y16.1302
G01 X66.4163 Y16.1591
G01 X60.6583 Y21.9173
G01 X60.6534 Y21.9212
G01 X60.6260 Y21.9393
G01 X60.6171 Y21.9437
G01 X60.6100 Y21.9458
G01 X60.5777 Y21.9519
G01 X60.5717 Y21.9525
G01 X60.5668 Y21.9524
G01 X60.5595 Y21.9515
G01 X60.5305 Y21.9454
G01 X60.5249 Y21.9437
G01 X60.4191 Y21.9000
G01 X60.3252 Y21.8999
G01 X60.3190 Y21.8990
G01 X60.2893 Y21.8930
G01 X60.2832 Y21.8914
G01 X60.2774 Y21.8890
G01 X60.2719 Y21.8859
G01 X60.2448 Y21.8673
G01 X60.2400 Y21.8633
G01 X60.2366 Y21.8597
G01 X60.2328 Y21.8548
G01 X60.2151 Y21.8272
G01 X60.2117 Y21.8205
G01 X60.2094 Y21.8134
G01 X60.2035 Y21.7798
G01 X60.2029 Y21.7748
G01 X60.2028 Y21.7698
G01 X60.2032 Y21.7648
G01 X60.2042 Y21.7599
G00 Z2.0000
G00 X60.6192 Y22.0979
G01 F60.00
G01 Z-0.0500
G01 F120.00
G01 X66.5499 Y16.1671
G01 X66.5499 Y15.8128
G01 X66.4850 Y15.7820
G01 X66.3987 Y15.7304
G01 X66.3148 Y15.6684
G01 X66.2375 Y15.5985
G01 X66.1676 Y15.5212
G01 X66.1056 Y15.4373
G01 X66.0540 Y15.3510
G01 X66.0109 Y15.2601
G01 X65.9752 Y15.1608
G01 X65.9502 Y15.0608
G01 X65.9351 Y14.9589
G01 X65.9301 Y14.8535
G01 X65.9354 Y14.7506
G01 X65.9502 Y14.6512
G01 X65.9746 Y14.5536
G01 X66.0099 Y14.4542
G01 X66.0540 Y14.3610
G01 X66.1070 Y14.2727
G01 X66.1691 Y14.1889
G01 X66.2375 Y14.1135
G01 X66.3139 Y14.0443
G01 X66.3967 Y13.9830
G01 X66.4850 Y13.9300
G01 X66.5782 Y13.8859
G01 X66.6752 Y13.8512
G01 X66.7752 Y13.8262
G01 X66.8771 Y13.8111
G01 X66.9800 Y13.8060
G01 X67.0829 Y13.8111
G01 X67.1848 Y13.8262
G01 X67.2848 Y13.8512
G01 X67.3818 Y13.8859
G01 X67.4750 Y13.9300
G01 X67.5633 Y13.9830
G01 X67.6471 Y14.0451
G01 X67.7225 Y14.1135
G01 X67.7917 Y14.1899
G01 X67.8530 Y14.2727
G01 X67.9060 Y14.3610
G01 X67.9501 Y14.4542
G01 X67.9848 Y14.5512
G01 X68.0098 Y14.6512
G01 X68.0249 Y14.7531
G01 X68.0300 Y14.8560
G01 X68.0249 Y14.9589
G01 X68.0098 Y15.0608
G01 X67.9848 Y15.1608
G01 X67.9501 Y15.2578
G01 X67.9060 Y15.3510
G01 X67.8530 Y15.4393
G01 X67.7917 Y15.5221
G01 X67.7225 Y15.5985
G01 X67.6442 Y15.6692
G01 X67.5633 Y15.7290
G01 X67.4771 Y15.7808
G01 X67.3829 Y15.8256
G01 X67.2848 Y15.8608
G01 X67.1836 Y15.8860
G01 X67.0817 Y15.9010
G01 X66.9812 Y15.9060
G01 X66.9501 Y15.9046
G01 X66.9501 Y16.2500
G01 X66.9490 Y16.2708
G01 X66.9462 Y16.2890
G01 X66.9415 Y16.3081
G01 X66.9348 Y16.3266
G01 X66.9276 Y16.3421
G01 X66.9149 Y16.3632
G01 X66.9047 Y16.3769
G01 X66.8923 Y16.3906
G01 X60.9021 Y22.3808
G01 X60.9120 Y22.3975
G01 X60.9434 Y22.4641
G01 X60.9677 Y22.5323
G01 X60.9853 Y22.6025
G01 X60.9964 Y22.6765
G01 X60.9999 Y22.7475
G01 X60.9963 Y22.8247
G01 X60.9856 Y22.8963
G01 X60.9677 Y22.9677
G01 X60.9429 Y23.0370
G01 X60.9125 Y23.1014
G01 X60.8722 Y23.1687
G01 X60.8298 Y23.2258
G01 X60.7803 Y23.2803
G01 X60.7258 Y23.3298
G01 X60.6687 Y23.3722
G01 X60.6014 Y23.4125
G01 X60.5370 Y23.4429
G01 X60.4677 Y23.4677
G01 X60.3963 Y23.4856
G01 X60.3259 Y23.4961
G01 X60.2475 Y23.4999
G01 X60.1765 Y23.4964
G01 X60.1037 Y23.4856
G01 X60.0323 Y23.4677
G01 X59.9653 Y23.4438
G01 X59.8954 Y23.4108
G01 X59.8333 Y23.3736
G01 X59.7742 Y23.3298
G01 X59.7197 Y23.2803
G01 X59.6702 Y23.2258
G01 X59.6264 Y23.1667
G01 X59.5886 Y23.1035
G01 X59.5571 Y23.0370
G01 X59.5323 Y22.9677
G01 X59.5144 Y22.8963
G01 X59.5036 Y22.8235
G01 X59.5000 Y22.7500
G01 X59.5036 Y22.6765
G01 X59.5144 Y22.6037
G01 X59.5323 Y22.5323
G01 X59.5571 Y22.4630
G01 X59.5892 Y22.3954
G01 X59.6264 Y22.3333
G01 X59.6702 Y22.2742
G01 X59.7197 Y22.2197
G01 X59.7742 Y22.1702
G01 X59.8333 Y22.1264
G01 X59.8965 Y22.0886
G01 X59.9630 Y22.0571
G01 X60.0335 Y22.0320
G01 X60.1037 Y22.0144
G01 X60.1765 Y22.0036
G01 X60.2500 Y22.0000
G01 X60.3247 Y22.0037
G01 X60.3963 Y22.0144
G01 X60.4689 Y22.0327
G01 X60.5381 Y22.0576
G01 X60.6025 Y22.0880
G01 X60.6192 Y22.0979
G00 Z2.0000
G00 X45.2899 Y21.4025
G01 F60.00
G01 Z-0.0500
G01 F120.00
G01 X45.2849 Y21.5029
G01 X45.2698 Y21.6048
G01 X45.2448 Y21.7048
G01 X45.2101 Y21.8018
G01 X45.1660 Y21.8950
G01 X45.1130 Y21.9833
G01 X45.0517 Y22.0661
G01 X44.9825 Y22.1425
G01 X44.9061 Y22.2117
G01 X44.8233 Y22.2730
G01 X44.7350 Y22.3260
G01 X44.6418 Y22.3701
G01 X44.5448 Y22.4048
G01 X44.4448 Y22.4298
G01 X44.3429 Y22.4449
G01 X44.2400 Y22.4500
G01 X44.1371 Y22.4449
G01 X44.0352 Y22.4298
G01 X43.9352 Y22.4048
G01 X43.8382 Y22.3701
G01 X43.7450 Y22.3260
G01 X43.6567 Y22.2730
G01 X43.5739 Y22.2117
G01 X43.4975 Y22.1425
G01 X43.4283 Y22.0661
G01 X43.3670 Y21.9833
G01 X43.3140 Y21.8950
G01 X43.2699 Y21.8018
G01 X43.2352 Y21.7048
G01 X43.2102 Y21.6048
G01 X43.1951 Y21.5029
G01 X43.1900 Y21.4000
G01 X43.1951 Y21.2971
G01 X43.2102 Y21.1952
G01 X43.2352 Y21.0952
G01 X43.2699 Y20.9982
G01 X43.3140 Y20.9050
G01 X43.3670 Y20.8167
G01 X43.4283 Y20.7339
G01 X43.4975 Y20.6575
G01 X43.5739 Y20.5883
G01 X43.6567 Y20.5270
G01 X43.7450 Y20.4740
G01 X43.8382 Y20.4299
G01 X43.9352 Y20.3952
G01 X44.0352 Y20.3702
G01 X44.1371 Y20.3551
G01 X44.2400 Y20.3500
G01 X44.3429 Y20.3551
G01 X44.4448 Y20.3702
G01 X44.5448 Y20.3952
G01 X44.6418 Y20.4299
G01 X44.7350 Y20.4740
G01 X44.8233 Y20.5270
G01 X44.9061 Y20.5883
G01 X44.9825 Y20.6575
G01 X45.0517 Y20.7339
G01 X45.1130 Y20.8167
G01 X45.1660 Y20.9050
G01 X45.2101 Y20.9982
G01 X45.2448 Y21.0952
G01 X45.2698 Y21.1952
G01 X45.2849 Y21.2971
G01 X45.2899 Y21.4025
G00 Z2.0000
G00 X42.4060 Y20.4143
G01 F60.00
G01 Z-0.0500
G01 F120.00
G01 X42.4127 Y20.3835
G01 X42.4142 Y20.3787
G01 X42.4161 Y20.3740
G01 X42.4198 Y20.3675
G01 X42.4381 Y20.3417
G01 X42.4412 Y20.3377
G01 X42.4447 Y20.3341
G01 X42.4485 Y20.3309
G01 X42.4527 Y20.3280
G01 X42.4795 Y20.3115
G01 X42.4851 Y20.3087
G01 X42.4898 Y20.3070
G01 X42.4947 Y20.3057
G01 X42.5260 Y20.3003
G01 X42.5310 Y20.3000
G01 X43.4102 Y20.3000
G01 X43.4177 Y20.3008
G01 X43.4486 Y20.3070
G01 X43.4535 Y20.3082
G01 X43.4582 Y20.3100
G01 X43.4628 Y20.3122
G01 X43.4670 Y20.3148
G01 X43.4931 Y20.3327
G01 X43.4996 Y20.3384
G01 X43.5058 Y20.3462
G01 X43.5228 Y20.3727
G01 X43.5265 Y20.3801
G01 X43.5284 Y20.3858
G01 X43.5294 Y20.3905
G01 X43.5346 Y20.4216
G01 X43.5351 Y20.4290
G01 X43.5341 Y20.4388
G01 X43.5266 Y20.4707
G01 X43.5246 Y20.4767
G01 X43.5225 Y20.4813
G01 X43.5200 Y20.4856
G01 X43.5008 Y20.5127
G01 X43.2651 Y20.7486
G01 X43.0861 Y21.1806
G01 X43.0826 Y21.1871
G01 X43.0650 Y21.2133
G01 X43.0598 Y21.2199
G01 X43.0536 Y21.2254
G01 X43.0252 Y21.2440
G01 X43.0187 Y21.2475
G01 X43.0129 Y21.2497
G01 X43.0069 Y21.2512
G01 X42.9759 Y21.2568
G01 X42.9676 Y21.2574
G01 X42.9582 Y21.2564
G01 X42.9274 Y21.2493
G01 X42.9226 Y21.2480
G01 X42.9169 Y21.2456
G01 X42.9104 Y21.2419
G01 X42.8828 Y21.2220
G01 X42.8772 Y21.2168
G01 X42.8725 Y21.2108
G01 X42.8568 Y21.1861
G01 X42.8534 Y21.1794
G01 X42.6749 Y20.7486
G01 X42.4417 Y20.5155
G01 X42.4384 Y20.5117
G01 X42.4180 Y20.4813
G01 X42.4150 Y20.4758
G01 X42.4128 Y20.4701
G01 X42.4113 Y20.4640
G01 X42.4051 Y20.4305
G01 X42.4049 Y20.4217
G01 X42.4060 Y20.4143
G00 Z2.0000
G00 X39.8660 Y20.4143
G01 F60.00
G01 Z-0.0500
G01 F120.00
G01 X39.8727 Y20.3835
G01 X39.8742 Y20.3787
G01 X39.8761 Y20.3740
G01 X39.8798 Y20.3675
G01 X39.8981 Y20.3417
G01 X39.9012 Y20.3377
G01 X39.9047 Y20.3341
G01 X39.9085 Y20.3309
G01 X39.9127 Y20.3280
G01 X39.9395 Y20.3115
G01 X39.9451 Y20.3087
G01 X39.9498 Y20.3070
G01 X39.9547 Y20.3057
G01 X39.9860 Y20.3003
G01 X39.9910 Y20.3000
G01 X40.8702 Y20.3000
G01 X40.8777 Y20.3008
G01 X40.9086 Y20.3070
G01 X40.9135 Y20.3082
G01 X40.9182 Y20.3100
G01 X40.9228 Y20.3122
G01 X40.9270 Y20.3148
G01 X40.9531 Y20.3327
G01 X40.9596 Y20.3384
G01 X40.9658 Y20.3462
G01 X40.9828 Y20.3727
G01 X40.9865 Y20.3801
G01 X40.9884 Y20.3858
G01 X40.9894 Y20.3905
G01 X40.9946 Y20.4216
G01 X40.9951 Y20.4290
G01 X40.9941 Y20.4388
G01 X40.9866 Y20.4707
G01 X40.9846 Y20.4767
G01 X40.9825 Y20.4813
G01 X40.9800 Y20.4856
G01 X40.9608 Y20.5127
G01 X40.7251 Y20.7486
G01 X40.5461 Y21.1806
G01 X40.5426 Y21.1871
G01 X40.5250 Y21.2133
G01 X40.5198 Y21.2199
G01 X40.5136 Y21.2254
G01 X40.4852 Y21.2440
G01 X40.4787 Y21.2475
G01 X40.4729 Y21.2497
G01 X40.4669 Y21.2512
G01 X40.4359 Y21.2568
G01 X40.4276 Y21.2574
G01 X40.4182 Y21.2564
G01 X40.3874 Y21.2493
G01 X40.3826 Y21.2480
G01 X40.3769 Y21.2456
G01 X40.3704 Y21.2419
G01 X40.3428 Y21.2220
G01 X40.3372 Y21.2168
G01 X40.3325 Y21.2108
G01 X40.3168 Y21.1861
G01 X40.3134 Y21.1794
G01 X40.1349 Y20.7486
G01 X39.9017 Y20.5155
G01 X39.8984 Y20.5117
G01 X39.8780 Y20.4813
G01 X39.8750 Y20.4758
G01 X39.8728 Y20.4701
G01 X39.8713 Y20.4640
G01 X39.8651 Y20.4305
G01 X39.8649 Y20.4217
G01 X39.8660 Y20.4143
G00 Z2.0000
G00 X37.3260 Y20.4143
G01 F60.00
G01 Z-0.0500
G01 F120.00
G01 X37.3327 Y20.3835
G01 X37.3342 Y20.3787
G01 X37.3361 Y20.3740
G01 X37.3398 Y20.3675
G01 X37.3581 Y20.3417
G01 X37.3612 Y20.3377
G01 X37.3647 Y20.3341
G01 X37.3685 Y20.3309
G01 X37.3727 Y20.3280
G01 X37.3995 Y20.3115
G01 X37.4051 Y20.3087
G01 X37.4098 Y20.3070
G01 X37.4147 Y20.3057
G01 X37.4460 Y20.3003
G01 X37.4510 Y20.3000
G01 X38.3302 Y20.3000
G01 X38.3377 Y20.3008
G01 X38.3686 Y20.3070
G01 X38.3735 Y20.3082
G01 X38.3782 Y20.3100
G01 X38.3828 Y20.3122
G01 X38.3870 Y20.3148
G01 X38.4131 Y20.3327
G01 X38.4196 Y20.3384
G01 X38.4258 Y20.3462
G01 X38.4428 Y20.3727
G01 X38.4465 Y20.3801
G01 X38.4484 Y20.3858
G01 X38.4494 Y20.3905
G01 X38.4546 Y20.4216
G01 X38.4551 Y20.4290
G01 X38.4541 Y20.4388
G01 X38.4466 Y20.4707
G01 X38.4446 Y20.4767
G01 X38.4425 Y20.4813
G01 X38.4400 Y20.4856
G01 X38.4208 Y20.5127
G01 X38.1851 Y20.7486
G01 X38.0061 Y21.1806
G01 X38.0026 Y21.1871
G01 X37.9850 Y21.2133
G01 X37.9798 Y21.2199
G01 X37.9736 Y21.2254
G01 X37.9452 Y21.2440
G01 X37.9387 Y21.2475
G01 X37.9329 Y21.2497
G01 X37.9269 Y21.2512
G01 X37.8959 Y21.2568
G01 X37.8876 Y21.2574
G01 X37.8782 Y21.2564
G01 X37.8474 Y21.2493
G01 X37.8426 Y21.2480
G01 X37.8369 Y21.2456
G01 X37.8304 Y21.2419
G01 X37.8028 Y21.2220
G01 X37.7972 Y21.2168
G01 X37.7925 Y21.2108
G01 X37.7768 Y21.1861
G01 X37.7734 Y21.1794
G01 X37.5949 Y20.7486
G01 X37.3617 Y20.5155
G01 X37.3584 Y20.5117
G01 X37.3380 Y20.4813
G01 X37.3350 Y20.4758
G01 X37.3328 Y20.4701
G01 X37.3313 Y20.4640
G01 X37.3251 Y20.4305
G01 X37.3249 Y20.4217
G01 X37.3260 Y20.4143
G00 Z2.0000
G00 X34.7860 Y20.4143
G01 F60.00
G01 Z-0.0500
G01 F120.00
G01 X34.7927 Y20.3835
G01 X34.7942 Y20.3787
G01 X34.7961 Y20.3740
G01 X34.7998 Y20.3675
G01 X34.8181 Y20.3417
G01 X34.8212 Y20.3377
G01 X34.8247 Y20.3341
G01 X34.8285 Y20.3309
G01 X34.8327 Y20.3280
G01 X34.8595 Y20.3115
G01 X34.8651 Y20.3087
G01 X34.8698 Y20.3070
G01 X34.8747 Y20.3057
G01 X34.9060 Y20.3003
G01 X34.9110 Y20.3000
G01 X35.7902 Y20.3000
G01 X35.7977 Y20.3008
G01 X35.8286 Y20.3070
G01 X35.8335 Y20.3082
G01 X35.8382 Y20.3100
G01 X35.8428 Y20.3122
G01 X35.8470 Y20.3148
G01 X35.8731 Y20.3327
G01 X35.8796 Y20.3384
G01 X35.8858 Y20.3462
G01 X35.9028 Y20.3727
G01 X35.9065 Y20.3801
G01 X35.9084 Y20.3858
G01 X35.9094 Y20.3905
G01 X35.9146 Y20.4216
G01 X35.9151 Y20.4290
G01 X35.9141 Y20.4388
G01 X35.9066 Y20.4707
G01 X35.9046 Y20.4767
G01 X35.9025 Y20.4813
G01 X35.9000 Y20.4856
G01 X35.8808 Y20.5127
G01 X35.6451 Y20.7486
G01 X35.4661 Y21.1806
G01 X35.4626 Y21.1871
G01 X35.4450 Y21.2133
G01 X35.4398 Y21.2199
G01 X35.4336 Y21.2254
G01 X35.4052 Y21.2440
G01 X35.3987 Y21.2475
G01 X35.3929 Y21.2497
G01 X35.3869 Y21.2512
G01 X35.3559 Y21.2568
G01 X35.3476 Y21.2574
G01 X35.3382 Y21.2564
G01 X35.3074 Y21.2493
G01 X35.3026 Y21.2480
G01 X35.2969 Y21.2456
G01 X35.2904 Y21.2419
G01 X35.2628 Y21.2220
G01 X35.2572 Y21.2168
G01 X35.2525 Y21.2108
G01 X35.2368 Y21.1861
G01 X35.2334 Y21.1794
G01 X35.0549 Y20.7486
G01 X34.8217 Y20.5155
G01 X34.8184 Y20.5117
G01 X34.7980 Y20.4813
G01 X34.7950 Y20.4758
G01 X34.7928 Y20.4701
G01 X34.7913 Y20.4640
G01 X34.7851 Y20.4305
G01 X34.7849 Y20.4217
G01 X34.7860 Y20.4143
G00 Z2.0000
G00 X32.2460 Y20.4143
G01 F60.00
G01 Z-0.0500
G01 F120.00
G01 X32.2527 Y20.3835
G01 X32.2542 Y20.3787
G01 X32.2561 Y20.3740
G01 X32.2598 Y20.3675
G01 X32.2781 Y20.3417
G01 X32.2812 Y20.3377
G01 X32.2847 Y20.3341
G01 X32.2885 Y20.3309
G01 X32.2927 Y20.3280
G01 X32.3195 Y20.3115
G01 X32.3251 Y20.3087
G01 X32.3298 Y20.3070
G01 X32.3347 Y20.3057
G01 X32.3660 Y20.3003
G01 X32.3710 Y20.3000
G01 X33.2502 Y20.3000
G01 X33.2577 Y20.3008
G01 X33.2886 Y20.3070
G01 X33.2935 Y20.3082
G01 X33.2982 Y20.3100
G01 X33.3028 Y20.3122
G01 X33.3070 Y20.3148
G01 X33.3331 Y20.3327
G01 X33.3396 Y20.3384
G01 X33.3458 Y20.3462
G01 X33.3628 Y20.3727
G01 X33.3665 Y20.3801
G01 X33.3684 Y20.3858
G01 X33.3694 Y20.3905
G01 X33.3746 Y20.4216
G01 X33.3751 Y20.4290
G01 X33.3741 Y20.4388
G01 X33.3666 Y20.4707
G01 X33.3646 Y20.4767
G01 X33.3625 Y20.4813
G01 X33.3600 Y20.4856
G01 X33.3408 Y20.5127
G01 X33.1051 Y20.7486
G01 X32.9261 Y21.1806
G01 X32.9226 Y21.1871
G01 X32.9050 Y21.2133
G01 X32.8998 Y21.2199
G01 X32.8936 Y21.2254
G01 X32.8652 Y21.2440
G01 X32.8587 Y21.2475
G01 X32.8529 Y21.2497
G01 X32.8469 Y21.2512
G01 X32.8159 Y21.2568
G01 X32.8076 Y21.2574
G01 X32.7982 Y21.2564
G01 X32.7674 Y21.2493
G01 X32.7626 Y21.2480
G01 X32.7569 Y21.2456
G01 X32.7504 Y21.2419
G01 X32.7228 Y21.2220
G01 X32.7172 Y21.2168
G01 X32.7125 Y21.2108
G01 X32.6968 Y21.1861
G01 X32.6934 Y21.1794
G01 X32.5149 Y20.7486
G01 X32.2817 Y20.5155
G01 X32.2784 Y20.5117
G01 X32.2580 Y20.4813
G01 X32.2550 Y20.4758
G01 X32.2528 Y20.4701
G01 X32.2513 Y20.4640
G01 X32.2451 Y20.4305
G01 X32.2449 Y20.4217
G01 X32.2460 Y20.4143
G00 Z2.0000
G00 X29.7060 Y20.4143
G01 F60.00
G01 Z-0.0500
G01 F120.00
G01 X29.7127 Y20.3835
G01 X29.7142 Y20.3787
G01 X29.7161 Y20.3740
G01 X29.7198 Y20.3675
G01 X29.7381 Y20.3417
G01 X29.7412 Y20.3377
G01 X29.7447 Y20.3341
G01 X29.7485 Y20.3309
G01 X29.7527 Y20.3280
G01 X29.7795 Y20.3115
G01 X29.7851 Y20.3087
G01 X29.7898 Y20.3070
G01 X29.7947 Y20.3057
G01 X29.8260 Y20.3003
G01 X29.8310 Y20.3000
G01 X30.7102 Y20.3000
G01 X30.7177 Y20.3008
G01 X30.7486 Y20.3070
G01 X30.7535 Y20.3082
G01 X30.7582 Y20.3100
G01 X30.7628 Y20.3122
G01 X30.7670 Y20.3148
G01 X30.7931 Y20.3327
G01 X30.7996 Y20.3384
G01 X30.8058 Y20.3462
G01 X30.8228 Y20.3727
G01 X30.8265 Y20.3801
G01 X30.8281 Y20.3846
G01 X30.8294 Y20.3905
G01 X30.8346 Y20.4216
G01 X30.8351 Y20.4290
G01 X30.8341 Y20.4388
G01 X30.8266 Y20.4707
G01 X30.8246 Y20.4767
G01 X30.8225 Y20.4813
G01 X30.8200 Y20.4856
G01 X30.8008 Y20.5127
G01 X30.5651 Y20.7486
G01 X30.3861 Y21.1806
G01 X30.3826 Y21.1871
G01 X30.3650 Y21.2133
G01 X30.3598 Y21.2199
G01 X30.3536 Y21.2254
G01 X30.3252 Y21.2440
G01 X30.3187 Y21.2475
G01 X30.3129 Y21.2497
G01 X30.3069 Y21.2512
G01 X30.2759 Y21.2568
G01 X30.2676 Y21.2574
G01 X30.2582 Y21.2564
G01 X30.2274 Y21.2493
G01 X30.2226 Y21.2480
G01 X30.2169 Y21.2456
G01 X30.2104 Y21.2419
G01 X30.1828 Y21.2220
G01 X30.1772 Y21.2168
G01 X30.1725 Y21.2108
G01 X30.1568 Y21.1861
G01 X30.1534 Y21.1794
G01 X29.9749 Y20.7486
G01 X29.7417 Y20.5155
G01 X29.7384 Y20.5117
G01 X29.7180 Y20.4813
G01 X29.7150 Y20.4758
G01 X29.7128 Y20.4701
G01 X29.7113 Y20.4640
G01 X29.7051 Y20.4305
G01 X29.7049 Y20.4217
G01 X29.7060 Y20.4143
G00 Z2.0000
G00 X27.1660 Y20.4143
G01 F60.00
G01 Z-0.0500
G01 F120.00
G01 X27.1727 Y20.3835
G01 X27.1742 Y20.3787
G01 X27.1761 Y20.3740
G01 X27.1798 Y20.3675
G01 X27.1981 Y20.3417
G01 X27.2012 Y20.3377
G01 X27.2047 Y20.3341
G01 X27.2085 Y20.3309
G01 X27.2127 Y20.3280
G01 X27.2395 Y20.3115
G01 X27.2451 Y20.3087
G01 X27.2498 Y20.3070
G01 X27.2547 Y20.3057
G01 X27.2860 Y20.3003
G01 X27.2910 Y20.3000
G01 X28.1702 Y20.3000
G01 X28.1777 Y20.3008
G01 X28.2086 Y20.3070
G01 X28.2135 Y20.3082
G01 X28.2182 Y20.3100
G01 X28.2228 Y20.3122
G01 X28.2270 Y20.3148
G01 X28.2531 Y20.3327
G01 X28.2596 Y20.3384
G01 X28.2658 Y20.3462
G01 X28.2828 Y20.3727
G01 X28.2865 Y20.3801
G01 X28.2881 Y20.3846
G01 X28.2894 Y20.3905
G01 X28.2946 Y20.4216
G01 X28.2951 Y20.4290
G01 X28.2941 Y20.4388
G01 X28.2866 Y20.4707
G01 X28.2846 Y20.4767
G01 X28.2825 Y20.4813
G01 X28.2800 Y20.4856
G01 X28.2608 Y20.5127
G01 X28.0251 Y20.7486
G01 X27.8461 Y21.1806
G01 X27.8426 Y21.1871
G01 X27.8250 Y21.2133
G01 X27.8198 Y21.2199
G01 X27.8136 Y21.2254
G01 X27.7852 Y21.2440
G01 X27.7787 Y21.2475
G01 X27.7729 Y21.2497
G01 X27.7669 Y21.2512
G01 X27.7359 Y21.2568
G01 X27.7276 Y21.2574
G01 X27.7182 Y21.2564
G01 X27.6874 Y21.2493
G01 X27.6826 Y21.2480
G01 X27.6769 Y21.2456
G01 X27.6704 Y21.2419
G01 X27.6428 Y21.2220
G01 X27.6372 Y21.2168
G01 X27.6325 Y21.2108
G01 X27.6168 Y21.1861
G01 X27.6134 Y21.1794
G01 X27.4349 Y20.7486
G01 X27.2017 Y20.5155
G01 X27.1984 Y20.5117
G01 X27.1780 Y20.4813
G01 X27.1750 Y20.4758
G01 X27.1728 Y20.4701
G01 X27.1713 Y20.4640
G01 X27.1651 Y20.4305
G01 X27.1649 Y20.4217
G01 X27.1660 Y20.4143
G00 Z2.0000
G00 X26.9320 Y19.5599
G01 F60.00
G01 Z-0.0500
G01 F120.00
G01 X26.9393 Y19.5291
G01 X26.9422 Y19.5209
G01 X26.9466 Y19.5134
G01 X26.9650 Y19.4873
G01 X27.2206 Y19.2315
G01 X27.2645 Y19.1256
G01 X27.2682 Y19.1191
G01 X27.2851 Y19.0940
G01 X27.2889 Y19.0890
G01 X27.2934 Y19.0846
G01 X27.2983 Y19.0807
G01 X27.3259 Y19.0627
G01 X27.3323 Y19.0594
G01 X27.3381 Y19.0573
G01 X27.3428 Y19.0562
G01 X27.3720 Y19.0507
G01 X27.3789 Y19.0500
G01 X43.6243 Y19.0500
G01 X51.5917 Y11.0827
G01 X51.5966 Y11.0788
G01 X51.6240 Y11.0607
G01 X51.6329 Y11.0563
G01 X51.6400 Y11.0542
G01 X51.6711 Y11.0484
G01 X51.6771 Y11.0476
G01 X51.6820 Y11.0475
G01 X51.6905 Y11.0485
G01 X51.7195 Y11.0546
G01 X51.7251 Y11.0563
G01 X51.8309 Y11.1000
G01 X52.1691 Y11.1000
G01 X52.4815 Y10.9706
G01 X52.7354 Y10.7167
G01 X52.7412 Y10.7119
G01 X52.7675 Y10.6944
G01 X52.7753 Y10.6902
G01 X52.7812 Y10.6881
G01 X52.7861 Y10.6869
G01 X52.8172 Y10.6812
G01 X52.8258 Y10.6806
G01 X52.8357 Y10.6818
G01 X52.8665 Y10.6885
G01 X52.8748 Y10.6914
G01 X52.8824 Y10.6955
G01 X52.9082 Y10.7137
G01 X52.9122 Y10.7169
G01 X52.9158 Y10.7204
G01 X52.9213 Y10.7273
G01 X52.9379 Y10.7542
G01 X52.9403 Y10.7586
G01 X52.9427 Y10.7644
G01 X52.9443 Y10.7704
G01 X52.9492 Y10.7980
G01 X52.9500 Y10.8068
G01 X52.9499 Y16.8736
G01 X52.9490 Y16.8798
G01 X52.9427 Y16.9107
G01 X52.9414 Y16.9156
G01 X52.9395 Y16.9203
G01 X52.9359 Y16.9269
G01 X52.9180 Y16.9529
G01 X52.9151 Y16.9568
G01 X52.9109 Y16.9611
G01 X52.9043 Y16.9663
G01 X52.8795 Y16.9827
G01 X52.8743 Y16.9855
G01 X52.7685 Y17.0294
G01 X52.5294 Y17.2685
G01 X52.4000 Y17.5809
G01 X52.4000 Y17.9191
G01 X52.5294 Y18.2315
G01 X52.7685 Y18.4706
G01 X53.0809 Y18.6000
G01 X53.4191 Y18.6000
G01 X53.7315 Y18.4706
G01 X53.9854 Y18.2167
G01 X53.9912 Y18.2119
G01 X54.0186 Y18.1938
G01 X54.0253 Y18.1902
G01 X54.0324 Y18.1878
G01 X54.0672 Y18.1812
G01 X54.0733 Y18.1806
G01 X54.0796 Y18.1808
G01 X54.0857 Y18.1818
G01 X54.1189 Y18.1892
G01 X54.1259 Y18.1919
G01 X54.1334 Y18.1962
G01 X54.1592 Y18.2145
G01 X54.1658 Y18.2204
G01 X54.1713 Y18.2273
G01 X54.1879 Y18.2542
G01 X54.1913 Y18.2608
G01 X54.1940 Y18.2692
G01 X54.1994 Y18.2993
G01 X54.2000 Y18.3055
G01 X54.2000 Y20.1238
G01 X54.1990 Y20.1337
G01 X54.1927 Y20.1646
G01 X54.1910 Y20.1707
G01 X54.1884 Y20.1764
G01 X54.1859 Y20.1808
G01 X54.1673 Y20.2079
G01 X54.1625 Y20.2135
G01 X54.1559 Y20.2192
G01 X54.1273 Y20.2376
G01 X54.1197 Y20.2414
G01 X54.1116 Y20.2438
G01 X54.0790 Y20.2497
G01 X54.0738 Y20.2500
G01 X53.3379 Y20.2500
G01 X53.2500 Y20.3379
G01 X53.2498 Y21.1212
G01 X53.2427 Y21.1570
G01 X53.2400 Y21.1654
G01 X53.2359 Y21.1732
G01 X53.2173 Y21.2003
G01 X53.2116 Y21.2068
G01 X53.2049 Y21.2123
G01 X53.1773 Y21.2300
G01 X53.1717 Y21.2329
G01 X53.1670 Y21.2348
G01 X53.1609 Y21.2364
G01 X53.1298 Y21.2417
G01 X53.1211 Y21.2424
G01 X53.1160 Y21.2421
G01 X53.1111 Y21.2413
G01 X53.0791 Y21.2337
G01 X53.0710 Y21.2308
G01 X53.0634 Y21.2265
G01 X53.0369 Y21.2071
G01 X53.0322 Y21.2030
G01 X53.0288 Y21.1993
G01 X53.0252 Y21.1943
G01 X53.0112 Y21.1722
G01 X53.0077 Y21.1657
G01 X52.8349 Y20.7486
G01 X52.5114 Y20.4251
G01 X52.0888 Y20.2500
G01 X51.6312 Y20.2500
G01 X51.2086 Y20.4251
G01 X50.8851 Y20.7486
G01 X50.7066 Y21.1794
G01 X50.7033 Y21.1861
G01 X50.6843 Y21.2143
G01 X50.6790 Y21.2207
G01 X50.6717 Y21.2268
G01 X50.6441 Y21.2446
G01 X50.6375 Y21.2480
G01 X50.6293 Y21.2507
G01 X50.5959 Y21.2568
G01 X50.5876 Y21.2574
G01 X50.5782 Y21.2564
G01 X50.5462 Y21.2490
G01 X50.5391 Y21.2467
G01 X50.5315 Y21.2426
G01 X50.5038 Y21.2227
G01 X50.4981 Y21.2177
G01 X50.4925 Y21.2108
G01 X50.4761 Y21.1850
G01 X50.4734 Y21.1794
G01 X50.2949 Y20.7486
G01 X49.9714 Y20.4251
G01 X49.5488 Y20.2500
G01 X49.0912 Y20.2500
G01 X48.6686 Y20.4251
G01 X48.3451 Y20.7486
G01 X48.1666 Y21.1794
G01 X48.1633 Y21.1861
G01 X48.1443 Y21.2143
G01 X48.1381 Y21.2216
G01 X48.1317 Y21.2268
G01 X48.1031 Y21.2453
G01 X48.0975 Y21.2480
G01 X48.0905 Y21.2504
G01 X48.0571 Y21.2566
G01 X48.0488 Y21.2574
G01 X48.0393 Y21.2566
G01 X48.0038 Y21.2484
G01 X47.9969 Y21.2456
G01 X47.9904 Y21.2419
G01 X47.9638 Y21.2227
G01 X47.9581 Y21.2177
G01 X47.9525 Y21.2108
G01 X47.9361 Y21.1850
G01 X47.9334 Y21.1794
G01 X47.7549 Y20.7486
G01 X47.4314 Y20.4251
G01 X47.0088 Y20.2500
G01 X46.5512 Y20.2500
G01 X46.1286 Y20.4251
G01 X45.9523 Y20.6013
G01 X45.9455 Y20.6067
G01 X45.9203 Y20.6235
G01 X45.9152 Y20.6265
G01 X45.9086 Y20.6293
G01 X45.9028 Y20.6308
G01 X45.8705 Y20.6368
G01 X45.8643 Y20.6374
G01 X45.8594 Y20.6373
G01 X45.8532 Y20.6365
G01 X45.8200 Y20.6292
G01 X45.8132 Y20.6268
G01 X45.8068 Y20.6234
G01 X45.7807 Y20.6056
G01 X45.7747 Y20.6005
G01 X44.8743 Y19.7000
G01 X27.0568 Y19.7000
G01 X27.0482 Y19.6992
G01 X27.0171 Y19.6930
G01 X27.0122 Y19.6918
G01 X27.0075 Y19.6900
G01 X26.9997 Y19.6859
G01 X26.9737 Y19.6680
G01 X26.9688 Y19.6641
G01 X26.9644 Y19.6597
G01 X26.9606 Y19.6548
G01 X26.9429 Y19.6272
G01 X26.9405 Y19.6228
G01 X26.9382 Y19.6170
G01 X26.9364 Y19.6097
G01 X26.9310 Y19.5773
G01 X26.9307 Y19.5685
G01 X26.9320 Y19.5599
G00 Z2.0000
G00 X27.2222 Y18.9501
G01 F60.00
G01 Z-0.0500
G01 F120.00
G01 X27.2173 Y18.9689
G01 X27.1934 Y19.0359
G01 X27.1620 Y19.1025
G01 X27.1236 Y19.1667
G01 X27.0805 Y19.2248
G01 X27.0303 Y19.2803
G01 X26.9758 Y19.3298
G01 X26.9167 Y19.3736
G01 X26.8546 Y19.4108
G01 X26.7870 Y19.4429
G01 X26.7177 Y19.4677
G01 X26.6463 Y19.4856
G01 X26.5735 Y19.4964
G01 X26.5000 Y19.5000
G01 X26.4265 Y19.4964
G01 X26.3537 Y19.4856
G01 X26.2835 Y19.4680
G01 X26.2130 Y19.4429
G01 X26.1465 Y19.4114
G01 X26.0833 Y19.3736
G01 X26.0242 Y19.3298
G01 X25.9697 Y19.2803
G01 X25.9202 Y19.2258
G01 X25.8764 Y19.1667
G01 X25.8386 Y19.1035
G01 X25.8071 Y19.0370
G01 X25.7823 Y18.9677
G01 X25.7644 Y18.8963
G01 X25.7536 Y18.8235
G01 X25.7500 Y18.7500
G01 X25.7536 Y18.6765
G01 X25.7644 Y18.6037
G01 X25.7820 Y18.5335
G01 X25.8081 Y18.4607
G01 X25.8386 Y18.3965
G01 X25.8764 Y18.3333
G01 X25.9202 Y18.2742
G01 X25.9680 Y18.2214
G01 X26.0261 Y18.1687
G01 X26.0833 Y18.1264
G01 X26.1465 Y18.0886
G01 X26.2130 Y18.0571
G01 X26.2800 Y18.0331
G01 X26.3561 Y18.0140
G01 X26.4265 Y18.0036
G01 X26.5000 Y18.0000
G01 X26.5735 Y18.0036
G01 X26.6439 Y18.0140
G01 X26.7200 Y18.0331
G01 X26.7870 Y18.0571
G01 X26.8535 Y18.0886
G01 X26.9167 Y18.1264
G01 X26.9748 Y18.1695
G01 X27.0303 Y18.2197
G01 X27.0782 Y18.2723
G01 X27.1243 Y18.3344
G01 X27.1614 Y18.3965
G01 X27.1924 Y18.4619
G01 X27.2173 Y18.5311
G01 X27.2222 Y18.5499
G01 X43.4171 Y18.5499
G01 X51.3479 Y10.6192
G01 X51.3380 Y10.6025
G01 X51.3066 Y10.5359
G01 X51.2823 Y10.4677
G01 X51.2644 Y10.3963
G01 X51.2536 Y10.3235
G01 X51.2501 Y10.2525
G01 X51.2539 Y10.1741
G01 X51.2644 Y10.1037
G01 X51.2823 Y10.0323
G01 X51.3071 Y9.9630
G01 X51.3375 Y9.8986
G01 X51.3778 Y9.8313
G01 X51.4202 Y9.7742
G01 X51.4714 Y9.7180
G01 X51.5242 Y9.6702
G01 X51.5813 Y9.6278
G01 X51.6443 Y9.5898
G01 X51.7130 Y9.5571
G01 X51.7823 Y9.5323
G01 X51.8561 Y9.5140
G01 X51.9265 Y9.5036
G01 X51.9975 Y9.5001
G01 X52.0735 Y9.5036
G01 X52.1487 Y9.5149
G01 X52.2177 Y9.5323
G01 X52.2847 Y9.5562
G01 X52.3535 Y9.5886
G01 X52.4187 Y9.6278
G01 X52.4758 Y9.6702
G01 X52.5286 Y9.7180
G01 X52.5798 Y9.7742
G01 X52.6249 Y9.8354
G01 X52.6625 Y9.8986
G01 X52.6929 Y9.9630
G01 X52.7169 Y10.0300
G01 X52.7360 Y10.1061
G01 X52.7464 Y10.1765
G01 X52.7499 Y10.2475
G01 X52.7464 Y10.3235
G01 X52.7351 Y10.3987
G01 X52.7177 Y10.4677
G01 X52.6938 Y10.5347
G01 X52.6614 Y10.6035
G01 X52.6236 Y10.6667
G01 X52.5813 Y10.7239
G01 X52.5295 Y10.7812
G01 X52.4758 Y10.8298
G01 X52.4187 Y10.8722
G01 X52.3514 Y10.9125
G01 X52.2870 Y10.9429
G01 X52.2177 Y10.9677
G01 X52.1463 Y10.9856
G01 X52.0747 Y10.9963
G01 X51.9975 Y10.9999
G01 X51.9265 Y10.9964
G01 X51.8525 Y10.9853
G01 X51.7823 Y10.9677
G01 X51.7141 Y10.9434
G01 X51.6475 Y10.9120
G01 X51.6308 Y10.9021
G01 X43.6415 Y18.8915
G01 X43.6269 Y18.9047
G01 X43.6091 Y18.9177
G01 X43.5943 Y18.9265
G01 X43.5788 Y18.9339
G01 X43.5604 Y18.9407
G01 X43.5366 Y18.9467
G01 X43.5196 Y18.9491
G01 X43.5000 Y18.9501
G01 X27.2222 Y18.9501
G00 Z2.0000
G00 X24.6260 Y20.4143
G01 F60.00
G01 Z-0.0500
G01 F120.00
G01 X24.6327 Y20.3835
G01 X24.6342 Y20.3787
G01 X24.6361 Y20.3740
G01 X24.6398 Y20.3675
G01 X24.6581 Y20.3417
G01 X24.6612 Y20.3377
G01 X24.6647 Y20.3341
G01 X24.6685 Y20.3309
G01 X24.6727 Y20.3280
G01 X24.6995 Y20.3115
G01 X24.7051 Y20.3087
G01 X24.7098 Y20.3070
