(G-CODE GENERATED BY FLATCAM v8.993 - www.flatcam.org - Version Date: 2020/06/05)

(Name: drill_1_16.xln_cnc)
(Type: G-code from Excellon)
(Units: MM)

(Created on Thursday, 08 August 2024 at 22:23)

(This preprocessor is the default preprocessor used by FlatCAM.)
(It is made to work with MACH3 compatible motion controllers.)


(TOOLS DIAMETER: )
(Tool: 1 -> Dia: 0.8)

(FEEDRATE Z: )
(Tool: 1 -> Feedrate: 100.0)

(FEEDRATE RAPIDS: )
(Tool: 1 -> Feedrate Rapids: 1500)

(Z_CUT: )
(Tool: 1 -> Z_Cut: -1.5)

(Tools Offset: )
(Tool: 1 -> Offset Z: -0.0)

(Z_MOVE: )
(Tool: 1 -> Z_Move: 2)

(Z Start: None mm)
(Z End: 2.0 mm)
(Steps per circle: 64)
(Preprocessor Excellon: default)

(X range:    1.6160 ...   68.3840  mm)
(Y range:    1.6160 ...   98.3840  mm)

(Spindle Speed: 1000.0 RPM)
G21
G90
G94



G00 Z2.0000

G01 F100.00
M03 S1000
G00 X60.2500 Y22.7500
G01 Z-1.5000
G01 Z0
G00 Z2.0000
G00 X64.4400 Y14.8560
G01 Z-1.5000
G01 Z0
G00 Z2.0000
G00 X66.9800 Y14.8560
G01 Z-1.5000
G01 Z0
G00 Z2.0000
G00 X66.9800 Y12.3160
G01 Z-1.5000
G01 Z0
G00 Z2.0000
G00 X67.9840 Y2.0160
G01 Z-1.5000
G01 Z0
G00 Z2.0000
G00 X64.4400 Y12.3160
G01 Z-1.5000
G01 Z0
G00 Z2.0000
G00 X61.9000 Y12.3160
G01 Z-1.5000
G01 Z0
G00 Z2.0000
G00 X61.9000 Y14.8560
G01 Z-1.5000
G01 Z0
G00 Z2.0000
G00 X58.2500 Y13.2500
G01 Z-1.5000
G01 Z0
G00 Z2.0000
G00 X52.0000 Y10.2500
G01 Z-1.5000
G01 Z0
G00 Z2.0000
G00 X54.4000 Y5.9000
G01 Z-1.5000
G01 Z0
G00 Z2.0000
G00 X51.8600 Y5.9000
G01 Z-1.5000
G01 Z0
G00 Z2.0000
G00 X49.3200 Y5.9000
G01 Z-1.5000
G01 Z0
G00 Z2.0000
G00 X46.7800 Y5.9000
G01 Z-1.5000
G01 Z0
G00 Z2.0000
G00 X44.2400 Y5.9000
G01 Z-1.5000
G01 Z0
G00 Z2.0000
G00 X41.7000 Y5.9000
G01 Z-1.5000
G01 Z0
G00 Z2.0000
G00 X39.1600 Y5.9000
G01 Z-1.5000
G01 Z0
G00 Z2.0000
G00 X36.6200 Y5.9000
G01 Z-1.5000
G01 Z0
G00 Z2.0000
G00 X34.0800 Y5.9000
G01 Z-1.5000
G01 Z0
G00 Z2.0000
G00 X31.5400 Y5.9000
G01 Z-1.5000
G01 Z0
G00 Z2.0000
G00 X29.0000 Y5.9000
G01 Z-1.5000
G01 Z0
G00 Z2.0000
G00 X26.4600 Y5.9000
G01 Z-1.5000
G01 Z0
G00 Z2.0000
G00 X23.9200 Y5.9000
G01 Z-1.5000
G01 Z0
G00 Z2.0000
G00 X21.3800 Y5.9000
G01 Z-1.5000
G01 Z0
G00 Z2.0000
G00 X18.8400 Y5.9000
G01 Z-1.5000
G01 Z0
G00 Z2.0000
G00 X16.3000 Y5.9000
G01 Z-1.5000
G01 Z0
G00 Z2.0000
G00 X2.0160 Y2.0160
G01 Z-1.5000
G01 Z0
G00 Z2.0000
G00 X12.0000 Y22.2500
G01 Z-1.5000
G01 Z0
G00 Z2.0000
G00 X16.3000 Y21.4000
G01 Z-1.5000
G01 Z0
G00 Z2.0000
G00 X18.8400 Y21.4000
G01 Z-1.5000
G01 Z0
G00 Z2.0000
G00 X21.3800 Y21.4000
G01 Z-1.5000
G01 Z0
G00 Z2.0000
G00 X23.9200 Y21.4000
G01 Z-1.5000
G01 Z0
G00 Z2.0000
G00 X26.5000 Y18.7500
G01 Z-1.5000
G01 Z0
G00 Z2.0000
G00 X26.4600 Y21.4000
G01 Z-1.5000
G01 Z0
G00 Z2.0000
G00 X29.0000 Y21.4000
G01 Z-1.5000
G01 Z0
G00 Z2.0000
G00 X31.5400 Y21.4000
G01 Z-1.5000
G01 Z0
G00 Z2.0000
G00 X34.0800 Y21.4000
G01 Z-1.5000
G01 Z0
G00 Z2.0000
G00 X36.6200 Y21.4000
G01 Z-1.5000
G01 Z0
G00 Z2.0000
G00 X39.1600 Y21.4000
G01 Z-1.5000
G01 Z0
G00 Z2.0000
G00 X41.7000 Y21.4000
G01 Z-1.5000
G01 Z0
G00 Z2.0000
G00 X26.3000 Y61.4000
G01 Z-1.5000
G01 Z0
G00 Z2.0000
G00 X23.7600 Y61.4000
G01 Z-1.5000
G01 Z0
G00 Z2.0000
G00 X21.2200 Y61.4000
G01 Z-1.5000
G01 Z0
G00 Z2.0000
G00 X21.2200 Y64.4000
G01 Z-1.5000
G01 Z0
G00 Z2.0000
G00 X23.7600 Y64.4000
G01 Z-1.5000
G01 Z0
G00 Z2.0000
G00 X26.3000 Y64.4000
G01 Z-1.5000
G01 Z0
G00 Z2.0000
G00 X28.8000 Y70.5000
G01 Z-1.5000
G01 Z0
G00 Z2.0000
G00 X31.3400 Y70.5000
G01 Z-1.5000
G01 Z0
G00 Z2.0000
G00 X33.8800 Y70.5000
G01 Z-1.5000
G01 Z0
G00 Z2.0000
G00 X36.4200 Y70.5000
G01 Z-1.5000
G01 Z0
G00 Z2.0000
G00 X38.9600 Y70.5000
G01 Z-1.5000
G01 Z0
G00 Z2.0000
G00 X41.5000 Y70.5000
G01 Z-1.5000
G01 Z0
G00 Z2.0000
G00 X44.0400 Y70.5000
G01 Z-1.5000
G01 Z0
G00 Z2.0000
G00 X44.0400 Y73.7000
G01 Z-1.5000
G01 Z0
G00 Z2.0000
G00 X41.5000 Y73.7000
G01 Z-1.5000
G01 Z0
G00 Z2.0000
G00 X38.9600 Y73.7000
G01 Z-1.5000
G01 Z0
G00 Z2.0000
G00 X36.4200 Y73.7000
G01 Z-1.5000
G01 Z0
G00 Z2.0000
G00 X33.8800 Y73.7000
G01 Z-1.5000
G01 Z0
G00 Z2.0000
G00 X31.3400 Y73.7000
G01 Z-1.5000
G01 Z0
G00 Z2.0000
G00 X28.8000 Y73.7000
G01 Z-1.5000
G01 Z0
G00 Z2.0000
G00 X26.2600 Y73.7000
G01 Z-1.5000
G01 Z0
G00 Z2.0000
G00 X26.2600 Y70.5000
G01 Z-1.5000
G01 Z0
G00 Z2.0000
G00 X23.7200 Y70.5000
G01 Z-1.5000
G01 Z0
G00 Z2.0000
G00 X21.1800 Y70.5000
G01 Z-1.5000
G01 Z0
G00 Z2.0000
G00 X18.6400 Y70.5000
G01 Z-1.5000
G01 Z0
G00 Z2.0000
G00 X16.1000 Y70.5000
G01 Z-1.5000
G01 Z0
G00 Z2.0000
G00 X16.1000 Y73.7000
G01 Z-1.5000
G01 Z0
G00 Z2.0000
G00 X18.6400 Y73.7000
G01 Z-1.5000
G01 Z0
G00 Z2.0000
G00 X21.1800 Y73.7000
G01 Z-1.5000
G01 Z0
G00 Z2.0000
G00 X23.7200 Y73.7000
G01 Z-1.5000
G01 Z0
G00 Z2.0000
G00 X16.1160 Y91.7000
G01 Z-1.5000
G01 Z0
G00 Z2.0000
G00 X2.0160 Y97.9840
G01 Z-1.5000
G01 Z0
G00 Z2.0000
G00 X16.1000 Y94.9000
G01 Z-1.5000
G01 Z0
G00 Z2.0000
G00 X18.6400 Y94.9000
G01 Z-1.5000
G01 Z0
G00 Z2.0000
G00 X18.6560 Y91.7000
G01 Z-1.5000
G01 Z0
G00 Z2.0000
G00 X21.1960 Y91.7000
G01 Z-1.5000
G01 Z0
G00 Z2.0000
G00 X21.1800 Y94.9000
G01 Z-1.5000
G01 Z0
G00 Z2.0000
G00 X23.7200 Y94.9000
G01 Z-1.5000
G01 Z0
G00 Z2.0000
G00 X23.7360 Y91.7000
G01 Z-1.5000
G01 Z0
G00 Z2.0000
G00 X26.2760 Y91.7000
G01 Z-1.5000
G01 Z0
G00 Z2.0000
G00 X26.2600 Y94.9000
G01 Z-1.5000
G01 Z0
G00 Z2.0000
G00 X28.8000 Y94.9000
G01 Z-1.5000
G01 Z0
G00 Z2.0000
G00 X28.8160 Y91.7000
G01 Z-1.5000
G01 Z0
G00 Z2.0000
G00 X31.3560 Y91.7000
G01 Z-1.5000
G01 Z0
G00 Z2.0000
G00 X31.3400 Y94.9000
G01 Z-1.5000
G01 Z0
G00 Z2.0000
G00 X33.8800 Y94.9000
G01 Z-1.5000
G01 Z0
G00 Z2.0000
G00 X33.8960 Y91.7000
G01 Z-1.5000
G01 Z0
G00 Z2.0000
G00 X36.4360 Y91.7000
G01 Z-1.5000
G01 Z0
G00 Z2.0000
G00 X36.4200 Y94.9000
G01 Z-1.5000
G01 Z0
G00 Z2.0000
G00 X38.9600 Y94.9000
G01 Z-1.5000
G01 Z0
G00 Z2.0000
G00 X38.9760 Y91.7000
G01 Z-1.5000
G01 Z0
G00 Z2.0000
G00 X41.5160 Y91.7000
G01 Z-1.5000
G01 Z0
G00 Z2.0000
G00 X41.5000 Y94.9000
G01 Z-1.5000
G01 Z0
G00 Z2.0000
G00 X44.0400 Y94.9000
G01 Z-1.5000
G01 Z0
G00 Z2.0000
G00 X44.0560 Y91.7000
G01 Z-1.5000
G01 Z0
G00 Z2.0000
G00 X46.5960 Y91.7000
G01 Z-1.5000
G01 Z0
G00 Z2.0000
G00 X46.5800 Y94.9000
G01 Z-1.5000
G01 Z0
G00 Z2.0000
G00 X49.1200 Y94.9000
G01 Z-1.5000
G01 Z0
G00 Z2.0000
G00 X51.6600 Y94.9000
G01 Z-1.5000
G01 Z0
G00 Z2.0000
G00 X54.2000 Y94.9000
G01 Z-1.5000
G01 Z0
G00 Z2.0000
G00 X67.9840 Y97.9840
G01 Z-1.5000
G01 Z0
G00 Z2.0000
G00 X54.2160 Y91.7000
G01 Z-1.5000
G01 Z0
G00 Z2.0000
G00 X51.6760 Y91.7000
G01 Z-1.5000
G01 Z0
G00 Z2.0000
G00 X49.1360 Y91.7000
G01 Z-1.5000
G01 Z0
G00 Z2.0000
G00 X46.5800 Y73.7000
G01 Z-1.5000
G01 Z0
G00 Z2.0000
G00 X49.1200 Y73.7000
G01 Z-1.5000
G01 Z0
G00 Z2.0000
G00 X51.6600 Y73.7000
G01 Z-1.5000
G01 Z0
G00 Z2.0000
G00 X54.2000 Y73.7000
G01 Z-1.5000
G01 Z0
G00 Z2.0000
G00 X54.2000 Y70.5000
G01 Z-1.5000
G01 Z0
G00 Z2.0000
G00 X51.6600 Y70.5000
G01 Z-1.5000
G01 Z0
G00 Z2.0000
G00 X49.1200 Y70.5000
G01 Z-1.5000
G01 Z0
G00 Z2.0000
G00 X46.5800 Y70.5000
G01 Z-1.5000
G01 Z0
G00 Z2.0000
G00 X44.2500 Y52.2500
G01 Z-1.5000
G01 Z0
G00 Z2.0000
G00 X46.7500 Y48.2500
G01 Z-1.5000
G01 Z0
G00 Z2.0000
G00 X51.7500 Y48.5000
G01 Z-1.5000
G01 Z0
G00 Z2.0000
G00 X49.0000 Y44.5000
G01 Z-1.5000
G01 Z0
G00 Z2.0000
G00 X51.8000 Y27.6400
G01 Z-1.5000
G01 Z0
G00 Z2.0000
G00 X53.7500 Y26.2500
G01 Z-1.5000
G01 Z0
G00 Z2.0000
G00 X51.8000 Y25.1000
G01 Z-1.5000
G01 Z0
G00 Z2.0000
G00 X51.8600 Y21.4000
G01 Z-1.5000
G01 Z0
G00 Z2.0000
G00 X49.3200 Y21.4000
G01 Z-1.5000
G01 Z0
G00 Z2.0000
G00 X46.7800 Y21.4000
G01 Z-1.5000
G01 Z0
G00 Z2.0000
G00 X44.2400 Y21.4000
G01 Z-1.5000
G01 Z0
G00 Z2.0000
G00 X44.2500 Y16.5000
G01 Z-1.5000
G01 Z0
G00 Z2.0000
G00 X53.2500 Y17.7500
G01 Z-1.5000
G01 Z0
G00 Z2.0000
G00 X54.4000 Y21.4000
G01 Z-1.5000
G01 Z0
G00 Z2.0000
M05
G00 Z2.00
G00 X0.0 Y0.0

